styles/Kodak/Kodak Ektar 25 +.costyle
<?xml version="1.0"?>
<SL Engine="900">
	<E K="Clarity" V="0" />
	<E K="ClarityMethod" V="2" />
	<E K="ClarityStructure" V="0" />
	<E K="ColorBalanceHighlight" V="0.962499976158142;0.962499976158142;0.962499976158142" />
	<E K="ColorBalanceMidtone" V="1.03092801570892;1.03092801570892;1.03092801570892" />
	<E K="ColorBalanceShadow" V="0.975000023841858;0.975000023841858;0.975000023841858" />
	<E K="ColorCorrections" V="1,1,0,4.5,-9,-1,237,45.3288917541504,66.479118347168,-9.59939575195313,9.18455505371094,-80.8738861083984,19.1261138916016,25.9748382568359,0,0,0,0;1,1,0,4.5,-2.5,-0.219999998807907,255,130,12,0,4.55426025390625,-95.2941207885742,4.70587921142578,18.2099227905273,0,0,0,0;1,1,0,1.5,-8,-0.300000011920929,255,225.91796875,36.1078147888184,-5.1807861328125,1.47015380859375,-85.8400726318359,14.1599273681641,20.3872756958008,0,0,0,0;1,1,0,0,-16.5,-1.25,58.8606338500977,208,10.4000005722046,-33.7201843261719,32.3572998046875,-95,5,23.2739639282227,0,0,0,0;1,1,0,-1.5,-10.7999992370605,-0.579999983310699,22.6761436462402,216,177.109222412109,-4.34454345703125,5.92352294921875,-89.5017852783203,10.4982147216797,28.4633140563965,0,0,0,0;1,1,0,-1.5,-2.95000100135803,-0.75,61.345775604248,87.8979263305664,165,-14.3739013671875,22.6552124023438,-62.820743560791,37.179256439209,27.3963947296143,0,0,0,0;1,1,0,0,0,-0.560000002384186,104,0,148,-12.1621704101563,2.99188232421875,-100,0,26.3488998413086,0,0,0,0;1,1,0,7.5,-3.5,-0.800000011920929,235,50.884838104248,191.595169067383,-6.26992797851563,5.4552001953125,-78.3468780517578,21.6531219482422,20.9790744781494,0,0,0,0;1,1,2,2.36563158035278,-15.9744558334351,0,174,139,97,0,25,-42.1264381408691,25.6254768371582,25,0,0,0,0" />
	<E K="Contrast" V="0" />
	<E K="FilmGrainAmount" V="15" />
	<E K="FilmGrainDensity" V="0" />
	<E K="FilmGrainGranularity" V="50" />
	<E K="FilmGrainType" V="1" />
	<E K="GradationCurve" V="0,0.00784299988299608;0.101961001753807,0.101961001753807;0.250979989767075,0.243137001991272;0.384314000606537,0.372548997402191;0.509804010391235,0.49803900718689;0.63137298822403,0.623529016971588;0.752941012382507,0.749019980430603;0.874509990215302,0.870588004589081;1,1" />
	<E K="GradationCurveBlue" V="0,0.00784299988299608;0.101961001753807,0.0941179990768433;0.250979989767075,0.227450996637344;0.384314000606537,0.376471012830734;0.509804010391235,0.529411971569061;0.63137298822403,0.67058801651001;0.752941012382507,0.800000011920929;0.874509990215302,0.905882000923157;1,1" />
	<E K="GradationCurveGreen" V="0,0.011765000410378;0.101961001753807,0.0980390012264252;0.250979989767075,0.231372997164726;0.384314000606537,0.384314000606537;0.509804010391235,0.529411971569061;0.63137298822403,0.658824026584625;0.752941012382507,0.776471018791199;0.874509990215302,0.886274993419647;1,1" />
	<E K="GradationCurveRed" V="0,0;0.101961001753807,0.0705880001187325;0.250979989767075,0.211765006184578;0.384314000606537,0.372548997402191;0.509804010391235,0.529411971569061;0.63137298822403,0.666666984558105;0.752941012382507,0.788235008716583;0.874509990215302,0.894118010997772;1,1" />
	<E K="GradationCurveY" V="0,0;0.200000002980232,0.209999993443489;0.400000005960464,0.397000014781952;0.600000023841858,0.586000025272369;0.800000011920929,0.78600001335144;1,1" />
	<E K="Highlight" V="1;1;1;1" />
	<E K="HighlightRecovery" V="10" />
	<E K="Midtone" V="0;0;0;0.010950000025332" />
	<E K="Name" V="Kodak Ektar 25 +" />
	<E K="Saturation" V="0" />
	<E K="ShadowRecovery" V="8" />
	<E K="StyleSource" V="Styles" />
	<E K="TargetHighlight" V="1;1;1;0.950290024280548" />
	<E K="UsmAmount" V="25" />
	<E K="UsmRadius" V="1" />
	<E K="UUID" V="04FE26A1-AB18-4DC9-99DE-AE01BD4E75DF" />
</SL>
