styles/Kodak/Kodak Portra 800.costyle
<?xml version="1.0"?>
<SL Engine="900">
	<E K="Clarity" V="0" />
	<E K="ClarityMethod" V="2" />
	<E K="ClarityStructure" V="0" />
	<E K="ColorBalanceHighlight" V="0.949999988079071;0.949999988079071;0.949999988079071" />
	<E K="ColorBalanceMidtone" V="1.14285695552826;1.14285695552826;1.14285695552826" />
	<E K="ColorBalanceShadow" V="0.899999976158142;0.899999976158142;0.899999976158142" />
	<E K="ColorCorrections" V="1,1,0,6,-6,-0.25,237,45.3288917541504,66.479118347168,-9.59939575195313,9.18455505371094,-80.8738861083984,19.1261138916016,25.9748382568359,0,0,0,0;1,1,0,3,1.10000002384186,0,255,130,12,0,4.55426025390625,-95.2941207885742,4.70587921142578,18.2099227905273,0,0,0,0;1,1,0,4.5,-8,-0.119999997317791,255,225.91796875,36.1078147888184,-5.1807861328125,1.47015380859375,-85.8400726318359,14.1599273681641,20.3872756958008,0,0,0,0;1,1,0,6,-13.2000007629395,-1,58.8606338500977,208,10.4000005722046,-33.7201843261719,32.3572998046875,-95,5,23.2739639282227,0,0,0,0;1,1,0,0,-10.7999992370605,0,22.6761436462402,216,177.109222412109,-4.34454345703125,5.92352294921875,-89.5017852783203,10.4982147216797,28.4633140563965,0,0,0,0;1,1,0,-1.5,-17.7000007629395,-1.25,61.345775604248,87.8979263305664,165,-14.3739013671875,22.6552124023438,-62.820743560791,37.179256439209,27.3963947296143,0,0,0,0;1,1,0,9,-25,1.25999999046326,104,0,148,-12.1621704101563,2.99188232421875,-100,0,26.3488998413086,0,0,0,0;1,1,0,15,-24.5,0.920000016689301,235,50.884838104248,191.595169067383,-6.26992797851563,5.4552001953125,-78.3468780517578,21.6531219482422,20.9790744781494,0,0,0,0;1,1,2,2.36563158035278,-15.9744558334351,0,174,139,97,0,25,-42.1264381408691,25.6254768371582,25,0,0,0,0" />
	<E K="Contrast" V="0" />
	<E K="FilmGrainAmount" V="40" />
	<E K="FilmGrainDensity" V="0" />
	<E K="FilmGrainGranularity" V="50" />
	<E K="FilmGrainType" V="2" />
	<E K="GradationCurve" V="0,0.011765000410378;1,0.992156982421875" />
	<E K="GradationCurveBlue" V="0,0;0.101961001753807,0.0941179990768433;0.231372997164726,0.219607993960381;0.360783994197845,0.352941006422043;0.490195989608765,0.486274987459183;0.619607985019684,0.615685999393463;0.749019980430603,0.741176009178162;0.878431022167206,0.870588004589081;1,1" />
	<E K="GradationCurveGreen" V="0,0;0.101961001753807,0.0980390012264252;0.231372997164726,0.215685993432999;0.360783994197845,0.345097988843918;0.490195989608765,0.478430986404419;0.619607985019684,0.607842981815338;0.749019980430603,0.745097994804382;0.878431022167206,0.882353007793427;1,0.992156982421875" />
	<E K="GradationCurveRed" V="0,0.00392200006172061;0.101961001753807,0.0941179990768433;0.231372997164726,0.215685993432999;0.360783994197845,0.345097988843918;0.490195989608765,0.478430986404419;0.619607985019684,0.607842981815338;0.749019980430603,0.737254977226257;0.878431022167206,0.870588004589081;1,1" />
	<E K="GradationCurveY" V="0,0;0.200000002980232,0.200000002980232;0.400000005960464,0.392500013113022;0.600000023841858,0.58950001001358;0.800000011920929,0.789499998092651;1,1" />
	<E K="Highlight" V="1;1;1;1" />
	<E K="HighlightRecovery" V="7.5" />
	<E K="Midtone" V="0;0;0;0.00365000008605421" />
	<E K="Name" V="Kodak Portra 800" />
	<E K="Saturation" V="0" />
	<E K="ShadowRecovery" V="12" />
	<E K="StyleSource" V="Styles" />
	<E K="TargetHighlight" V="1;1;1;0.983430027961731" />
	<E K="UsmAmount" V="10" />
	<E K="UsmRadius" V="1" />
	<E K="UUID" V="0AA1B0AA-D1FA-4A3D-9CE8-492CB6BAD455" />
</SL>
