styles/Kodak/Kodak Elite 50 II +.costyle
<?xml version="1.0"?>
<SL Engine="900">
	<E K="Clarity" V="0" />
	<E K="ClarityMethod" V="2" />
	<E K="ClarityStructure" V="0" />
	<E K="ColorBalanceHighlight" V="1;1;1" />
	<E K="ColorBalanceMidtone" V="1;1;1" />
	<E K="ColorBalanceShadow" V="0.962499976158142;0.962499976158142;0.962499976158142" />
	<E K="ColorCorrections" V="1,1,0,2.40000009536743,-9,-1,237,45.3288917541504,66.479118347168,-9.59939575195313,9.18455505371094,-80.8738861083984,19.1261138916016,25.9748382568359,0,0,0,0;1,1,0,1.5,0,-0.439999997615814,255,130,12,0,4.55426025390625,-95.2941207885742,4.70587921142578,18.2099227905273,0,0,0,0;1,1,0,0,0,0,255,225.91796875,36.1078147888184,-5.1807861328125,1.47015380859375,-85.8400726318359,14.1599273681641,20.3872756958008,0,0,0,0;1,1,0,4.5,0,-0.25,58.8606338500977,208,10.4000005722046,-33.7201843261719,32.3572998046875,-95,5,23.2739639282227,0,0,0,0;1,1,0,0,0,-0.28999999165535,22.6761436462402,216,177.109222412109,-4.34454345703125,5.92352294921875,-89.5017852783203,10.4982147216797,28.4633140563965,0,0,0,0;1,1,0,4.5,0,-0.75,61.345775604248,87.8979263305664,165,-14.3739013671875,22.6552124023438,-62.820743560791,37.179256439209,27.3963947296143,0,0,0,0;1,1,0,0,-10,-0.349999994039536,104,0,148,-12.1621704101563,2.99188232421875,-100,0,26.3488998413086,0,0,0,0;1,1,0,0,-7,0,235,50.884838104248,191.595169067383,-6.26992797851563,5.4552001953125,-78.3468780517578,21.6531219482422,20.9790744781494,0,0,0,0;1,1,2,2.36563158035278,-15.9744558334351,0,174,139,97,0,25,-42.1264381408691,25.6254768371582,25,0,0,0,0" />
	<E K="Contrast" V="0" />
	<E K="FilmGrainAmount" V="15" />
	<E K="FilmGrainDensity" V="0" />
	<E K="FilmGrainGranularity" V="50" />
	<E K="FilmGrainType" V="1" />
	<E K="GradationCurve" V="0,0.00784299988299608;0.0784310027956963,0.0901959985494614;0.235293999314308,0.23921599984169;0.380391985177994,0.372548997402191;0.513725996017456,0.49803900718689;0.639216005802155,0.623529016971588;0.760783970355988,0.745097994804382;0.882353007793427,0.874509990215302;1,0.996078014373779" />
	<E K="GradationCurveBlue" V="0,0.00784299988299608;0.0784310027956963,0.0627449974417686;0.235293999314308,0.188234999775887;0.380391985177994,0.384314000606537;0.513725996017456,0.572548985481262;0.639216005802155,0.709803998470306;0.760783970355988,0.811765015125275;0.882353007793427,0.898038983345032;1,0.972549021244049" />
	<E K="GradationCurveGreen" V="0,0.00784299988299608;0.0784310027956963,0.058823999017477;0.235293999314308,0.180391997098923;0.380391985177994,0.360783994197845;0.513725996017456,0.552941024303436;0.639216005802155,0.709803998470306;0.760783970355988,0.82745099067688;0.882353007793427,0.913725018501282;1,0.97647100687027" />
	<E K="GradationCurveRed" V="0,0;0.0784310027956963,0.0431369990110397;0.235293999314308,0.164706006646156;0.380391985177994,0.36862701177597;0.513725996017456,0.568626999855042;0.639216005802155,0.709803998470306;0.760783970355988,0.811765015125275;0.882353007793427,0.905882000923157;1,1" />
	<E K="GradationCurveY" V="0,0;0.200000002980232,0.219999998807907;0.400000005960464,0.40149998664856;0.600000023841858,0.582499980926514;0.800000011920929,0.782500028610229;1,1" />
	<E K="Highlight" V="1;1;1;1" />
	<E K="HighlightRecovery" V="12.5" />
	<E K="Midtone" V="0;0;0;0.0127750001847744" />
	<E K="Name" V="Kodak Elite 50 II +" />
	<E K="Saturation" V="-10" />
	<E K="ShadowRecovery" V="16" />
	<E K="StyleSource" V="Styles" />
	<E K="TargetHighlight" V="1;1;1;0.942004978656769" />
	<E K="UsmAmount" V="25" />
	<E K="UsmRadius" V="1" />
	<E K="UUID" V="27FEC5DC-F1AC-4404-9AFD-590BDDA1AFBF" />
</SL>
