styles/Kodak/Kodak E100VS +++.costyle
<?xml version="1.0"?>
<SL Engine="900">
	<E K="Clarity" V="0" />
	<E K="ClarityMethod" V="2" />
	<E K="ClarityStructure" V="0" />
	<E K="ColorBalanceHighlight" V="1.02564096450806;1.02564096450806;1.02564096450806" />
	<E K="ColorBalanceMidtone" V="1.05263197422028;1.04390096664429;1.02894699573517" />
	<E K="ColorBalanceShadow" V="0.939999997615814;0.908814013004303;0.855400025844574" />
	<E K="ColorCorrections" V="1,1,0,2.40000009536743,-12,-1.5,237,45.3288917541504,66.479118347168,-9.59939575195313,9.18455505371094,-80.8738861083984,19.1261138916016,25.9748382568359,0,0,0,0;1,1,0,1.5,0,-0.660000026226044,255,130,12,0,4.55426025390625,-95.2941207885742,4.70587921142578,18.2099227905273,0,0,0,0;1,1,0,-1.5,0,-0.300000011920929,255,225.91796875,36.1078147888184,-5.1807861328125,1.47015380859375,-85.8400726318359,14.1599273681641,20.3872756958008,0,0,0,0;1,1,0,7.5,-33,-2,58.8606338500977,208,10.4000005722046,-33.7201843261719,32.3572998046875,-95,5,23.2739639282227,0,0,0,0;1,1,0,0,0,-1.1599999666214,22.6761436462402,216,177.109222412109,-4.34454345703125,5.92352294921875,-89.5017852783203,10.4982147216797,28.4633140563965,0,0,0,0;1,1,0,3,0,-0.75,61.345775604248,87.8979263305664,165,-14.3739013671875,22.6552124023438,-62.820743560791,37.179256439209,27.3963947296143,0,0,0,0;1,1,0,0,0,-0.699999988079071,104,0,148,-12.1621704101563,2.99188232421875,-100,0,26.3488998413086,0,0,0,0;1,1,0,0,-14,-1.20000004768372,235,50.884838104248,191.595169067383,-6.26992797851563,5.4552001953125,-78.3468780517578,21.6531219482422,20.9790744781494,0,0,0,0;1,1,2,2.36563158035278,-15.9744558334351,0,174,139,97,0,25,-42.1264381408691,25.6254768371582,25,0,0,0,0" />
	<E K="Contrast" V="0" />
	<E K="FilmGrainAmount" V="45" />
	<E K="FilmGrainDensity" V="0" />
	<E K="FilmGrainGranularity" V="50" />
	<E K="FilmGrainType" V="2" />
	<E K="GradationCurve" V="0,0.0196080002933741;0.219607993960381,0.176470994949341;0.372548997402191,0.372548997402191;0.494118005037308,0.494118005037308;0.619607985019684,0.619607985019684;0.756862998008728,0.749019980430603;0.898038983345032,0.886274993419647;1,0.988234996795654" />
	<E K="GradationCurveBlue" V="0,0;0.219607993960381,0.141176000237465;0.372548997402191,0.294117987155914;0.494118005037308,0.549019992351532;0.619607985019684,0.745097994804382;0.756862998008728,0.882353007793427;0.898038983345032,0.960784018039703;1,1" />
	<E K="GradationCurveGreen" V="0,0.0156859997659922;0.219607993960381,0.184313997626305;0.372548997402191,0.321568995714188;0.494118005037308,0.541176021099091;0.619607985019684,0.713725984096527;0.756862998008728,0.85097998380661;0.898038983345032,0.941175997257233;1,0.992156982421875" />
	<E K="GradationCurveRed" V="0,0.0274509992450476;0.219607993960381,0.203922003507614;0.372548997402191,0.333332985639572;0.494118005037308,0.533333003520966;0.619607985019684,0.713725984096527;0.756862998008728,0.858824014663696;0.898038983345032,0.949020028114319;1,0.996078014373779" />
	<E K="GradationCurveY" V="0,0;0.200000002980232,0.212500005960464;0.400000005960464,0.398750007152557;0.600000023841858,0.586000025272369;0.800000011920929,0.78600001335144;1,1" />
	<E K="Highlight" V="1;1;1;1" />
	<E K="HighlightRecovery" V="10" />
	<E K="Name" V="Kodak E100VS +++" />
	<E K="Saturation" V="5" />
	<E K="ShadowRecovery" V="12" />
	<E K="StyleSource" V="Styles" />
	<E K="TargetHighlight" V="1;1;1;1" />
	<E K="UsmAmount" V="40" />
	<E K="UsmRadius" V="1.20000004768372" />
	<E K="UUID" V="11528CC1-5E13-4162-8629-BFA6A1DACCFC" />
</SL>
