styles/Kodak/Kodak UltraMax 400 ++ Green.costyle
<?xml version="1.0"?>
<SL Engine="900">
	<E K="Clarity" V="-5" />
	<E K="ClarityMethod" V="2" />
	<E K="ClarityStructure" V="-1.66666698455811" />
	<E K="ColorBalanceHighlight" V="1;1;1" />
	<E K="ColorBalanceMidtone" V="1;1;1" />
	<E K="ColorBalanceShadow" V="1;1;1" />
	<E K="ColorCorrections" V="1,1,0,4.5,-12,0,237,45.3288917541504,66.479118347168,-9.59939575195313,9.18455505371094,-80.8738861083984,19.1261138916016,25.9748382568359,0,0,0,0;1,1,0,-2.40000009536743,-5,0,255,130,12,0,4.55426025390625,-95.2941207885742,4.70587921142578,18.2099227905273,0,0,0,0;1,1,0,3,-12,0.5,255,225.91796875,36.1078147888184,-5.1807861328125,1.47015380859375,-85.8400726318359,14.1599273681641,20.3872756958008,0,0,0,0;1,1,0,4.5,-23.1000022888184,0,58.8606338500977,208,10.4000005722046,-33.7201843261719,32.3572998046875,-95,5,23.2739639282227,0,0,0,0;1,1,0,3,0,0.330000013113022,22.6761436462402,216,177.109222412109,-4.34454345703125,5.92352294921875,-89.5017852783203,10.4982147216797,28.4633140563965,0,0,0,0;1,1,0,-1.5,-8.84999847412109,-0.75,61.345775604248,87.8979263305664,165,-14.3739013671875,22.6552124023438,-62.820743560791,37.179256439209,27.3963947296143,0,0,0,0;1,1,0,6,-35,1.25999999046326,104,0,148,-12.1621704101563,2.99188232421875,-100,0,26.3488998413086,0,0,0,0;1,1,0,6,-24.5,0.689999997615814,235,50.884838104248,191.595169067383,-6.26992797851563,5.4552001953125,-78.3468780517578,21.6531219482422,20.9790744781494,0,0,0,0;1,1,2,2.36563158035278,-15.9744558334351,0,174,139,97,0,25,-42.1264381408691,25.6254768371582,25,0,0,0,0" />
	<E K="Contrast" V="0" />
	<E K="FilmGrainAmount" V="35" />
	<E K="FilmGrainDensity" V="0" />
	<E K="FilmGrainGranularity" V="50" />
	<E K="FilmGrainType" V="4" />
	<E K="GradationCurve" V="0,0.0313730016350746;0.231372997164726,0.19607800245285;0.388235002756119,0.372548997402191;0.50196099281311,0.494118005037308;0.623529016971588,0.623529016971588;0.752941012382507,0.745097994804382;0.898038983345032,0.882353007793427;1,0.980391979217529" />
	<E K="GradationCurveBlue" V="0,0.00784299988299608;0.231372997164726,0.200000002980232;0.388235002756119,0.345097988843918;0.50196099281311,0.529411971569061;0.623529016971588,0.705882012844086;0.752941012382507,0.84313702583313;0.898038983345032,0.945097982883453;1,1" />
	<E K="GradationCurveGreen" V="0,0.00392200006172061;0.231372997164726,0.180391997098923;0.388235002756119,0.360783994197845;0.50196099281311,0.596077978610992;0.623529016971588,0.745097994804382;0.752941012382507,0.85097998380661;0.898038983345032,0.941175997257233;1,0.996078014373779" />
	<E K="GradationCurveRed" V="0,0;0.231372997164726,0.172548994421959;0.388235002756119,0.321568995714188;0.50196099281311,0.537254989147186;0.623529016971588,0.713725984096527;0.752941012382507,0.85097998380661;0.898038983345032,0.949020028114319;1,1" />
	<E K="GradationCurveY" V="0,0;0.200000002980232,0.204999998211861;0.400000005960464,0.383500009775162;0.600000023841858,0.572000026702881;0.800000011920929,0.772000014781952;1,1" />
	<E K="Highlight" V="1;1;1;1" />
	<E K="HighlightRecovery" V="20" />
	<E K="Midtone" V="0;0;0;0.010950000025332" />
	<E K="Name" V="Kodak UltraMax 400 ++ Green" />
	<E K="Saturation" V="-15" />
	<E K="ShadowRecovery" V="20" />
	<E K="StyleSource" V="Styles" />
	<E K="TargetHighlight" V="1;1;1;0.950290024280548" />
	<E K="UsmAmount" V="0" />
	<E K="UsmRadius" V="1" />
	<E K="UUID" V="92DAD257-952A-4166-B4AE-88A781CF1489" />
</SL>
