styles/Kodak/Kodak Ektachrome 64T +.costyle
<?xml version="1.0"?>
<SL Engine="900">
	<E K="Clarity" V="0" />
	<E K="ClarityMethod" V="2" />
	<E K="ClarityStructure" V="0" />
	<E K="ColorBalanceHighlight" V="1;1;1" />
	<E K="ColorBalanceMidtone" V="1;1;1" />
	<E K="ColorBalanceShadow" V="1;1;1" />
	<E K="ColorCorrections" V="1,1,0,1.5,-6,-1,237,45.3288917541504,66.479118347168,-9.59939575195313,9.18455505371094,-80.8738861083984,19.1261138916016,25.9748382568359,0,0,0,0;1,1,0,0,0,0,255,130,12,0,4.55426025390625,-95.2941207885742,4.70587921142578,18.2099227905273,0,0,0,0;1,1,0,-3,0,0,255,225.91796875,36.1078147888184,-5.1807861328125,1.47015380859375,-85.8400726318359,14.1599273681641,20.3872756958008,0,0,0,0;1,1,0,-6,0,0,58.8606338500977,208,10.4000005722046,-33.7201843261719,32.3572998046875,-95,5,23.2739639282227,0,0,0,0;1,1,0,0,-5.40000200271606,-0.28999999165535,22.6761436462402,216,177.109222412109,-4.34454345703125,5.92352294921875,-89.5017852783203,10.4982147216797,28.4633140563965,0,0,0,0;1,1,0,4.5,-11.7999992370605,-0.75,61.345775604248,87.8979263305664,165,-14.3739013671875,22.6552124023438,-62.820743560791,37.179256439209,27.3963947296143,0,0,0,0;1,1,0,0,-10,0,104,0,148,-12.1621704101563,2.99188232421875,-100,0,26.3488998413086,0,0,0,0;1,1,0,0,0,-0.800000011920929,235,50.884838104248,191.595169067383,-6.26992797851563,5.4552001953125,-78.3468780517578,21.6531219482422,20.9790744781494,0,0,0,0;1,1,2,2.36563158035278,-15.9744558334351,0,174,139,97,0,25,-42.1264381408691,25.6254768371582,25,0,0,0,0" />
	<E K="Contrast" V="0" />
	<E K="FilmGrainAmount" V="20" />
	<E K="FilmGrainDensity" V="0" />
	<E K="FilmGrainGranularity" V="50" />
	<E K="FilmGrainType" V="1" />
	<E K="GradationCurve" V="0,0.00784299988299608;0.10980399698019,0.117646999657154;0.247059002518654,0.247059002518654;0.380391985177994,0.372548997402191;0.505882024765015,0.494118005037308;0.63137298822403,0.619607985019684;0.756862998008728,0.749019980430603;0.878431022167206,0.874509990215302;1,1" />
	<E K="GradationCurveBlue" V="0,0;0.10980399698019,0.10980399698019;0.247059002518654,0.250979989767075;0.380391985177994,0.403921991586685;0.505882024765015,0.533333003520966;0.63137298822403,0.650979995727539;0.756862998008728,0.764706015586853;0.878431022167206,0.878431022167206;1,1" />
	<E K="GradationCurveGreen" V="0,0;0.10980399698019,0.0941179990768433;0.247059002518654,0.223528996109962;0.380391985177994,0.36862701177597;0.505882024765015,0.513725996017456;0.63137298822403,0.64705902338028;0.756862998008728,0.772548973560333;0.878431022167206,0.886274993419647;1,1" />
	<E K="GradationCurveRed" V="0,0;0.10980399698019,0.0980390012264252;0.247059002518654,0.219607993960381;0.380391985177994,0.356862992048264;0.505882024765015,0.490195989608765;0.63137298822403,0.623529016971588;0.756862998008728,0.752941012382507;0.878431022167206,0.874509990215302;1,1" />
	<E K="GradationCurveY" V="0,0;0.200000002980232,0.212500005960464;0.400000005960464,0.408749997615814;0.600000023841858,0.600000023841858;0.800000011920929,0.800000011920929;1,1" />
	<E K="Highlight" V="1;1;1;1" />
	<E K="Midtone" V="0;0;0;0.00365000008605421" />
	<E K="Name" V="Kodak Ektachrome 64T +" />
	<E K="Saturation" V="0" />
	<E K="StyleSource" V="Styles" />
	<E K="TargetHighlight" V="1;1;1;0.983430027961731" />
	<E K="UsmAmount" V="25" />
	<E K="UsmRadius" V="1" />
	<E K="UUID" V="DA94A08E-82E6-41F8-ACEC-A5CE7E0EDC65" />
</SL>
