styles/Kodak/Kodak Ektar 100 - Warm.costyle
<?xml version="1.0"?>
<SL Engine="900">
	<E K="Clarity" V="0" />
	<E K="ClarityMethod" V="2" />
	<E K="ClarityStructure" V="0" />
	<E K="ColorBalanceHighlight" V="1;1;1" />
	<E K="ColorBalanceMidtone" V="1;1;1" />
	<E K="ColorBalanceShadow" V="1;1;1" />
	<E K="ColorCorrections" V="1,1,0,3,-6,-0.5,237,45.3288917541504,66.479118347168,-9.59939575195313,9.18455505371094,-80.8738861083984,19.1261138916016,25.9748382568359,0,0,0,0;1,1,0,0,1.10000002384186,-0.0879999995231628,255,130,12,0,4.55426025390625,-95.2941207885742,4.70587921142578,18.2099227905273,0,0,0,0;1,1,0,0,0,0.5,255,225.91796875,36.1078147888184,-5.1807861328125,1.47015380859375,-85.8400726318359,14.1599273681641,20.3872756958008,0,0,0,0;1,1,0,0.600000023841858,-13.2000007629395,0,58.8606338500977,208,10.4000005722046,-33.7201843261719,32.3572998046875,-95,5,23.2739639282227,0,0,0,0;1,1,0,0,-10.7999992370605,0.660000026226044,22.6761436462402,216,177.109222412109,-4.34454345703125,5.92352294921875,-89.5017852783203,10.4982147216797,28.4633140563965,0,0,0,0;1,1,0,0,-8.84999847412109,0,61.345775604248,87.8979263305664,165,-14.3739013671875,22.6552124023438,-62.820743560791,37.179256439209,27.3963947296143,0,0,0,0;1,1,0,6,-45,1.25999999046326,104,0,148,-12.1621704101563,2.99188232421875,-100,0,26.3488998413086,0,0,0,0;1,1,0,9,-21,0.230000004172325,235,50.884838104248,191.595169067383,-6.26992797851563,5.4552001953125,-78.3468780517578,21.6531219482422,20.9790744781494,0,0,0,0;1,1,2,2.36563158035278,-15.9744558334351,0,174,139,97,0,25,-42.1264381408691,25.6254768371582,25,0,0,0,0" />
	<E K="Contrast" V="0" />
	<E K="FilmGrainAmount" V="15" />
	<E K="FilmGrainDensity" V="0" />
	<E K="FilmGrainGranularity" V="50" />
	<E K="FilmGrainType" V="2" />
	<E K="GradationCurve" V="0,0;0.117646999657154,0.117646999657154;0.247059002518654,0.247059002518654;0.372548997402191,0.36862701177597;0.49803900718689,0.494118005037308;0.627451002597809,0.623529016971588;0.752941012382507,0.745097994804382;0.882353007793427,0.874509990215302;1,0.996078014373779" />
	<E K="GradationCurveBlue" V="0,0;0.117646999657154,0.0745100006461143;0.247059002518654,0.180391997098923;0.372548997402191,0.341176003217697;0.49803900718689,0.552941024303436;0.627451002597809,0.741176009178162;0.752941012382507,0.862744987010956;0.882353007793427,0.945097982883453;1,1" />
	<E K="GradationCurveGreen" V="0,0;0.117646999657154,0.0549019984900951;0.247059002518654,0.160784006118774;0.372548997402191,0.345097988843918;0.49803900718689,0.572548985481262;0.627451002597809,0.764706015586853;0.752941012382507,0.874509990215302;0.882353007793427,0.952941000461578;1,1" />
	<E K="GradationCurveRed" V="0,0;0.117646999657154,0.0549019984900951;0.247059002518654,0.156863003969193;0.372548997402191,0.349020004272461;0.49803900718689,0.568626999855042;0.627451002597809,0.756862998008728;0.752941012382507,0.878431022167206;0.882353007793427,0.956862986087799;1,1" />
	<E K="GradationCurveY" V="0,0;0.200000002980232,0.212500005960464;0.400000005960464,0.388749986886978;0.600000023841858,0.572000026702881;0.800000011920929,0.772000014781952;1,1" />
	<E K="Highlight" V="1;1;1;1" />
	<E K="HighlightRecovery" V="20" />
	<E K="Midtone" V="0;0;0;0.0146000003442168" />
	<E K="Name" V="Kodak Ektar 100 - Warm" />
	<E K="Saturation" V="-5" />
	<E K="ShadowRecovery" V="32" />
	<E K="StyleSource" V="Styles" />
	<E K="TargetHighlight" V="1;1;1;0.933719992637634" />
	<E K="UsmAmount" V="0" />
	<E K="UsmRadius" V="1" />
	<E K="UUID" V="64B97506-B36D-4D80-A59F-BEDCF6BB72CA" />
</SL>
