styles/Kodak/Kodak TRI-X 400 ++.costyle
<?xml version="1.0"?>
<SL Engine="900">
	<E K="BwBlue" V="20" />
	<E K="BwCyan" V="25" />
	<E K="BwDarkHue" V="341.411987304688" />
	<E K="BwDarkSaturation" V="0" />
	<E K="BwEnabled" V="1" />
	<E K="BwGreen" V="-20" />
	<E K="BwLightHue" V="341.411987304688" />
	<E K="BwLightSaturation" V="0" />
	<E K="BwMagenta" V="45.0000038146973" />
	<E K="BwRed" V="-10" />
	<E K="BwYellow" V="0" />
	<E K="Clarity" V="0" />
	<E K="ClarityMethod" V="2" />
	<E K="ClarityStructure" V="0" />
	<E K="ColorBalanceHighlight" V="0.925000011920929;0.925000011920929;0.925000011920929" />
	<E K="ColorBalanceMidtone" V="1.21212100982666;1.21212100982666;1.21212100982666" />
	<E K="ColorBalanceShadow" V="0.925000011920929;0.925000011920929;0.925000011920929" />
	<E K="ColorCorrections" V="1,1,2,2.36563158035278,-15.9744558334351,0,174,139,97,0,25,-42.1264381408691,25.6254768371582,25,0,0,0,0" />
	<E K="Contrast" V="0" />
	<E K="FilmGrainAmount" V="60" />
	<E K="FilmGrainDensity" V="0" />
	<E K="FilmGrainGranularity" V="50" />
	<E K="FilmGrainType" V="1" />
	<E K="GradationCurve" V="0,0.133332997560501;1,0.992156982421875" />
	<E K="GradationCurveBlue" V="0,0;1,1" />
	<E K="GradationCurveGreen" V="0,0;1,1" />
	<E K="GradationCurveRed" V="0,0;1,1" />
	<E K="GradationCurveY" V="0,0;0.200000002980232,0.200000002980232;0.400000005960464,0.389999985694885;0.600000023841858,0.586000025272369;0.800000011920929,0.78600001335144;1,1" />
	<E K="Highlight" V="1;1;1;1" />
	<E K="HighlightRecovery" V="10" />
	<E K="Name" V="Kodak TRI-X 400 ++" />
	<E K="ShadowRecovery" V="16" />
	<E K="StyleSource" V="Styles" />
	<E K="TargetHighlight" V="1;1;1;1" />
	<E K="UsmAmount" V="10" />
	<E K="UsmRadius" V="1.5" />
	<E K="UUID" V="82EBF17D-D122-4AD2-8EEC-656023E632A4" />
</SL>
