styles/Kodak/Kodak Ektachrome 64 -.costyle
<?xml version="1.0"?>
<SL Engine="900">
	<E K="Clarity" V="0" />
	<E K="ClarityMethod" V="2" />
	<E K="ClarityStructure" V="0" />
	<E K="ColorBalanceHighlight" V="0.9375;0.9375;0.9375" />
	<E K="ColorBalanceMidtone" V="1.06666696071625;1.06666696071625;1.06666696071625" />
	<E K="ColorBalanceShadow" V="0.962499976158142;0.962499976158142;0.962499976158142" />
	<E K="ColorCorrections" V="1,1,0,3,-9,-1,237,45.3288917541504,66.479118347168,-9.59939575195313,9.18455505371094,-80.8738861083984,19.1261138916016,25.9748382568359,0,0,0,0;1,1,0,0,-2.5,-0.219999998807907,255,130,12,0,4.55426025390625,-95.2941207885742,4.70587921142578,18.2099227905273,0,0,0,0;1,1,0,3,0,-0.449999988079071,255,225.91796875,36.1078147888184,-5.1807861328125,1.47015380859375,-85.8400726318359,14.1599273681641,20.3872756958008,0,0,0,0;1,1,0,3,-6.6000018119812,-1,58.8606338500977,208,10.4000005722046,-33.7201843261719,32.3572998046875,-95,5,23.2739639282227,0,0,0,0;1,1,0,1.5,6.5,-1.1599999666214,22.6761436462402,216,177.109222412109,-4.34454345703125,5.92352294921875,-89.5017852783203,10.4982147216797,28.4633140563965,0,0,0,0;1,1,0,1.5,10,-1,61.345775604248,87.8979263305664,165,-14.3739013671875,22.6552124023438,-62.820743560791,37.179256439209,27.3963947296143,0,0,0,0;1,1,0,1.5,-10,-0.699999988079071,104,0,148,-12.1621704101563,2.99188232421875,-100,0,26.3488998413086,0,0,0,0;1,1,0,0,-17.5,-0.400000005960464,235,50.884838104248,191.595169067383,-6.26992797851563,5.4552001953125,-78.3468780517578,21.6531219482422,20.9790744781494,0,0,0,0;1,1,2,2.36563158035278,-15.9744558334351,0,174,139,97,0,25,-42.1264381408691,25.6254768371582,25,0,0,0,0" />
	<E K="Contrast" V="0" />
	<E K="FilmGrainAmount" V="10" />
	<E K="FilmGrainDensity" V="0" />
	<E K="FilmGrainGranularity" V="50" />
	<E K="FilmGrainType" V="1" />
	<E K="GradationCurve" V="0,0;0.0745100006461143,0.0823530033230782;0.286274999380112,0.294117987155914;0.494118005037308,0.505882024765015;1,1" />
	<E K="GradationCurveBlue" V="0,0;0.101961001753807,0.0901959985494614;0.231372997164726,0.207843005657196;0.360783994197845,0.345097988843918;0.486274987459183,0.486274987459183;0.611765027046204,0.627451002597809;0.741176009178162,0.760783970355988;0.870588004589081,0.882353007793427;1,1" />
	<E K="GradationCurveGreen" V="0,0;0.101961001753807,0.0823530033230782;0.231372997164726,0.19607800245285;0.360783994197845,0.345097988843918;0.486274987459183,0.49803900718689;0.611765027046204,0.627451002597809;0.741176009178162,0.752941012382507;0.870588004589081,0.874509990215302;1,1" />
	<E K="GradationCurveRed" V="0,0;0.101961001753807,0.0823530033230782;0.231372997164726,0.19607800245285;0.360783994197845,0.337255001068115;0.486274987459183,0.486274987459183;0.611765027046204,0.63137298822403;0.741176009178162,0.764706015586853;0.870588004589081,0.882353007793427;1,1" />
	<E K="GradationCurveY" V="0,0;0.200000002980232,0.209999993443489;0.400000005960464,0.397000014781952;0.600000023841858,0.586000025272369;0.800000011920929,0.78600001335144;1,1" />
	<E K="Highlight" V="1;1;1;1" />
	<E K="HighlightRecovery" V="10" />
	<E K="Midtone" V="0;0;0;0.00730000017210841" />
	<E K="Name" V="Kodak Ektachrome 64 -" />
	<E K="Saturation" V="0" />
	<E K="ShadowRecovery" V="16" />
	<E K="StyleSource" V="Styles" />
	<E K="TargetHighlight" V="1;1;1;0.966859996318817" />
	<E K="UsmAmount" V="25" />
	<E K="UsmRadius" V="1" />
	<E K="UUID" V="840BCA32-3C9B-49B0-AD98-B3DD823C2909" />
</SL>
