styles/Kodak/Kodak Ektar 100 Warm +.costyle
<?xml version="1.0"?>
<SL Engine="900">
	<E K="Clarity" V="0" />
	<E K="ClarityMethod" V="2" />
	<E K="ClarityStructure" V="0" />
	<E K="ColorBalanceHighlight" V="1;0.997215986251831;0.990000009536743" />
	<E K="ColorBalanceMidtone" V="1;0.993735015392303;0.977500021457672" />
	<E K="ColorBalanceShadow" V="1;1;1" />
	<E K="ColorCorrections" V="1,1,0,4.5,-6,-0.5,237,45.3288917541504,66.479118347168,-9.59939575195313,9.18455505371094,-80.8738861083984,19.1261138916016,25.9748382568359,0,0,0,0;1,1,0,0,1.10000002384186,-0.0879999995231628,255,130,12,0,4.55426025390625,-95.2941207885742,4.70587921142578,18.2099227905273,0,0,0,0;1,1,0,0,0,0.5,255,225.91796875,36.1078147888184,-5.1807861328125,1.47015380859375,-85.8400726318359,14.1599273681641,20.3872756958008,0,0,0,0;1,1,0,0.600000023841858,-13.2000007629395,0,58.8606338500977,208,10.4000005722046,-33.7201843261719,32.3572998046875,-95,5,23.2739639282227,0,0,0,0;1,1,0,0,-10.7999992370605,0.660000026226044,22.6761436462402,216,177.109222412109,-4.34454345703125,5.92352294921875,-89.5017852783203,10.4982147216797,28.4633140563965,0,0,0,0;1,1,0,0,-8.84999847412109,0,61.345775604248,87.8979263305664,165,-14.3739013671875,22.6552124023438,-62.820743560791,37.179256439209,27.3963947296143,0,0,0,0;1,1,0,6,-45,1.25999999046326,104,0,148,-12.1621704101563,2.99188232421875,-100,0,26.3488998413086,0,0,0,0;1,1,0,9,-28,0.689999997615814,235,50.884838104248,191.595169067383,-6.26992797851563,5.4552001953125,-78.3468780517578,21.6531219482422,20.9790744781494,0,0,0,0;1,1,2,2.36563158035278,-15.9744558334351,0,174,139,97,0,25,-42.1264381408691,25.6254768371582,25,0,0,0,0" />
	<E K="Contrast" V="0" />
	<E K="FilmGrainAmount" V="35" />
	<E K="FilmGrainDensity" V="0" />
	<E K="FilmGrainGranularity" V="50" />
	<E K="FilmGrainType" V="2" />
	<E K="GradationCurve" V="0,0.0196080002933741;0.231372997164726,0.207843005657196;0.372548997402191,0.36862701177597;0.509804010391235,0.494118005037308;0.643136978149414,0.619607985019684;0.768626987934113,0.749019980430603;0.886274993419647,0.874509990215302;1,1" />
	<E K="GradationCurveBlue" V="0,0;0.231372997164726,0.172548994421959;0.372548997402191,0.301961004734039;0.509804010391235,0.529411971569061;0.643136978149414,0.729412019252777;0.768626987934113,0.862744987010956;0.886274993419647,0.941175997257233;1,1" />
	<E K="GradationCurveGreen" V="0,0;0.231372997164726,0.184313997626305;0.372548997402191,0.345097988843918;0.509804010391235,0.576470971107483;0.643136978149414,0.772548973560333;0.768626987934113,0.894118010997772;0.886274993419647,0.960784018039703;1,1" />
	<E K="GradationCurveRed" V="0,0.00784299988299608;0.231372997164726,0.203922003507614;0.372548997402191,0.352941006422043;0.509804010391235,0.580392003059387;0.643136978149414,0.772548973560333;0.768626987934113,0.890196025371552;0.886274993419647,0.956862986087799;1,1" />
	<E K="GradationCurveY" V="0,0;0.200000002980232,0.207499995827675;0.400000005960464,0.387749999761581;0.600000023841858,0.575500011444092;0.800000011920929,0.775499999523163;1,1" />
	<E K="Highlight" V="1;1;1;1" />
	<E K="HighlightRecovery" V="17.5" />
	<E K="Midtone" V="0;0;0;0.010950000025332" />
	<E K="Name" V="Kodak Ektar 100 Warm +" />
	<E K="Saturation" V="-10" />
	<E K="ShadowRecovery" V="24" />
	<E K="StyleSource" V="Styles" />
	<E K="TargetHighlight" V="1;1;1;0.950290024280548" />
	<E K="UsmAmount" V="0" />
	<E K="UsmRadius" V="1" />
	<E K="UUID" V="1AF0E4E6-0EB9-42F8-B86D-C80CEDADA763" />
</SL>
