styles/Kodak/Kodak UltraMax 400 ++.costyle
<?xml version="1.0"?>
<SL Engine="900">
	<E K="Clarity" V="-10" />
	<E K="ClarityMethod" V="2" />
	<E K="ClarityStructure" V="-3.33333301544189" />
	<E K="ColorBalanceHighlight" V="1;1;1" />
	<E K="ColorBalanceMidtone" V="1;1;1" />
	<E K="ColorBalanceShadow" V="1;1;1" />
	<E K="ColorCorrections" V="1,1,0,4.5,-12,0,237,45.3288917541504,66.479118347168,-9.59939575195313,9.18455505371094,-80.8738861083984,19.1261138916016,25.9748382568359,0,0,0,0;1,1,0,0.600000023841858,-12.5,0,255,130,12,0,4.55426025390625,-95.2941207885742,4.70587921142578,18.2099227905273,0,0,0,0;1,1,0,3,-12,0.5,255,225.91796875,36.1078147888184,-5.1807861328125,1.47015380859375,-85.8400726318359,14.1599273681641,20.3872756958008,0,0,0,0;1,1,0,4.5,-23.1000022888184,0,58.8606338500977,208,10.4000005722046,-33.7201843261719,32.3572998046875,-95,5,23.2739639282227,0,0,0,0;1,1,0,3,0,0.330000013113022,22.6761436462402,216,177.109222412109,-4.34454345703125,5.92352294921875,-89.5017852783203,10.4982147216797,28.4633140563965,0,0,0,0;1,1,0,-1.5,-8.84999847412109,-0.75,61.345775604248,87.8979263305664,165,-14.3739013671875,22.6552124023438,-62.820743560791,37.179256439209,27.3963947296143,0,0,0,0;1,1,0,6,-35,1.25999999046326,104,0,148,-12.1621704101563,2.99188232421875,-100,0,26.3488998413086,0,0,0,0;1,1,0,6,-24.5,0.689999997615814,235,50.884838104248,191.595169067383,-6.26992797851563,5.4552001953125,-78.3468780517578,21.6531219482422,20.9790744781494,0,0,0,0;1,1,2,2.36563158035278,-15.9744558334351,0,174,139,97,0,25,-42.1264381408691,25.6254768371582,25,0,0,0,0" />
	<E K="Contrast" V="0" />
	<E K="FilmGrainAmount" V="30" />
	<E K="FilmGrainDensity" V="0" />
	<E K="FilmGrainGranularity" V="50" />
	<E K="FilmGrainType" V="4" />
	<E K="GradationCurve" V="0,0.0470589995384216;0.247059002518654,0.207843005657196;0.392156988382339,0.372548997402191;0.505882024765015,0.49803900718689;0.623529016971588,0.623529016971588;0.752941012382507,0.745097994804382;0.898038983345032,0.882353007793427;1,0.97647100687027" />
	<E K="GradationCurveBlue" V="0,0.011765000410378;0.247059002518654,0.231372997164726;0.392156988382339,0.372548997402191;0.505882024765015,0.549019992351532;0.623529016971588,0.709803998470306;0.752941012382507,0.84313702583313;0.898038983345032,0.945097982883453;1,1" />
	<E K="GradationCurveGreen" V="0,0.00392200006172061;0.247059002518654,0.219607993960381;0.392156988382339,0.364706009626389;0.505882024765015,0.549019992351532;0.623529016971588,0.717647016048431;0.752941012382507,0.854902029037476;0.898038983345032,0.952941000461578;1,1" />
	<E K="GradationCurveRed" V="0,0;0.247059002518654,0.207843005657196;0.392156988382339,0.360783994197845;0.505882024765015,0.556863009929657;0.623529016971588,0.717647016048431;0.752941012382507,0.847059011459351;0.898038983345032,0.945097982883453;1,1" />
	<E K="GradationCurveY" V="0,0;0.200000002980232,0.207499995827675;0.400000005960464,0.385250002145767;0.600000023841858,0.572000026702881;0.800000011920929,0.772000014781952;1,1" />
	<E K="Highlight" V="1;1;1;1" />
	<E K="HighlightRecovery" V="20" />
	<E K="Midtone" V="0;0;0;0.010950000025332" />
	<E K="Name" V="Kodak UltraMax 400 ++" />
	<E K="Saturation" V="-10" />
	<E K="ShadowRecovery" V="20" />
	<E K="StyleSource" V="Styles" />
	<E K="TargetHighlight" V="1;1;1;0.950290024280548" />
	<E K="UsmAmount" V="0" />
	<E K="UsmRadius" V="1" />
	<E K="UUID" V="E66FBE20-A767-4939-99DA-678F7BB295AB" />
</SL>
