styles/Kodak/Kodak Elite Chrome 160T ++.costyle
<?xml version="1.0"?>
<SL Engine="900">
	<E K="Clarity" V="0" />
	<E K="ClarityMethod" V="2" />
	<E K="ClarityStructure" V="0" />
	<E K="ColorBalanceHighlight" V="1.01265799999237;1.01265799999237;1.01265799999237" />
	<E K="ColorBalanceMidtone" V="1.02040803432465;1.02040803432465;1.02040803432465" />
	<E K="ColorBalanceShadow" V="1;1;1" />
	<E K="ColorCorrections" V="1,1,0,1.5,-3,-1,237,45.3288917541504,66.479118347168,-9.59939575195313,9.18455505371094,-80.8738861083984,19.1261138916016,25.9748382568359,0,0,0,0;1,1,0,0,0,-0.439999997615814,255,130,12,0,4.55426025390625,-95.2941207885742,4.70587921142578,18.2099227905273,0,0,0,0;1,1,0,-1.5,3,-0.449999988079071,255,225.91796875,36.1078147888184,-5.1807861328125,1.47015380859375,-85.8400726318359,14.1599273681641,20.3872756958008,0,0,0,0;1,1,0,-6,-16.5,-1,58.8606338500977,208,10.4000005722046,-33.7201843261719,32.3572998046875,-95,5,23.2739639282227,0,0,0,0;1,1,0,-1.5,-5.40000200271606,-1.1599999666214,22.6761436462402,216,177.109222412109,-4.34454345703125,5.92352294921875,-89.5017852783203,10.4982147216797,28.4633140563965,0,0,0,0;1,1,0,4.5,-11.7999992370605,-0.75,61.345775604248,87.8979263305664,165,-14.3739013671875,22.6552124023438,-62.820743560791,37.179256439209,27.3963947296143,0,0,0,0;1,1,0,0,-10,-0.699999988079071,104,0,148,-12.1621704101563,2.99188232421875,-100,0,26.3488998413086,0,0,0,0;1,1,0,0,-10.5,-0.800000011920929,235,50.884838104248,191.595169067383,-6.26992797851563,5.4552001953125,-78.3468780517578,21.6531219482422,20.9790744781494,0,0,0,0;1,1,2,2.36563158035278,-15.9744558334351,0,174,139,97,0,25,-42.1264381408691,25.6254768371582,25,0,0,0,0" />
	<E K="Contrast" V="0" />
	<E K="FilmGrainAmount" V="25" />
	<E K="FilmGrainDensity" V="0" />
	<E K="FilmGrainGranularity" V="50" />
	<E K="FilmGrainType" V="2" />
	<E K="GradationCurve" V="0,0.0196080002933741;0.0705880001187325,0.0862749963998795;0.254902005195618,0.243137001991272;0.419607996940613,0.36862701177597;0.556863009929657,0.494118005037308;0.67843097448349,0.619607985019684;0.788235008716583,0.745097994804382;0.894118010997772,0.870588004589081;1,0.996078014373779" />
	<E K="GradationCurveBlue" V="0,0.011765000410378;0.0705880001187325,0.0705880001187325;0.254902005195618,0.23921599984169;0.419607996940613,0.423528999090195;0.556863009929657,0.572548985481262;0.67843097448349,0.694118022918701;0.788235008716583,0.792156994342804;0.894118010997772,0.894118010997772;1,1" />
	<E K="GradationCurveGreen" V="0,0.00784299988299608;0.0705880001187325,0.0627449974417686;0.254902005195618,0.215685993432999;0.419607996940613,0.384314000606537;0.556863009929657,0.537254989147186;0.67843097448349,0.67843097448349;0.788235008716583,0.80392199754715;0.894118010997772,0.905882000923157;1,1" />
	<E K="GradationCurveRed" V="0,0;0.0705880001187325,0.0470589995384216;0.254902005195618,0.192157000303268;0.419607996940613,0.372548997402191;0.556863009929657,0.549019992351532;0.67843097448349,0.709803998470306;0.788235008716583,0.839215993881226;0.894118010997772,0.929412007331848;1,1" />
	<E K="GradationCurveY" V="0,0;0.200000002980232,0.207499995827675;0.400000005960464,0.397749990224838;0.600000023841858,0.58950001001358;0.800000011920929,0.789499998092651;1,1" />
	<E K="Highlight" V="1;1;1;1" />
	<E K="HighlightRecovery" V="7.5" />
	<E K="Midtone" V="0;0;0;0.00365000008605421" />
	<E K="Name" V="Kodak Elite Chrome 160T ++" />
	<E K="Saturation" V="0" />
	<E K="ShadowRecovery" V="8" />
	<E K="StyleSource" V="Styles" />
	<E K="TargetHighlight" V="1;1;1;0.983430027961731" />
	<E K="UsmAmount" V="0" />
	<E K="UsmRadius" V="1" />
	<E K="UUID" V="B14029FF-00CD-40BF-A9DB-6AD72050D460" />
</SL>
