styles/Kodak/Kodak Portra 400 NC -.costyle
<?xml version="1.0"?>
<SL Engine="900">
	<E K="Clarity" V="0" />
	<E K="ClarityMethod" V="2" />
	<E K="ClarityStructure" V="0" />
	<E K="ColorBalanceHighlight" V="0.875;0.875;0.875" />
	<E K="ColorBalanceMidtone" V="1.08695697784424;1.08695697784424;1.08695697784424" />
	<E K="ColorBalanceShadow" V="0.814999997615814;0.814999997615814;0.814999997615814" />
	<E K="ColorCorrections" V="1,1,0,6,-6,-1,237,45.3288917541504,66.479118347168,-9.59939575195313,9.18455505371094,-80.8738861083984,19.1261138916016,25.9748382568359,0,0,0,0;1,1,0,0,0,-0.351999998092651,255,130,12,0,4.55426025390625,-95.2941207885742,4.70587921142578,18.2099227905273,0,0,0,0;1,1,0,4.5,-6.40000200271606,-0.239999994635582,255,225.91796875,36.1078147888184,-5.1807861328125,1.47015380859375,-85.8400726318359,14.1599273681641,20.3872756958008,0,0,0,0;1,1,0,3,-33,-0.5,58.8606338500977,208,10.4000005722046,-33.7201843261719,32.3572998046875,-95,5,23.2739639282227,0,0,0,0;1,1,0,0,-21.5999984741211,0.330000013113022,22.6761436462402,216,177.109222412109,-4.34454345703125,5.92352294921875,-89.5017852783203,10.4982147216797,28.4633140563965,0,0,0,0;1,1,0,-3,-11.7999992370605,-0.75,61.345775604248,87.8979263305664,165,-14.3739013671875,22.6552124023438,-62.820743560791,37.179256439209,27.3963947296143,0,0,0,0;1,1,0,4.5,-35,0,104,0,148,-12.1621704101563,2.99188232421875,-100,0,26.3488998413086,0,0,0,0;1,1,0,12,-17.5,0,235,50.884838104248,191.595169067383,-6.26992797851563,5.4552001953125,-78.3468780517578,21.6531219482422,20.9790744781494,0,0,0,0;1,1,2,2.36563158035278,-15.9744558334351,0,174,139,97,0,25,-42.1264381408691,25.6254768371582,25,0,0,0,0" />
	<E K="Contrast" V="0" />
	<E K="FilmGrainAmount" V="15" />
	<E K="FilmGrainDensity" V="0" />
	<E K="FilmGrainGranularity" V="50" />
	<E K="FilmGrainType" V="2" />
	<E K="GradationCurve" V="0,0;0.172548994421959,0.211765006184578;0.466666996479034,0.505882024765015;1,1" />
	<E K="GradationCurveBlue" V="0,0;0.0862749963998795,0.0784310027956963;0.188234999775887,0.172548994421959;0.313726007938385,0.305882006883621;0.458824008703232,0.462745010852814;0.600000023841858,0.611765027046204;0.737254977226257,0.749019980430603;0.870588004589081,0.874509990215302;1,1" />
	<E K="GradationCurveGreen" V="0,0;0.0862749963998795,0.0705880001187325;0.188234999775887,0.164706006646156;0.313726007938385,0.294117987155914;0.458824008703232,0.458824008703232;0.600000023841858,0.611765027046204;0.737254977226257,0.749019980430603;0.870588004589081,0.870588004589081;1,1" />
	<E K="GradationCurveRed" V="0,0;0.0862749963998795,0.0666669979691505;0.188234999775887,0.160784006118774;0.313726007938385,0.298038989305496;0.458824008703232,0.466666996479034;0.600000023841858,0.615685999393463;0.737254977226257,0.752941012382507;0.870588004589081,0.878431022167206;1,1" />
	<E K="GradationCurveY" V="0,0;0.200000002980232,0.212500005960464;0.400000005960464,0.398750007152557;0.600000023841858,0.586000025272369;0.800000011920929,0.78600001335144;1,1" />
	<E K="Highlight" V="1;1;1;1" />
	<E K="HighlightRecovery" V="10" />
	<E K="Midtone" V="0;0;0;0.00365000008605421" />
	<E K="Name" V="Kodak Portra 400 NC -" />
	<E K="Saturation" V="-5" />
	<E K="ShadowRecovery" V="20" />
	<E K="StyleSource" V="Styles" />
	<E K="TargetHighlight" V="1;1;1;0.983430027961731" />
	<E K="UsmAmount" V="25" />
	<E K="UsmRadius" V="1" />
	<E K="UUID" V="7FD3DC5D-E6F3-478F-B486-77DE4BC88449" />
</SL>
