styles/Kodak/Kodak Royal Gold 400 - -.costyle
<?xml version="1.0"?>
<SL Engine="900">
	<E K="Clarity" V="0" />
	<E K="ClarityMethod" V="2" />
	<E K="ClarityStructure" V="0" />
	<E K="ColorBalanceHighlight" V="1;1;1" />
	<E K="ColorBalanceMidtone" V="1;1;1" />
	<E K="ColorBalanceShadow" V="1;1;1" />
	<E K="ColorCorrections" V="1,1,0,0,-12,-0.5,237,45.3288917541504,66.479118347168,-9.59939575195313,9.18455505371094,-80.8738861083984,19.1261138916016,25.9748382568359,0,0,0,0;1,1,0,0.600000023841858,-4,-0.219999998807907,255,130,12,0,4.55426025390625,-95.2941207885742,4.70587921142578,18.2099227905273,0,0,0,0;1,1,0,1.5,-12,0.5,255,225.91796875,36.1078147888184,-5.1807861328125,1.47015380859375,-85.8400726318359,14.1599273681641,20.3872756958008,0,0,0,0;1,1,0,0,-23.1000022888184,0.280000001192093,58.8606338500977,208,10.4000005722046,-33.7201843261719,32.3572998046875,-95,5,23.2739639282227,0,0,0,0;1,1,0,3,-21.5999984741211,0.495000004768372,22.6761436462402,216,177.109222412109,-4.34454345703125,5.92352294921875,-89.5017852783203,10.4982147216797,28.4633140563965,0,0,0,0;1,1,0,0,-8.84999847412109,-0.75,61.345775604248,87.8979263305664,165,-14.3739013671875,22.6552124023438,-62.820743560791,37.179256439209,27.3963947296143,0,0,0,0;1,1,0,0,-45,1.25999999046326,104,0,148,-12.1621704101563,2.99188232421875,-100,0,26.3488998413086,0,0,0,0;1,1,0,6,-24.5,0.46000000834465,235,50.884838104248,191.595169067383,-6.26992797851563,5.4552001953125,-78.3468780517578,21.6531219482422,20.9790744781494,0,0,0,0;1,1,2,2.36563158035278,-15.9744558334351,0,174,139,97,0,25,-42.1264381408691,25.6254768371582,25,0,0,0,0" />
	<E K="Contrast" V="0" />
	<E K="FilmGrainAmount" V="0" />
	<E K="FilmGrainDensity" V="0" />
	<E K="FilmGrainGranularity" V="50" />
	<E K="FilmGrainType" V="4" />
	<E K="GradationCurve" V="0,0;0.0666669979691505,0.0705880001187325;0.247059002518654,0.250979989767075;0.494118005037308,0.494118005037308;0.745097994804382,0.745097994804382;1,1" />
	<E K="GradationCurveBlue" V="0,0;0.105881996452808,0.0666669979691505;0.23921599984169,0.176470994949341;0.372548997402191,0.352941006422043;0.49803900718689,0.541176021099091;0.623529016971588,0.694118022918701;0.749019980430603,0.815685987472534;0.874509990215302,0.909803986549377;1,1" />
	<E K="GradationCurveGreen" V="0,0;0.105881996452808,0.0627449974417686;0.23921599984169,0.176470994949341;0.372548997402191,0.345097988843918;0.49803900718689,0.525489985942841;0.623529016971588,0.682353019714355;0.749019980430603,0.807843029499054;0.874509990215302,0.909803986549377;1,1" />
	<E K="GradationCurveRed" V="0,0;0.105881996452808,0.0509800016880035;0.23921599984169,0.168626993894577;0.372548997402191,0.341176003217697;0.49803900718689,0.51764702796936;0.623529016971588,0.67451000213623;0.749019980430603,0.800000011920929;0.874509990215302,0.905882000923157;1,1" />
	<E K="GradationCurveY" V="0,0;0.200000002980232,0.212500005960464;0.400000005960464,0.376249998807907;0.600000023841858,0.554499983787537;0.800000011920929,0.754499971866608;1,1" />
	<E K="Highlight" V="1;1;1;1" />
	<E K="HighlightRecovery" V="32.5" />
	<E K="Midtone" V="0;0;0;0.0146000003442168" />
	<E K="Name" V="Kodak Royal Gold 400 - -" />
	<E K="Saturation" V="0" />
	<E K="ShadowRecovery" V="40" />
	<E K="StyleSource" V="Styles" />
	<E K="TargetHighlight" V="1;1;1;0.933719992637634" />
	<E K="UsmAmount" V="0" />
	<E K="UsmRadius" V="1" />
	<E K="UUID" V="93CE7DEF-668B-43D8-AE57-5E1CE319EFFE" />
</SL>
