styles/Kodak/Kodak Portra 160 VC.costyle
<?xml version="1.0"?>
<SL Engine="900">
	<E K="Clarity" V="0" />
	<E K="ClarityMethod" V="2" />
	<E K="ClarityStructure" V="0" />
	<E K="ColorBalanceHighlight" V="0.879999995231628;0.879999995231628;0.879999995231628" />
	<E K="ColorBalanceMidtone" V="1.08108103275299;1.08108103275299;1.08108103275299" />
	<E K="ColorBalanceShadow" V="0.800000011920929;0.800000011920929;0.800000011920929" />
	<E K="ColorCorrections" V="1,1,0,7.5,-6,0,237,45.3288917541504,66.479118347168,-9.59939575195313,9.18455505371094,-80.8738861083984,19.1261138916016,25.9748382568359,0,0,0,0;1,1,0,0,0,-0.351999998092651,255,130,12,0,4.55426025390625,-95.2941207885742,4.70587921142578,18.2099227905273,0,0,0,0;1,1,0,3,-12,0,255,225.91796875,36.1078147888184,-5.1807861328125,1.47015380859375,-85.8400726318359,14.1599273681641,20.3872756958008,0,0,0,0;1,1,0,6,-33,0,58.8606338500977,208,10.4000005722046,-33.7201843261719,32.3572998046875,-95,5,23.2739639282227,0,0,0,0;1,1,0,0,-16.2000007629395,0.330000013113022,22.6761436462402,216,177.109222412109,-4.34454345703125,5.92352294921875,-89.5017852783203,10.4982147216797,28.4633140563965,0,0,0,0;1,1,0,-4.5,-11.7999992370605,0.174999997019768,61.345775604248,87.8979263305664,165,-14.3739013671875,22.6552124023438,-62.820743560791,37.179256439209,27.3963947296143,0,0,0,0;1,1,0,4.5,-50,1.25999999046326,104,0,148,-12.1621704101563,2.99188232421875,-100,0,26.3488998413086,0,0,0,0;1,1,0,12,-14,0,235,50.884838104248,191.595169067383,-6.26992797851563,5.4552001953125,-78.3468780517578,21.6531219482422,20.9790744781494,0,0,0,0;1,1,2,2.36563158035278,-15.9744558334351,0,174,139,97,0,25,-42.1264381408691,25.6254768371582,25,0,0,0,0" />
	<E K="Contrast" V="0" />
	<E K="FilmGrainAmount" V="15" />
	<E K="FilmGrainDensity" V="0" />
	<E K="FilmGrainGranularity" V="50" />
	<E K="FilmGrainType" V="2" />
	<E K="GradationCurve" V="0,0.00784299988299608;0.0941179990768433,0.105881996452808;0.227450996637344,0.23921599984169;0.360783994197845,0.36862701177597;0.494118005037308,0.49803900718689;0.627451002597809,0.623529016971588;0.760783970355988,0.749019980430603;0.890196025371552,0.870588004589081;1,0.980391979217529" />
	<E K="GradationCurveBlue" V="0,0;0.0941179990768433,0.0823530033230782;0.227450996637344,0.203922003507614;0.360783994197845,0.341176003217697;0.494118005037308,0.494118005037308;0.627451002597809,0.64705902338028;0.760783970355988,0.788235008716583;0.890196025371552,0.905882000923157;1,1" />
	<E K="GradationCurveGreen" V="0,0;0.0941179990768433,0.0745100006461143;0.227450996637344,0.188234999775887;0.360783994197845,0.333332985639572;0.494118005037308,0.494118005037308;0.627451002597809,0.643136978149414;0.760783970355988,0.780391991138458;0.890196025371552,0.901961028575897;1,1" />
	<E K="GradationCurveRed" V="0,0;0.0941179990768433,0.0666669979691505;0.227450996637344,0.180391997098923;0.360783994197845,0.329412013292313;0.494118005037308,0.49803900718689;0.627451002597809,0.65490198135376;0.760783970355988,0.796078026294708;0.890196025371552,0.909803986549377;1,1" />
	<E K="GradationCurveY" V="0,0;0.200000002980232,0.212500005960464;0.400000005960464,0.403750002384186;0.600000023841858,0.592999994754791;0.800000011920929,0.792999982833862;1,1" />
	<E K="Highlight" V="1;1;1;1" />
	<E K="HighlightRecovery" V="5" />
	<E K="Midtone" V="0;0;0;0.00365000008605421" />
	<E K="Name" V="Kodak Portra 160 VC" />
	<E K="Saturation" V="0" />
	<E K="ShadowRecovery" V="20" />
	<E K="StyleSource" V="Styles" />
	<E K="TargetHighlight" V="1;1;1;0.983430027961731" />
	<E K="UsmAmount" V="25" />
	<E K="UsmRadius" V="1" />
	<E K="UUID" V="2B95331C-0E35-4D0A-84FD-5601D1137610" />
</SL>
