styles/Kodak/Kodak Elite Chrome 160T Warm.costyle
<?xml version="1.0"?>
<SL Engine="900">
	<E K="Clarity" V="0" />
	<E K="ClarityMethod" V="2" />
	<E K="ClarityStructure" V="0" />
	<E K="ColorBalanceHighlight" V="1.01265799999237;1.01265799999237;1.01265799999237" />
	<E K="ColorBalanceMidtone" V="1.02040803432465;1.02040803432465;1.02040803432465" />
	<E K="ColorBalanceShadow" V="1;1;1" />
	<E K="ColorCorrections" V="1,1,0,1.5,-3,-1,237,45.3288917541504,66.479118347168,-9.59939575195313,9.18455505371094,-80.8738861083984,19.1261138916016,25.9748382568359,0,0,0,0;1,1,0,0,0,-0.439999997615814,255,130,12,0,4.55426025390625,-95.2941207885742,4.70587921142578,18.2099227905273,0,0,0,0;1,1,0,-1.5,3,-0.449999988079071,255,225.91796875,36.1078147888184,-5.1807861328125,1.47015380859375,-85.8400726318359,14.1599273681641,20.3872756958008,0,0,0,0;1,1,0,-6,-19.7999992370605,-1,58.8606338500977,208,10.4000005722046,-33.7201843261719,32.3572998046875,-95,5,23.2739639282227,0,0,0,0;1,1,0,-1.5,-5.40000200271606,-1.1599999666214,22.6761436462402,216,177.109222412109,-4.34454345703125,5.92352294921875,-89.5017852783203,10.4982147216797,28.4633140563965,0,0,0,0;1,1,0,1.5,-11.7999992370605,-0.75,61.345775604248,87.8979263305664,165,-14.3739013671875,22.6552124023438,-62.820743560791,37.179256439209,27.3963947296143,0,0,0,0;1,1,0,0,-10,-0.699999988079071,104,0,148,-12.1621704101563,2.99188232421875,-100,0,26.3488998413086,0,0,0,0;1,1,0,0,-10.5,-0.800000011920929,235,50.884838104248,191.595169067383,-6.26992797851563,5.4552001953125,-78.3468780517578,21.6531219482422,20.9790744781494,0,0,0,0;1,1,2,2.36563158035278,-15.9744558334351,0,174,139,97,0,25,-42.1264381408691,25.6254768371582,25,0,0,0,0" />
	<E K="Contrast" V="0" />
	<E K="FilmGrainAmount" V="20" />
	<E K="FilmGrainDensity" V="0" />
	<E K="FilmGrainGranularity" V="50" />
	<E K="FilmGrainType" V="2" />
	<E K="GradationCurve" V="0,0.00392200006172061;0.10980399698019,0.10980399698019;0.247059002518654,0.243137001991272;0.376471012830734,0.36862701177597;0.50196099281311,0.49803900718689;0.627451002597809,0.623529016971588;0.749019980430603,0.745097994804382;0.874509990215302,0.870588004589081;1,0.996078014373779" />
	<E K="GradationCurveBlue" V="0,0;0.10980399698019,0.0941179990768433;0.247059002518654,0.219607993960381;0.376471012830734,0.36862701177597;0.50196099281311,0.509804010391235;0.627451002597809,0.639216005802155;0.749019980430603,0.752941012382507;0.874509990215302,0.874509990215302;1,1" />
	<E K="GradationCurveGreen" V="0,0;0.10980399698019,0.0745100006461143;0.247059002518654,0.192157000303268;0.376471012830734,0.349020004272461;0.50196099281311,0.51764702796936;0.627451002597809,0.67058801651001;0.749019980430603,0.796078026294708;0.874509990215302,0.905882000923157;1,1" />
	<E K="GradationCurveRed" V="0,0;0.10980399698019,0.0784310027956963;0.247059002518654,0.192157000303268;0.376471012830734,0.345097988843918;0.50196099281311,0.513725996017456;0.627451002597809,0.682353019714355;0.749019980430603,0.819607973098755;0.874509990215302,0.925490021705627;1,1" />
	<E K="GradationCurveY" V="0,0;0.200000002980232,0.200000002980232;0.400000005960464,0.392500013113022;0.600000023841858,0.58950001001358;0.800000011920929,0.789499998092651;1,1" />
	<E K="Highlight" V="1;1;1;1" />
	<E K="HighlightRecovery" V="7.5" />
	<E K="Midtone" V="0;0;0;0.00365000008605421" />
	<E K="Name" V="Kodak Elite Chrome 160T Warm" />
	<E K="Saturation" V="0" />
	<E K="ShadowRecovery" V="8" />
	<E K="StyleSource" V="Styles" />
	<E K="TargetHighlight" V="1;1;1;0.983430027961731" />
	<E K="UsmAmount" V="15" />
	<E K="UsmRadius" V="1" />
	<E K="UUID" V="B8BB31E2-3481-4C97-B637-E0794C3485BA" />
</SL>
