styles/Kodak/Kodak Gold 100 -.costyle
<?xml version="1.0"?>
<SL Engine="900">
	<E K="Clarity" V="0" />
	<E K="ClarityMethod" V="2" />
	<E K="ClarityStructure" V="0" />
	<E K="ColorBalanceHighlight" V="1;1;1" />
	<E K="ColorBalanceMidtone" V="1;1;1" />
	<E K="ColorBalanceShadow" V="1;1;1" />
	<E K="ColorCorrections" V="1,1,0,0,-18,0.150000005960464,237,45.3288917541504,66.479118347168,-9.59939575195313,9.18455505371094,-80.8738861083984,19.1261138916016,25.9748382568359,0,0,0,0;1,1,0,0,-4,-0.175999999046326,255,130,12,0,4.55426025390625,-95.2941207885742,4.70587921142578,18.2099227905273,0,0,0,0;1,1,0,0,-12,0.5,255,225.91796875,36.1078147888184,-5.1807861328125,1.47015380859375,-85.8400726318359,14.1599273681641,20.3872756958008,0,0,0,0;1,1,0,3,-33,-0.25,58.8606338500977,208,10.4000005722046,-33.7201843261719,32.3572998046875,-95,5,23.2739639282227,0,0,0,0;1,1,0,3,-27,0.330000013113022,22.6761436462402,216,177.109222412109,-4.34454345703125,5.92352294921875,-89.5017852783203,10.4982147216797,28.4633140563965,0,0,0,0;1,1,0,-1.5,-17.7000007629395,-0.75,61.345775604248,87.8979263305664,165,-14.3739013671875,22.6552124023438,-62.820743560791,37.179256439209,27.3963947296143,0,0,0,0;1,1,0,6,-50,1.25999999046326,104,0,148,-12.1621704101563,2.99188232421875,-100,0,26.3488998413086,0,0,0,0;1,1,0,6,-28,0.920000016689301,235,50.884838104248,191.595169067383,-6.26992797851563,5.4552001953125,-78.3468780517578,21.6531219482422,20.9790744781494,0,0,0,0;1,1,2,2.36563158035278,-15.9744558334351,0,174,139,97,0,25,-42.1264381408691,25.6254768371582,25,0,0,0,0" />
	<E K="Contrast" V="0" />
	<E K="FilmGrainAmount" V="5" />
	<E K="FilmGrainDensity" V="0" />
	<E K="FilmGrainGranularity" V="50" />
	<E K="FilmGrainType" V="4" />
	<E K="GradationCurve" V="0,0;0.298038989305496,0.294117987155914;0.729412019252777,0.733332991600037;1,1" />
	<E K="GradationCurveBlue" V="0,0;0.125489994883537,0.0823530033230782;0.250979989767075,0.188234999775887;0.376471012830734,0.345097988843918;0.49803900718689,0.521569013595581;0.619607985019684,0.67843097448349;0.745097994804382,0.807843029499054;0.870588004589081,0.909803986549377;1,1" />
	<E K="GradationCurveGreen" V="0,0;0.125489994883537,0.0705880001187325;0.250979989767075,0.176470994949341;0.376471012830734,0.345097988843918;0.49803900718689,0.525489985942841;0.619607985019684,0.682353019714355;0.745097994804382,0.807843029499054;0.870588004589081,0.909803986549377;1,1" />
	<E K="GradationCurveRed" V="0,0;0.125489994883537,0.0705880001187325;0.250979989767075,0.172548994421959;0.376471012830734,0.341176003217697;0.49803900718689,0.521569013595581;0.619607985019684,0.67058801651001;0.745097994804382,0.796078026294708;0.870588004589081,0.901961028575897;1,1" />
	<E K="GradationCurveY" V="0,0;0.200000002980232,0.212500005960464;0.400000005960464,0.381249994039536;0.600000023841858,0.561500012874603;0.800000011920929,0.761500000953674;1,1" />
	<E K="Highlight" V="1;1;1;1" />
	<E K="HighlightRecovery" V="27.5" />
	<E K="Midtone" V="0;0;0;0.0182499997317791" />
	<E K="Name" V="Kodak Gold 100 -" />
	<E K="Saturation" V="-5" />
	<E K="ShadowRecovery" V="32" />
	<E K="StyleSource" V="Styles" />
	<E K="TargetHighlight" V="1;1;1;0.917150020599365" />
	<E K="UsmAmount" V="0" />
	<E K="UsmRadius" V="1" />
	<E K="UUID" V="613F41E9-190D-4E7C-8B95-BDEFD591FC8A" />
</SL>
