styles/Kodak/Kodak Gold 200 - -.costyle
<?xml version="1.0"?>
<SL Engine="900">
	<E K="Clarity" V="0" />
	<E K="ClarityMethod" V="2" />
	<E K="ClarityStructure" V="0" />
	<E K="ColorBalanceHighlight" V="1;1;1" />
	<E K="ColorBalanceMidtone" V="1;1;1" />
	<E K="ColorBalanceShadow" V="1;1;1" />
	<E K="ColorCorrections" V="1,1,0,3,-21,0.150000005960464,237,45.3288917541504,66.479118347168,-9.59939575195313,9.18455505371094,-80.8738861083984,19.1261138916016,25.9748382568359,0,0,0,0;1,1,0,-1.5,-2.5,0.0799999982118607,255,130,12,0,4.55426025390625,-95.2941207885742,4.70587921142578,18.2099227905273,0,0,0,0;1,1,0,0,-12,0.5,255,225.91796875,36.1078147888184,-5.1807861328125,1.47015380859375,-85.8400726318359,14.1599273681641,20.3872756958008,0,0,0,0;1,1,0,3,-23.1000022888184,0,58.8606338500977,208,10.4000005722046,-33.7201843261719,32.3572998046875,-95,5,23.2739639282227,0,0,0,0;1,1,0,3,-27,0.330000013113022,22.6761436462402,216,177.109222412109,-4.34454345703125,5.92352294921875,-89.5017852783203,10.4982147216797,28.4633140563965,0,0,0,0;1,1,0,-1.5,-17.7000007629395,-1.25,61.345775604248,87.8979263305664,165,-14.3739013671875,22.6552124023438,-62.820743560791,37.179256439209,27.3963947296143,0,0,0,0;1,1,0,0,-39.9999961853027,0.944999992847443,104,0,148,-12.1621704101563,2.99188232421875,-100,0,26.3488998413086,0,0,0,0;1,1,0,6,-24.5,0.230000004172325,235,50.884838104248,191.595169067383,-6.26992797851563,5.4552001953125,-78.3468780517578,21.6531219482422,20.9790744781494,0,0,0,0;1,1,2,2.36563158035278,-15.9744558334351,0,174,139,97,0,25,-42.1264381408691,25.6254768371582,25,0,0,0,0" />
	<E K="Contrast" V="0" />
	<E K="FilmGrainAmount" V="0" />
	<E K="FilmGrainDensity" V="0" />
	<E K="FilmGrainGranularity" V="50" />
	<E K="FilmGrainType" V="2" />
	<E K="GradationCurve" V="0,0;0.0666669979691505,0.0705880001187325;0.235293999314308,0.243137001991272;0.50196099281311,0.50196099281311;1,1" />
	<E K="GradationCurveBlue" V="0,0;0.10980399698019,0.0509800016880035;0.235293999314308,0.141176000237465;0.364706009626389,0.305882006883621;0.49803900718689,0.51764702796936;0.627451002597809,0.709803998470306;0.752941012382507,0.85097998380661;0.878431022167206,0.937255024909973;1,1" />
	<E K="GradationCurveGreen" V="0,0;0.10980399698019,0.0431369990110397;0.235293999314308,0.129411995410919;0.364706009626389,0.313726007938385;0.49803900718689,0.537254989147186;0.627451002597809,0.717647016048431;0.752941012382507,0.85097998380661;0.878431022167206,0.937255024909973;1,1" />
	<E K="GradationCurveRed" V="0,0;0.10980399698019,0.0431369990110397;0.235293999314308,0.117646999657154;0.364706009626389,0.298038989305496;0.49803900718689,0.533333003520966;0.627451002597809,0.721569001674652;0.752941012382507,0.854902029037476;0.878431022167206,0.941175997257233;1,1" />
	<E K="GradationCurveY" V="0,0;0.200000002980232,0.215000003576279;0.400000005960464,0.380499988794327;0.600000023841858,0.558000028133392;0.800000011920929,0.758000016212463;1,1" />
	<E K="Highlight" V="1;1;1;1" />
	<E K="HighlightRecovery" V="30" />
	<E K="Midtone" V="0;0;0;0.0146000003442168" />
	<E K="Name" V="Kodak Gold 200 - -" />
	<E K="Saturation" V="-5" />
	<E K="ShadowRecovery" V="36" />
	<E K="StyleSource" V="Styles" />
	<E K="TargetHighlight" V="1;1;1;0.933719992637634" />
	<E K="UsmAmount" V="0" />
	<E K="UsmRadius" V="1" />
	<E K="UUID" V="A6D4C7C9-9E7E-41D7-A9A2-3658ACC4CB24" />
</SL>
