styles/Kodak/Kodak Max 800 Soft Highs.costyle
<?xml version="1.0"?>
<SL Engine="900">
	<E K="Clarity" V="-5" />
	<E K="ClarityMethod" V="2" />
	<E K="ClarityStructure" V="-1.66666698455811" />
	<E K="ColorBalanceHighlight" V="1;1;1" />
	<E K="ColorBalanceMidtone" V="1;1;1" />
	<E K="ColorBalanceShadow" V="1;1;1" />
	<E K="ColorCorrections" V="1,1,0,4.5,-18,-0.75,237,45.3288917541504,66.479118347168,-9.59939575195313,9.18455505371094,-80.8738861083984,19.1261138916016,25.9748382568359,0,0,0,0;1,1,0,0,-15,-0.439999997615814,255,130,12,0,4.55426025390625,-95.2941207885742,4.70587921142578,18.2099227905273,0,0,0,0;1,1,0,1.5,-4,0.5,255,225.91796875,36.1078147888184,-5.1807861328125,1.47015380859375,-85.8400726318359,14.1599273681641,20.3872756958008,0,0,0,0;1,1,0,4.5,-26.3999977111816,0,58.8606338500977,208,10.4000005722046,-33.7201843261719,32.3572998046875,-95,5,23.2739639282227,0,0,0,0;1,1,0,3,-10.7999992370605,-0.579999983310699,22.6761436462402,216,177.109222412109,-4.34454345703125,5.92352294921875,-89.5017852783203,10.4982147216797,28.4633140563965,0,0,0,0;1,1,0,0,-8.84999847412109,-1,61.345775604248,87.8979263305664,165,-14.3739013671875,22.6552124023438,-62.820743560791,37.179256439209,27.3963947296143,0,0,0,0;1,1,0,6,-65,0.944999992847443,104,0,148,-12.1621704101563,2.99188232421875,-100,0,26.3488998413086,0,0,0,0;1,1,0,6,-35,0.920000016689301,235,50.884838104248,191.595169067383,-6.26992797851563,5.4552001953125,-78.3468780517578,21.6531219482422,20.9790744781494,0,0,0,0;1,1,2,2.36563158035278,-15.9744558334351,0,174,139,97,0,25,-42.1264381408691,25.6254768371582,25,0,0,0,0" />
	<E K="Contrast" V="0" />
	<E K="FilmGrainAmount" V="30" />
	<E K="FilmGrainDensity" V="0" />
	<E K="FilmGrainGranularity" V="50" />
	<E K="FilmGrainType" V="2" />
	<E K="GradationCurve" V="0,0.011765000410378;0.058823999017477,0.0784310027956963;0.243137001991272,0.23921599984169;0.372548997402191,0.372548997402191;0.490195989608765,0.49803900718689;0.615685999393463,0.623529016971588;0.80392199754715,0.749019980430603;0.956862986087799,0.878431022167206;1,0.952941000461578" />
	<E K="GradationCurveBlue" V="0,0.011765000410378;0.058823999017477,0.0392160005867481;0.243137001991272,0.211765006184578;0.372548997402191,0.372548997402191;0.490195989608765,0.545098006725311;0.615685999393463,0.705882012844086;0.80392199754715,0.870588004589081;0.956862986087799,0.964706003665924;1,0.972549021244049" />
	<E K="GradationCurveGreen" V="0,0.00784299988299608;0.058823999017477,0.0313730016350746;0.243137001991272,0.19607800245285;0.372548997402191,0.36862701177597;0.490195989608765,0.549019992351532;0.615685999393463,0.709803998470306;0.80392199754715,0.886274993419647;0.956862986087799,0.992156982421875;1,0.996078014373779" />
	<E K="GradationCurveRed" V="0,0;0.058823999017477,0.0235290005803108;0.243137001991272,0.192157000303268;0.372548997402191,0.380391985177994;0.490195989608765,0.560783982276917;0.615685999393463,0.713725984096527;0.80392199754715,0.886274993419647;0.956862986087799,1;1,1" />
	<E K="GradationCurveY" V="0,0;0.200000002980232,0.204999998211861;0.400000005960464,0.383500009775162;0.600000023841858,0.572000026702881;0.800000011920929,0.772000014781952;1,1" />
	<E K="Highlight" V="1;1;1;1" />
	<E K="HighlightRecovery" V="20" />
	<E K="Midtone" V="0;0;0;0.010950000025332" />
	<E K="Name" V="Kodak Max 800 Soft Highs" />
	<E K="Saturation" V="-15" />
	<E K="ShadowRecovery" V="20" />
	<E K="StyleSource" V="Styles" />
	<E K="TargetHighlight" V="1;1;1;0.950290024280548" />
	<E K="UsmAmount" V="0" />
	<E K="UsmRadius" V="1" />
	<E K="UUID" V="B2B12DB7-234C-47B3-A5AD-0532AB709279" />
</SL>
