styles/Kodak/Kodak E100VS +.costyle
<?xml version="1.0"?>
<SL Engine="900">
	<E K="Clarity" V="0" />
	<E K="ClarityMethod" V="2" />
	<E K="ClarityStructure" V="0" />
	<E K="ColorBalanceHighlight" V="1.02564096450806;1.02564096450806;1.02564096450806" />
	<E K="ColorBalanceMidtone" V="1.05263197422028;1.05263197422028;1.05263197422028" />
	<E K="ColorBalanceShadow" V="0.939999997615814;0.939999997615814;0.939999997615814" />
	<E K="ColorCorrections" V="1,1,0,2.40000009536743,-12,-1.5,237,45.3288917541504,66.479118347168,-9.59939575195313,9.18455505371094,-80.8738861083984,19.1261138916016,25.9748382568359,0,0,0,0;1,1,0,2.40000009536743,0,-0.660000026226044,255,130,12,0,4.55426025390625,-95.2941207885742,4.70587921142578,18.2099227905273,0,0,0,0;1,1,0,-1.5,0,-0.300000011920929,255,225.91796875,36.1078147888184,-5.1807861328125,1.47015380859375,-85.8400726318359,14.1599273681641,20.3872756958008,0,0,0,0;1,1,0,7.5,-33,-2,58.8606338500977,208,10.4000005722046,-33.7201843261719,32.3572998046875,-95,5,23.2739639282227,0,0,0,0;1,1,0,0,0,-1.1599999666214,22.6761436462402,216,177.109222412109,-4.34454345703125,5.92352294921875,-89.5017852783203,10.4982147216797,28.4633140563965,0,0,0,0;1,1,0,3,2.5,-1.5,61.345775604248,87.8979263305664,165,-14.3739013671875,22.6552124023438,-62.820743560791,37.179256439209,27.3963947296143,0,0,0,0;1,1,0,0,0,-0.699999988079071,104,0,148,-12.1621704101563,2.99188232421875,-100,0,26.3488998413086,0,0,0,0;1,1,0,0,-14,-1.20000004768372,235,50.884838104248,191.595169067383,-6.26992797851563,5.4552001953125,-78.3468780517578,21.6531219482422,20.9790744781494,0,0,0,0;1,1,2,2.36563158035278,-15.9744558334351,0,174,139,97,0,25,-42.1264381408691,25.6254768371582,25,0,0,0,0" />
	<E K="Contrast" V="0" />
	<E K="FilmGrainAmount" V="25" />
	<E K="FilmGrainDensity" V="0" />
	<E K="FilmGrainGranularity" V="50" />
	<E K="FilmGrainType" V="2" />
	<E K="GradationCurve" V="0,0;0.105881996452808,0.105881996452808;0.23921599984169,0.23921599984169;0.36862701177597,0.36862701177597;0.49803900718689,0.49803900718689;0.627451002597809,0.619607985019684;0.764706015586853,0.749019980430603;0.901961028575897,0.886274993419647;1,0.988234996795654" />
	<E K="GradationCurveBlue" V="0,0;0.105881996452808,0.0509800016880035;0.23921599984169,0.149020001292229;0.36862701177597,0.356862992048264;0.49803900718689,0.580392003059387;0.627451002597809,0.756862998008728;0.764706015586853,0.886274993419647;0.901961028575897,0.960784018039703;1,1" />
	<E K="GradationCurveGreen" V="0,0;0.105881996452808,0.0470589995384216;0.23921599984169,0.129411995410919;0.36862701177597,0.321568995714188;0.49803900718689,0.552941024303436;0.627451002597809,0.709803998470306;0.764706015586853,0.835294008255005;0.901961028575897,0.929412007331848;1,0.988234996795654" />
	<E K="GradationCurveRed" V="0,0;0.105881996452808,0.0431369990110397;0.23921599984169,0.137254998087883;0.36862701177597,0.345097988843918;0.49803900718689,0.568626999855042;0.627451002597809,0.741176009178162;0.764706015586853,0.866666972637177;0.901961028575897,0.949020028114319;1,0.996078014373779" />
	<E K="GradationCurveY" V="0,0;0.200000002980232,0.212500005960464;0.400000005960464,0.398750007152557;0.600000023841858,0.586000025272369;0.800000011920929,0.78600001335144;1,1" />
	<E K="Highlight" V="1;1;1;1" />
	<E K="HighlightRecovery" V="10" />
	<E K="Name" V="Kodak E100VS +" />
	<E K="Saturation" V="10" />
	<E K="ShadowRecovery" V="12" />
	<E K="StyleSource" V="Styles" />
	<E K="TargetHighlight" V="1;1;1;1" />
	<E K="UsmAmount" V="40" />
	<E K="UsmRadius" V="1.20000004768372" />
	<E K="UUID" V="DD1DDB97-323F-47CF-B0A1-880CD3DBE4A8" />
</SL>
