styles/Kodak/Kodak Portra 400 -.costyle
<?xml version="1.0"?>
<SL Engine="900">
	<E K="Clarity" V="0" />
	<E K="ClarityMethod" V="2" />
	<E K="ClarityStructure" V="0" />
	<E K="ColorBalanceHighlight" V="0.9375;0.9375;0.9375" />
	<E K="ColorBalanceMidtone" V="1.12676095962524;1.12676095962524;1.12676095962524" />
	<E K="ColorBalanceShadow" V="0.912500023841858;0.912500023841858;0.912500023841858" />
	<E K="ColorCorrections" V="1,1,0,1.5,-4.79999923706055,-0.75,237,45.3288917541504,66.479118347168,-9.59939575195313,9.18455505371094,-80.8738861083984,19.1261138916016,25.9748382568359,0,0,0,0;1,1,0,3,-5,0.200000002980232,255,130,12,0,4.55426025390625,-95.2941207885742,4.70587921142578,18.2099227905273,0,0,0,0;1,1,0,1.79999995231628,-16,0,255,225.91796875,36.1078147888184,-5.1807861328125,1.47015380859375,-85.8400726318359,14.1599273681641,20.3872756958008,0,0,0,0;1,1,0,4.5,-29.7000007629395,-1.5,58.8606338500977,208,10.4000005722046,-33.7201843261719,32.3572998046875,-95,5,23.2739639282227,0,0,0,0;1,1,0,0,-10.7999992370605,-0.695999979972839,22.6761436462402,216,177.109222412109,-4.34454345703125,5.92352294921875,-89.5017852783203,10.4982147216797,28.4633140563965,0,0,0,0;1,1,0,0,-11.7999992370605,-1.10000002384186,61.345775604248,87.8979263305664,165,-14.3739013671875,22.6552124023438,-62.820743560791,37.179256439209,27.3963947296143,0,0,0,0;1,1,0,4.5,-25,1.88999998569489,104,0,148,-12.1621704101563,2.99188232421875,-100,0,26.3488998413086,0,0,0,0;1,1,0,3.59999990463257,-17.5,0.551999986171722,235,50.884838104248,191.595169067383,-6.26992797851563,5.4552001953125,-78.3468780517578,21.6531219482422,20.9790744781494,0,0,0,0;1,1,2,2.36563158035278,-15.9744558334351,0,174,139,97,0,25,-42.1264381408691,25.6254768371582,25,0,0,0,0" />
	<E K="Contrast" V="0" />
	<E K="FilmGrainAmount" V="20" />
	<E K="FilmGrainDensity" V="0" />
	<E K="FilmGrainGranularity" V="50" />
	<E K="FilmGrainType" V="2" />
	<E K="GradationCurve" V="0,0;0.200000002980232,0.207843005657196;0.49803900718689,0.490195989608765;1,0.980391979217529" />
	<E K="GradationCurveBlue" V="0,0;0.113724999129772,0.113724999129772;0.235293999314308,0.231372997164726;0.36862701177597,0.364706009626389;0.505882024765015,0.50196099281311;0.639216005802155,0.639216005802155;0.768626987934113,0.768626987934113;0.894118010997772,0.890196025371552;1,0.992156982421875" />
	<E K="GradationCurveGreen" V="0,0;0.113724999129772,0.113724999129772;0.235293999314308,0.231372997164726;0.36862701177597,0.364706009626389;0.505882024765015,0.50196099281311;0.639216005802155,0.63137298822403;0.768626987934113,0.760783970355988;0.894118010997772,0.886274993419647;1,0.996078014373779" />
	<E K="GradationCurveRed" V="0,0;0.113724999129772,0.113724999129772;0.235293999314308,0.231372997164726;0.36862701177597,0.364706009626389;0.505882024765015,0.50196099281311;0.639216005802155,0.635294020175934;0.768626987934113,0.756862998008728;0.894118010997772,0.874509990215302;1,0.984314024448395" />
	<E K="GradationCurveY" V="0,0;0.200000002980232,0.200000002980232;0.400000005960464,0.395000010728836;0.600000023841858,0.592999994754791;0.800000011920929,0.792999982833862;1,1" />
	<E K="Highlight" V="1;1;1;1" />
	<E K="HighlightRecovery" V="5" />
	<E K="Midtone" V="0;0;0;0.00365000008605421" />
	<E K="Name" V="Kodak Portra 400 -" />
	<E K="Saturation" V="5" />
	<E K="ShadowRecovery" V="16" />
	<E K="StyleSource" V="Styles" />
	<E K="TargetHighlight" V="1;1;1;0.983430027961731" />
	<E K="UsmAmount" V="10" />
	<E K="UsmRadius" V="1" />
	<E K="UUID" V="E947D886-1DB4-4100-A96B-8A7FB60FB9E4" />
</SL>
