styles/Kodak/Kodak E100G +.costyle
<?xml version="1.0"?>
<SL Engine="900">
	<E K="Clarity" V="0" />
	<E K="ClarityMethod" V="2" />
	<E K="ClarityStructure" V="0" />
	<E K="ColorBalanceHighlight" V="1;1;1" />
	<E K="ColorBalanceMidtone" V="1.02564096450806;1.02564096450806;1.02564096450806" />
	<E K="ColorBalanceShadow" V="0.949999988079071;0.949999988079071;0.949999988079071" />
	<E K="ColorCorrections" V="1,1,0,4.5,-18,-1.5,237,45.3288917541504,66.479118347168,-9.59939575195313,9.18455505371094,-80.8738861083984,19.1261138916016,25.9748382568359,0,0,0,0;1,1,0,3.59999990463257,1.10000002384186,-0.527999997138977,255,130,12,0,4.55426025390625,-95.2941207885742,4.70587921142578,18.2099227905273,0,0,0,0;1,1,0,-1.5,0,-0.449999988079071,255,225.91796875,36.1078147888184,-5.1807861328125,1.47015380859375,-85.8400726318359,14.1599273681641,20.3872756958008,0,0,0,0;1,1,0,3,-33,-0.5,58.8606338500977,208,10.4000005722046,-33.7201843261719,32.3572998046875,-95,5,23.2739639282227,0,0,0,0;1,1,0,0,-13.5,0,22.6761436462402,216,177.109222412109,-4.34454345703125,5.92352294921875,-89.5017852783203,10.4982147216797,28.4633140563965,0,0,0,0;1,1,0,3,5,-1.25,61.345775604248,87.8979263305664,165,-14.3739013671875,22.6552124023438,-62.820743560791,37.179256439209,27.3963947296143,0,0,0,0;1,1,0,0,-30,0,104,0,148,-12.1621704101563,2.99188232421875,-100,0,26.3488998413086,0,0,0,0;1,1,0,0,-21,-1.20000004768372,235,50.884838104248,191.595169067383,-6.26992797851563,5.4552001953125,-78.3468780517578,21.6531219482422,20.9790744781494,0,0,0,0;1,1,2,2.36563158035278,-15.9744558334351,0,174,139,97,0,25,-42.1264381408691,25.6254768371582,25,0,0,0,0" />
	<E K="Contrast" V="0" />
	<E K="FilmGrainAmount" V="25" />
	<E K="FilmGrainDensity" V="0" />
	<E K="FilmGrainGranularity" V="50" />
	<E K="FilmGrainType" V="2" />
	<E K="GradationCurve" V="0,0;0.105881996452808,0.105881996452808;0.243137001991272,0.243137001991272;0.364706009626389,0.36862701177597;0.490195989608765,0.49803900718689;0.615685999393463,0.619607985019684;0.749019980430603,0.749019980430603;0.882353007793427,0.878431022167206;1,0.988234996795654" />
	<E K="GradationCurveBlue" V="0,0;0.105881996452808,0.0509800016880035;0.243137001991272,0.164706006646156;0.364706009626389,0.349020004272461;0.490195989608765,0.549019992351532;0.615685999393463,0.705882012844086;0.749019980430603,0.835294008255005;0.882353007793427,0.929412007331848;1,1" />
	<E K="GradationCurveGreen" V="0,0;0.105881996452808,0.0509800016880035;0.243137001991272,0.160784006118774;0.364706009626389,0.329412013292313;0.490195989608765,0.525489985942841;0.615685999393463,0.694118022918701;0.749019980430603,0.831372976303101;0.882353007793427,0.929412007331848;1,1" />
	<E K="GradationCurveRed" V="0,0;0.105881996452808,0.0509800016880035;0.243137001991272,0.152941003441811;0.364706009626389,0.345097988843918;0.490195989608765,0.556863009929657;0.615685999393463,0.717647016048431;0.749019980430603,0.84313702583313;0.882353007793427,0.933332979679108;1,1" />
	<E K="GradationCurveY" V="0,0;0.200000002980232,0.215000003576279;0.400000005960464,0.400499999523163;0.600000023841858,0.586000025272369;0.800000011920929,0.78600001335144;1,1" />
	<E K="Highlight" V="1;1;1;1" />
	<E K="HighlightRecovery" V="10" />
	<E K="Midtone" V="0;0;0;0.00365000008605421" />
	<E K="Name" V="Kodak E100G +" />
	<E K="Saturation" V="5" />
	<E K="ShadowRecovery" V="16" />
	<E K="StyleSource" V="Styles" />
	<E K="TargetHighlight" V="1;1;1;0.983430027961731" />
	<E K="UsmAmount" V="40" />
	<E K="UsmRadius" V="1.20000004768372" />
	<E K="UUID" V="219F8E09-423F-476F-80E1-38959E247666" />
</SL>
