styles/Kodak/Kodak Max 800 Warm +.costyle
<?xml version="1.0"?>
<SL Engine="900">
	<E K="Clarity" V="-5" />
	<E K="ClarityMethod" V="2" />
	<E K="ClarityStructure" V="-1.66666698455811" />
	<E K="ColorBalanceHighlight" V="1;1;1" />
	<E K="ColorBalanceMidtone" V="1;1;1" />
	<E K="ColorBalanceShadow" V="1;1;1" />
	<E K="ColorCorrections" V="1,1,0,3,-24,-0.75,237,45.3288917541504,66.479118347168,-9.59939575195313,9.18455505371094,-80.8738861083984,19.1261138916016,25.9748382568359,0,0,0,0;1,1,0,0,-15,-0.439999997615814,255,130,12,0,4.55426025390625,-95.2941207885742,4.70587921142578,18.2099227905273,0,0,0,0;1,1,0,1.5,-4,0.5,255,225.91796875,36.1078147888184,-5.1807861328125,1.47015380859375,-85.8400726318359,14.1599273681641,20.3872756958008,0,0,0,0;1,1,0,4.5,-26.3999977111816,0,58.8606338500977,208,10.4000005722046,-33.7201843261719,32.3572998046875,-95,5,23.2739639282227,0,0,0,0;1,1,0,3,-10.7999992370605,-0.579999983310699,22.6761436462402,216,177.109222412109,-4.34454345703125,5.92352294921875,-89.5017852783203,10.4982147216797,28.4633140563965,0,0,0,0;1,1,0,0,-8.84999847412109,-1,61.345775604248,87.8979263305664,165,-14.3739013671875,22.6552124023438,-62.820743560791,37.179256439209,27.3963947296143,0,0,0,0;1,1,0,6,-65,0.944999992847443,104,0,148,-12.1621704101563,2.99188232421875,-100,0,26.3488998413086,0,0,0,0;1,1,0,6,-35,0.920000016689301,235,50.884838104248,191.595169067383,-6.26992797851563,5.4552001953125,-78.3468780517578,21.6531219482422,20.9790744781494,0,0,0,0;1,1,2,2.36563158035278,-15.9744558334351,0,174,139,97,0,25,-42.1264381408691,25.6254768371582,25,0,0,0,0" />
	<E K="Contrast" V="0" />
	<E K="FilmGrainAmount" V="35" />
	<E K="FilmGrainDensity" V="0" />
	<E K="FilmGrainGranularity" V="50" />
	<E K="FilmGrainType" V="2" />
	<E K="GradationCurve" V="0,0.0431369990110397;0.223528996109962,0.203922003507614;0.380391985177994,0.372548997402191;0.494118005037308,0.494118005037308;0.607842981815338,0.619607985019684;0.729412019252777,0.745097994804382;0.878431022167206,0.878431022167206;1,0.97647100687027" />
	<E K="GradationCurveBlue" V="0,0;0.223528996109962,0.188234999775887;0.380391985177994,0.341176003217697;0.494118005037308,0.509804010391235;0.607842981815338,0.65490198135376;0.729412019252777,0.780391991138458;0.878431022167206,0.901961028575897;1,0.996078014373779" />
	<E K="GradationCurveGreen" V="0,0.00392200006172061;0.223528996109962,0.207843005657196;0.380391985177994,0.380391985177994;0.494118005037308,0.549019992351532;0.607842981815338,0.690195977687836;0.729412019252777,0.80392199754715;0.878431022167206,0.913725018501282;1,1" />
	<E K="GradationCurveRed" V="0,0.0235290005803108;0.223528996109962,0.243137001991272;0.380391985177994,0.41176500916481;0.494118005037308,0.572548985481262;0.607842981815338,0.709803998470306;0.729412019252777,0.819607973098755;0.878431022167206,0.921568989753723;1,1" />
	<E K="GradationCurveY" V="0,0;0.200000002980232,0.204999998211861;0.400000005960464,0.383500009775162;0.600000023841858,0.572000026702881;0.800000011920929,0.772000014781952;1,1" />
	<E K="Highlight" V="1;1;1;1" />
	<E K="HighlightRecovery" V="20" />
	<E K="Midtone" V="0;0;0;0.010950000025332" />
	<E K="Name" V="Kodak Max 800 Warm +" />
	<E K="Saturation" V="-20" />
	<E K="ShadowRecovery" V="20" />
	<E K="StyleSource" V="Styles" />
	<E K="TargetHighlight" V="1;1;1;0.950290024280548" />
	<E K="UsmAmount" V="0" />
	<E K="UsmRadius" V="1" />
	<E K="UUID" V="7F2B8326-58B1-4C7E-9362-C8CA971D0F01" />
</SL>
