styles/Kodak/Kodak Ektar 100 -.costyle
<?xml version="1.0"?>
<SL Engine="900">
	<E K="Clarity" V="0" />
	<E K="ClarityMethod" V="2" />
	<E K="ClarityStructure" V="0" />
	<E K="ColorBalanceHighlight" V="1;1;1" />
	<E K="ColorBalanceMidtone" V="1;1;1" />
	<E K="ColorBalanceShadow" V="1;1;1" />
	<E K="ColorCorrections" V="1,1,0,3,-6,-0.5,237,45.3288917541504,66.479118347168,-9.59939575195313,9.18455505371094,-80.8738861083984,19.1261138916016,25.9748382568359,0,0,0,0;1,1,0,0,1.10000002384186,-0.0879999995231628,255,130,12,0,4.55426025390625,-95.2941207885742,4.70587921142578,18.2099227905273,0,0,0,0;1,1,0,0,0,0.5,255,225.91796875,36.1078147888184,-5.1807861328125,1.47015380859375,-85.8400726318359,14.1599273681641,20.3872756958008,0,0,0,0;1,1,0,0.600000023841858,-13.2000007629395,0,58.8606338500977,208,10.4000005722046,-33.7201843261719,32.3572998046875,-95,5,23.2739639282227,0,0,0,0;1,1,0,0,-10.7999992370605,0.660000026226044,22.6761436462402,216,177.109222412109,-4.34454345703125,5.92352294921875,-89.5017852783203,10.4982147216797,28.4633140563965,0,0,0,0;1,1,0,0,-8.84999847412109,0,61.345775604248,87.8979263305664,165,-14.3739013671875,22.6552124023438,-62.820743560791,37.179256439209,27.3963947296143,0,0,0,0;1,1,0,6,-45,1.25999999046326,104,0,148,-12.1621704101563,2.99188232421875,-100,0,26.3488998413086,0,0,0,0;1,1,0,9,-21,0.230000004172325,235,50.884838104248,191.595169067383,-6.26992797851563,5.4552001953125,-78.3468780517578,21.6531219482422,20.9790744781494,0,0,0,0;1,1,2,2.36563158035278,-15.9744558334351,0,174,139,97,0,25,-42.1264381408691,25.6254768371582,25,0,0,0,0" />
	<E K="Contrast" V="0" />
	<E K="FilmGrainAmount" V="15" />
	<E K="FilmGrainDensity" V="0" />
	<E K="FilmGrainGranularity" V="50" />
	<E K="FilmGrainType" V="2" />
	<E K="GradationCurve" V="0,0;0.0627449974417686,0.0666669979691505;0.215685993432999,0.219607993960381;0.49803900718689,0.49803900718689;1,1" />
	<E K="GradationCurveBlue" V="0,0;0.105881996452808,0.058823999017477;0.243137001991272,0.168626993894577;0.372548997402191,0.337255001068115;0.49803900718689,0.560783982276917;0.623529016971588,0.749019980430603;0.749019980430603,0.866666972637177;0.874509990215302,0.941175997257233;1,1" />
	<E K="GradationCurveGreen" V="0,0;0.105881996452808,0.0431369990110397;0.243137001991272,0.156863003969193;0.372548997402191,0.345097988843918;0.49803900718689,0.572548985481262;0.623529016971588,0.760783970355988;0.749019980430603,0.870588004589081;0.874509990215302,0.945097982883453;1,1" />
	<E K="GradationCurveRed" V="0,0;0.105881996452808,0.0392160005867481;0.243137001991272,0.129411995410919;0.372548997402191,0.341176003217697;0.49803900718689,0.572548985481262;0.623529016971588,0.752941012382507;0.749019980430603,0.874509990215302;0.874509990215302,0.949020028114319;1,1" />
	<E K="GradationCurveY" V="0,0;0.200000002980232,0.209999993443489;0.400000005960464,0.381999999284744;0.600000023841858,0.564999997615814;0.800000011920929,0.764999985694885;1,1" />
	<E K="Highlight" V="1;1;1;1" />
	<E K="HighlightRecovery" V="25" />
	<E K="Midtone" V="0;0;0;0.0146000003442168" />
	<E K="Name" V="Kodak Ektar 100 -" />
	<E K="Saturation" V="-5" />
	<E K="ShadowRecovery" V="32" />
	<E K="StyleSource" V="Styles" />
	<E K="TargetHighlight" V="1;1;1;0.933719992637634" />
	<E K="UsmAmount" V="0" />
	<E K="UsmRadius" V="1" />
	<E K="UUID" V="93A4D7CE-47F5-4D95-8128-4072618E9299" />
</SL>
