styles/Kodak/Kodak Max 800 Alt ++.costyle
<?xml version="1.0"?>
<SL Engine="900">
	<E K="Clarity" V="-10" />
	<E K="ClarityMethod" V="2" />
	<E K="ClarityStructure" V="-3.33333301544189" />
	<E K="ColorBalanceHighlight" V="1;1;1" />
	<E K="ColorBalanceMidtone" V="1;1;1" />
	<E K="ColorBalanceShadow" V="1;1;1" />
	<E K="ColorCorrections" V="1,1,0,9,-18,-0.75,237,45.3288917541504,66.479118347168,-9.59939575195313,9.18455505371094,-80.8738861083984,19.1261138916016,25.9748382568359,0,0,0,0;1,1,0,0,-17.5,-0.660000026226044,255,130,12,0,4.55426025390625,-95.2941207885742,4.70587921142578,18.2099227905273,0,0,0,0;1,1,0,0,-4,0,255,225.91796875,36.1078147888184,-5.1807861328125,1.47015380859375,-85.8400726318359,14.1599273681641,20.3872756958008,0,0,0,0;1,1,0,0,-26.3999977111816,0.419999986886978,58.8606338500977,208,10.4000005722046,-33.7201843261719,32.3572998046875,-95,5,23.2739639282227,0,0,0,0;1,1,0,3,0,0.330000013113022,22.6761436462402,216,177.109222412109,-4.34454345703125,5.92352294921875,-89.5017852783203,10.4982147216797,28.4633140563965,0,0,0,0;1,1,0,-1.5,-8.84999847412109,-0.5,61.345775604248,87.8979263305664,165,-14.3739013671875,22.6552124023438,-62.820743560791,37.179256439209,27.3963947296143,0,0,0,0;1,1,0,6,-35,1.25999999046326,104,0,148,-12.1621704101563,2.99188232421875,-100,0,26.3488998413086,0,0,0,0;1,1,0,6,-24.5,0.689999997615814,235,50.884838104248,191.595169067383,-6.26992797851563,5.4552001953125,-78.3468780517578,21.6531219482422,20.9790744781494,0,0,0,0;1,1,2,2.36563158035278,-15.9744558334351,0,174,139,97,0,25,-42.1264381408691,25.6254768371582,25,0,0,0,0" />
	<E K="Contrast" V="0" />
	<E K="FilmGrainAmount" V="35" />
	<E K="FilmGrainDensity" V="0" />
	<E K="FilmGrainGranularity" V="50" />
	<E K="FilmGrainType" V="2" />
	<E K="GradationCurve" V="0,0.058823999017477;0.219607993960381,0.207843005657196;0.380391985177994,0.372548997402191;0.494118005037308,0.494118005037308;0.611765027046204,0.623529016971588;0.749019980430603,0.749019980430603;0.909803986549377,0.882353007793427;1,0.964706003665924" />
	<E K="GradationCurveBlue" V="0,0.0196080002933741;0.219607993960381,0.231372997164726;0.380391985177994,0.41176500916481;0.494118005037308,0.552941024303436;0.611765027046204,0.666666984558105;0.749019980430603,0.784313976764679;0.909803986549377,0.905882000923157;1,0.964706003665924" />
	<E K="GradationCurveGreen" V="0,0;0.219607993960381,0.188234999775887;0.380391985177994,0.376471012830734;0.494118005037308,0.568626999855042;0.611765027046204,0.709803998470306;0.749019980430603,0.82745099067688;0.909803986549377,0.925490021705627;1,0.972549021244049" />
	<E K="GradationCurveRed" V="0,0;0.219607993960381,0.192157000303268;0.380391985177994,0.376471012830734;0.494118005037308,0.564706027507782;0.611765027046204,0.725489974021912;0.749019980430603,0.85097998380661;0.909803986549377,0.952941000461578;1,1" />
	<E K="GradationCurveY" V="0,0;0.200000002980232,0.200000002980232;0.400000005960464,0.379999995231628;0.600000023841858,0.572000026702881;0.800000011920929,0.772000014781952;1,1" />
	<E K="Highlight" V="1;1;1;1" />
	<E K="HighlightRecovery" V="20" />
	<E K="Midtone" V="0;0;0;0.010950000025332" />
	<E K="Name" V="Kodak Max 800 Alt ++" />
	<E K="Saturation" V="-20" />
	<E K="ShadowRecovery" V="8" />
	<E K="StyleSource" V="Styles" />
	<E K="TargetHighlight" V="1;1;1;0.950290024280548" />
	<E K="UsmAmount" V="0" />
	<E K="UsmRadius" V="1" />
	<E K="UUID" V="EAC588D2-4424-4572-B426-A748C67ED013" />
</SL>
