styles/Kodak/Kodak E200 ++.costyle
<?xml version="1.0"?>
<SL Engine="900">
	<E K="Clarity" V="0" />
	<E K="ClarityMethod" V="2" />
	<E K="ClarityStructure" V="0" />
	<E K="ColorBalanceHighlight" V="1;1;1" />
	<E K="ColorBalanceMidtone" V="1.05263197422028;1.05263197422028;1.05263197422028" />
	<E K="ColorBalanceShadow" V="0.987500011920929;0.987500011920929;0.987500011920929" />
	<E K="ColorCorrections" V="1,1,0,3,-18,-1.5,237,45.3288917541504,66.479118347168,-9.59939575195313,9.18455505371094,-80.8738861083984,19.1261138916016,25.9748382568359,0,0,0,0;1,1,0,0,1.75999999046326,-0.527999997138977,255,130,12,0,4.55426025390625,-95.2941207885742,4.70587921142578,18.2099227905273,0,0,0,0;1,1,0,-2.40000009536743,0,-0.600000023841858,255,225.91796875,36.1078147888184,-5.1807861328125,1.47015380859375,-85.8400726318359,14.1599273681641,20.3872756958008,0,0,0,0;1,1,0,1.5,-26.3999977111816,-0.5,58.8606338500977,208,10.4000005722046,-33.7201843261719,32.3572998046875,-95,5,23.2739639282227,0,0,0,0;1,1,0,4.5,-24.2999992370605,-0.579999983310699,22.6761436462402,216,177.109222412109,-4.34454345703125,5.92352294921875,-89.5017852783203,10.4982147216797,28.4633140563965,0,0,0,0;1,1,0,3,0,-1.25,61.345775604248,87.8979263305664,165,-14.3739013671875,22.6552124023438,-62.820743560791,37.179256439209,27.3963947296143,0,0,0,0;1,1,0,9,-39.9999961853027,0.314999997615814,104,0,148,-12.1621704101563,2.99188232421875,-100,0,26.3488998413086,0,0,0,0;1,1,0,0,-28,-1.20000004768372,235,50.884838104248,191.595169067383,-6.26992797851563,5.4552001953125,-78.3468780517578,21.6531219482422,20.9790744781494,0,0,0,0;1,1,2,2.36563158035278,-15.9744558334351,0,174,139,97,0,25,-42.1264381408691,25.6254768371582,25,0,0,0,0" />
	<E K="Contrast" V="0" />
	<E K="FilmGrainAmount" V="40" />
	<E K="FilmGrainDensity" V="0" />
	<E K="FilmGrainGranularity" V="50" />
	<E K="FilmGrainType" V="2" />
	<E K="GradationCurve" V="0,0.00392200006172061;0.0627449974417686,0.0745100006461143;0.235293999314308,0.227450996637344;0.36862701177597,0.36862701177597;0.49803900718689,0.494118005037308;0.627451002597809,0.619607985019684;0.756862998008728,0.745097994804382;0.886274993419647,0.874509990215302;1,0.992156982421875" />
	<E K="GradationCurveBlue" V="0,0.011765000410378;0.0627449974417686,0.0431369990110397;0.235293999314308,0.19607800245285;0.36862701177597,0.36862701177597;0.49803900718689,0.556863009929657;0.627451002597809,0.717647016048431;0.756862998008728,0.84313702583313;0.886274993419647,0.933332979679108;1,1" />
	<E K="GradationCurveGreen" V="0,0;0.0627449974417686,0.0235290005803108;0.235293999314308,0.145098000764847;0.36862701177597,0.313726007938385;0.49803900718689,0.51764702796936;0.627451002597809,0.686275005340576;0.756862998008728,0.815685987472534;0.886274993419647,0.917647004127502;1,0.996078014373779" />
	<E K="GradationCurveRed" V="0,0;0.0627449974417686,0.0274509992450476;0.235293999314308,0.160784006118774;0.36862701177597,0.337255001068115;0.49803900718689,0.545098006725311;0.627451002597809,0.709803998470306;0.756862998008728,0.831372976303101;0.886274993419647,0.925490021705627;1,1" />
	<E K="GradationCurveY" V="0,0;0.200000002980232,0.215000003576279;0.400000005960464,0.400499999523163;0.600000023841858,0.586000025272369;0.800000011920929,0.78600001335144;1,1" />
	<E K="Highlight" V="1;1;1;1" />
	<E K="HighlightRecovery" V="10" />
	<E K="Midtone" V="0;0;0;0.00365000008605421" />
	<E K="Name" V="Kodak E200 ++" />
	<E K="Saturation" V="-10" />
	<E K="ShadowRecovery" V="17.6000003814697" />
	<E K="StyleSource" V="Styles" />
	<E K="TargetHighlight" V="1;1;1;0.983430027961731" />
	<E K="UsmAmount" V="40" />
	<E K="UsmRadius" V="1.20000004768372" />
	<E K="UUID" V="E1AA44B1-9953-432B-A8C8-E2A98E23DFEC" />
</SL>
