styles/Kodak/Kodak Max 800 Vibrant.costyle
<?xml version="1.0"?>
<SL Engine="900">
	<E K="Clarity" V="-5" />
	<E K="ClarityMethod" V="2" />
	<E K="ClarityStructure" V="-1.66666698455811" />
	<E K="ColorBalanceHighlight" V="1;1;1" />
	<E K="ColorBalanceMidtone" V="1;1;1" />
	<E K="ColorBalanceShadow" V="1;1;1" />
	<E K="ColorCorrections" V="1,1,0,4.5,-18,-0.75,237,45.3288917541504,66.479118347168,-9.59939575195313,9.18455505371094,-80.8738861083984,19.1261138916016,25.9748382568359,0,0,0,0;1,1,0,0,-15,-0.439999997615814,255,130,12,0,4.55426025390625,-95.2941207885742,4.70587921142578,18.2099227905273,0,0,0,0;1,1,0,1.5,-4,0.5,255,225.91796875,36.1078147888184,-5.1807861328125,1.47015380859375,-85.8400726318359,14.1599273681641,20.3872756958008,0,0,0,0;1,1,0,4.5,-26.3999977111816,0,58.8606338500977,208,10.4000005722046,-33.7201843261719,32.3572998046875,-95,5,23.2739639282227,0,0,0,0;1,1,0,3,-10.7999992370605,-0.579999983310699,22.6761436462402,216,177.109222412109,-4.34454345703125,5.92352294921875,-89.5017852783203,10.4982147216797,28.4633140563965,0,0,0,0;1,1,0,0,-8.84999847412109,-1,61.345775604248,87.8979263305664,165,-14.3739013671875,22.6552124023438,-62.820743560791,37.179256439209,27.3963947296143,0,0,0,0;1,1,0,6,-65,0.944999992847443,104,0,148,-12.1621704101563,2.99188232421875,-100,0,26.3488998413086,0,0,0,0;1,1,0,6,-35,0.920000016689301,235,50.884838104248,191.595169067383,-6.26992797851563,5.4552001953125,-78.3468780517578,21.6531219482422,20.9790744781494,0,0,0,0;1,1,2,2.36563158035278,-15.9744558334351,0,174,139,97,0,25,-42.1264381408691,25.6254768371582,25,0,0,0,0" />
	<E K="Contrast" V="0" />
	<E K="FilmGrainAmount" V="30" />
	<E K="FilmGrainDensity" V="0" />
	<E K="FilmGrainGranularity" V="50" />
	<E K="FilmGrainType" V="2" />
	<E K="GradationCurve" V="0,0.00784299988299608;0.0745100006461143,0.0980390012264252;0.250979989767075,0.23921599984169;0.372548997402191,0.372548997402191;0.490195989608765,0.494118005037308;0.607842981815338,0.619607985019684;0.729412019252777,0.745097994804382;0.878431022167206,0.878431022167206;1,0.980391979217529" />
	<E K="GradationCurveBlue" V="0,0.0156859997659922;0.0745100006461143,0.0470589995384216;0.250979989767075,0.219607993960381;0.372548997402191,0.372548997402191;0.490195989608765,0.541176021099091;0.607842981815338,0.694118022918701;0.729412019252777,0.811765015125275;0.878431022167206,0.921568989753723;1,0.996078014373779" />
	<E K="GradationCurveGreen" V="0,0.00784299988299608;0.0745100006461143,0.0392160005867481;0.250979989767075,0.200000002980232;0.372548997402191,0.36862701177597;0.490195989608765,0.549019992351532;0.607842981815338,0.701960980892181;0.729412019252777,0.819607973098755;0.878431022167206,0.921568989753723;1,1" />
	<E K="GradationCurveRed" V="0,0;0.0745100006461143,0.0274509992450476;0.250979989767075,0.192157000303268;0.372548997402191,0.380391985177994;0.490195989608765,0.564706027507782;0.607842981815338,0.705882012844086;0.729412019252777,0.815685987472534;0.878431022167206,0.917647004127502;1,0.996078014373779" />
	<E K="GradationCurveY" V="0,0;0.200000002980232,0.207499995827675;0.400000005960464,0.380250006914139;0.600000023841858,0.564999997615814;0.800000011920929,0.764999985694885;1,1" />
	<E K="Highlight" V="1;1;1;1" />
	<E K="HighlightRecovery" V="25" />
	<E K="Midtone" V="0;0;0;0.0127750001847744" />
	<E K="Name" V="Kodak Max 800 Vibrant" />
	<E K="Saturation" V="-5" />
	<E K="ShadowRecovery" V="24" />
	<E K="StyleSource" V="Styles" />
	<E K="TargetHighlight" V="1;1;1;0.942004978656769" />
	<E K="UsmAmount" V="0" />
	<E K="UsmRadius" V="1" />
	<E K="UUID" V="829C7940-8C7C-4C6B-AA40-C12D5092B94B" />
</SL>
