styles/Kodak/Kodak Gold 200 +++.costyle
<?xml version="1.0"?>
<SL Engine="900">
	<E K="Clarity" V="-10" />
	<E K="ClarityMethod" V="2" />
	<E K="ClarityStructure" V="-3.33333301544189" />
	<E K="ColorBalanceHighlight" V="1;1;1" />
	<E K="ColorBalanceMidtone" V="1;1;1" />
	<E K="ColorBalanceShadow" V="1;1;1" />
	<E K="ColorCorrections" V="1,1,0,3,-21,0.150000005960464,237,45.3288917541504,66.479118347168,-9.59939575195313,9.18455505371094,-80.8738861083984,19.1261138916016,25.9748382568359,0,0,0,0;1,1,0,-1.5,-2.5,0,255,130,12,0,4.55426025390625,-95.2941207885742,4.70587921142578,18.2099227905273,0,0,0,0;1,1,0,0,-12,0.5,255,225.91796875,36.1078147888184,-5.1807861328125,1.47015380859375,-85.8400726318359,14.1599273681641,20.3872756958008,0,0,0,0;1,1,0,3,-23.1000022888184,0,58.8606338500977,208,10.4000005722046,-33.7201843261719,32.3572998046875,-95,5,23.2739639282227,0,0,0,0;1,1,0,3,-27,0.330000013113022,22.6761436462402,216,177.109222412109,-4.34454345703125,5.92352294921875,-89.5017852783203,10.4982147216797,28.4633140563965,0,0,0,0;1,1,0,-1.5,-17.7000007629395,-1.25,61.345775604248,87.8979263305664,165,-14.3739013671875,22.6552124023438,-62.820743560791,37.179256439209,27.3963947296143,0,0,0,0;1,1,0,0,-39.9999961853027,0.944999992847443,104,0,148,-12.1621704101563,2.99188232421875,-100,0,26.3488998413086,0,0,0,0;1,1,0,6,-24.5,0.230000004172325,235,50.884838104248,191.595169067383,-6.26992797851563,5.4552001953125,-78.3468780517578,21.6531219482422,20.9790744781494,0,0,0,0;1,1,2,2.36563158035278,-15.9744558334351,0,174,139,97,0,25,-42.1264381408691,25.6254768371582,25,0,0,0,0" />
	<E K="Contrast" V="0" />
	<E K="FilmGrainAmount" V="25" />
	<E K="FilmGrainDensity" V="0" />
	<E K="FilmGrainGranularity" V="50" />
	<E K="FilmGrainType" V="2" />
	<E K="GradationCurve" V="0,0.0470589995384216;0.180391997098923,0.180391997098923;0.364706009626389,0.36862701177597;0.494118005037308,0.494118005037308;0.615685999393463,0.623529016971588;0.737254977226257,0.749019980430603;0.878431022167206,0.874509990215302;1,0.97647100687027" />
	<E K="GradationCurveBlue" V="0,0.011765000410378;0.180391997098923,0.152941003441811;0.364706009626389,0.321568995714188;0.494118005037308,0.51764702796936;0.615685999393463,0.682353019714355;0.737254977226257,0.807843029499054;0.878431022167206,0.917647004127502;1,1" />
	<E K="GradationCurveGreen" V="0,0;0.180391997098923,0.137254998087883;0.364706009626389,0.313726007938385;0.494118005037308,0.521569013595581;0.615685999393463,0.67058801651001;0.737254977226257,0.788235008716583;0.878431022167206,0.894118010997772;1,0.984314024448395" />
	<E K="GradationCurveRed" V="0,0;0.180391997098923,0.129411995410919;0.364706009626389,0.290196001529694;0.494118005037308,0.490195989608765;0.615685999393463,0.65490198135376;0.737254977226257,0.784313976764679;0.878431022167206,0.901961028575897;1,0.996078014373779" />
	<E K="GradationCurveY" V="0,0;0.200000002980232,0.209999993443489;0.400000005960464,0.386999994516373;0.600000023841858,0.572000026702881;0.800000011920929,0.772000014781952;1,1" />
	<E K="Highlight" V="1;1;1;1" />
	<E K="HighlightRecovery" V="20" />
	<E K="Midtone" V="0;0;0;0.010950000025332" />
	<E K="Name" V="Kodak Gold 200 +++" />
	<E K="Saturation" V="-10" />
	<E K="ShadowRecovery" V="16" />
	<E K="StyleSource" V="Styles" />
	<E K="TargetHighlight" V="1;1;1;0.950290024280548" />
	<E K="UsmAmount" V="0" />
	<E K="UsmRadius" V="1" />
	<E K="UUID" V="2283CBC1-54B8-414E-83DB-B2C90BCD0BFF" />
</SL>
