styles/Kodak/Kodak Elite 50 II - -.costyle
<?xml version="1.0"?>
<SL Engine="900">
	<E K="Clarity" V="0" />
	<E K="ClarityMethod" V="2" />
	<E K="ClarityStructure" V="0" />
	<E K="ColorBalanceHighlight" V="1;1;1" />
	<E K="ColorBalanceMidtone" V="1;1;1" />
	<E K="ColorBalanceShadow" V="0.962499976158142;0.962499976158142;0.962499976158142" />
	<E K="ColorCorrections" V="1,1,0,2.40000009536743,-9,-0.600000023841858,237,45.3288917541504,66.479118347168,-9.59939575195313,9.18455505371094,-80.8738861083984,19.1261138916016,25.9748382568359,0,0,0,0;1,1,0,1.5,0,-0.439999997615814,255,130,12,0,4.55426025390625,-95.2941207885742,4.70587921142578,18.2099227905273,0,0,0,0;1,1,0,0,0,0,255,225.91796875,36.1078147888184,-5.1807861328125,1.47015380859375,-85.8400726318359,14.1599273681641,20.3872756958008,0,0,0,0;1,1,0,4.5,0,-0.25,58.8606338500977,208,10.4000005722046,-33.7201843261719,32.3572998046875,-95,5,23.2739639282227,0,0,0,0;1,1,0,0,0,-0.28999999165535,22.6761436462402,216,177.109222412109,-4.34454345703125,5.92352294921875,-89.5017852783203,10.4982147216797,28.4633140563965,0,0,0,0;1,1,0,3,0,-0.600000023841858,61.345775604248,87.8979263305664,165,-14.3739013671875,22.6552124023438,-62.820743560791,37.179256439209,27.3963947296143,0,0,0,0;1,1,0,0,-10,-0.349999994039536,104,0,148,-12.1621704101563,2.99188232421875,-100,0,26.3488998413086,0,0,0,0;1,1,0,0,-7,0,235,50.884838104248,191.595169067383,-6.26992797851563,5.4552001953125,-78.3468780517578,21.6531219482422,20.9790744781494,0,0,0,0;1,1,2,2.36563158035278,-15.9744558334351,0,174,139,97,0,25,-42.1264381408691,25.6254768371582,25,0,0,0,0" />
	<E K="Contrast" V="0" />
	<E K="FilmGrainAmount" V="0" />
	<E K="FilmGrainDensity" V="0" />
	<E K="FilmGrainGranularity" V="50" />
	<E K="FilmGrainType" V="1" />
	<E K="GradationCurve" V="0,0;0.0941179990768433,0.101961001753807;0.482353001832962,0.478430986404419;0.733332991600037,0.725489974021912;1,1" />
	<E K="GradationCurveBlue" V="0,0;0.105881996452808,0.0745100006461143;0.227450996637344,0.184313997626305;0.364706009626389,0.36862701177597;0.50196099281311,0.560783982276917;0.63137298822403,0.709803998470306;0.756862998008728,0.819607973098755;0.878431022167206,0.913725018501282;1,1" />
	<E K="GradationCurveGreen" V="0,0;0.105881996452808,0.0666669979691505;0.227450996637344,0.172548994421959;0.364706009626389,0.360783994197845;0.50196099281311,0.560783982276917;0.63137298822403,0.709803998470306;0.756862998008728,0.823529005050659;0.878431022167206,0.913725018501282;1,1" />
	<E K="GradationCurveRed" V="0,0;0.105881996452808,0.0549019984900951;0.227450996637344,0.160784006118774;0.364706009626389,0.356862992048264;0.50196099281311,0.560783982276917;0.63137298822403,0.701960980892181;0.756862998008728,0.807843029499054;0.878431022167206,0.901961028575897;1,1" />
	<E K="GradationCurveY" V="0,0;0.200000002980232,0.224999994039536;0.400000005960464,0.402500003576279;0.600000023841858,0.578999996185303;0.800000011920929,0.778999984264374;1,1" />
	<E K="Highlight" V="1;1;1;1" />
	<E K="HighlightRecovery" V="15" />
	<E K="Midtone" V="0;0;0;0.0146000003442168" />
	<E K="Name" V="Kodak Elite 50 II - -" />
	<E K="Saturation" V="-10" />
	<E K="ShadowRecovery" V="20" />
	<E K="StyleSource" V="Styles" />
	<E K="TargetHighlight" V="1;1;1;0.933719992637634" />
	<E K="UsmAmount" V="25" />
	<E K="UsmRadius" V="1" />
	<E K="UUID" V="A9D984C6-B125-4E06-980D-90E53D98E273" />
</SL>
