styles/Kodak/Kodak Royal Gold 400 +.costyle
<?xml version="1.0"?>
<SL Engine="900">
	<E K="Clarity" V="-5" />
	<E K="ClarityMethod" V="2" />
	<E K="ClarityStructure" V="-1.66666698455811" />
	<E K="ColorBalanceHighlight" V="1;1;1" />
	<E K="ColorBalanceMidtone" V="1;1;1" />
	<E K="ColorBalanceShadow" V="1;1;1" />
	<E K="ColorCorrections" V="1,1,0,0,-12,-0.5,237,45.3288917541504,66.479118347168,-9.59939575195313,9.18455505371094,-80.8738861083984,19.1261138916016,25.9748382568359,0,0,0,0;1,1,0,0.600000023841858,-5,-0.219999998807907,255,130,12,0,4.55426025390625,-95.2941207885742,4.70587921142578,18.2099227905273,0,0,0,0;1,1,0,1.5,-12,0.5,255,225.91796875,36.1078147888184,-5.1807861328125,1.47015380859375,-85.8400726318359,14.1599273681641,20.3872756958008,0,0,0,0;1,1,0,0,-23.1000022888184,0.280000001192093,58.8606338500977,208,10.4000005722046,-33.7201843261719,32.3572998046875,-95,5,23.2739639282227,0,0,0,0;1,1,0,3,-21.5999984741211,0.495000004768372,22.6761436462402,216,177.109222412109,-4.34454345703125,5.92352294921875,-89.5017852783203,10.4982147216797,28.4633140563965,0,0,0,0;1,1,0,0,-11.7999992370605,-0.75,61.345775604248,87.8979263305664,165,-14.3739013671875,22.6552124023438,-62.820743560791,37.179256439209,27.3963947296143,0,0,0,0;1,1,0,0,-45,1.25999999046326,104,0,148,-12.1621704101563,2.99188232421875,-100,0,26.3488998413086,0,0,0,0;1,1,0,6,-24.5,0.46000000834465,235,50.884838104248,191.595169067383,-6.26992797851563,5.4552001953125,-78.3468780517578,21.6531219482422,20.9790744781494,0,0,0,0;1,1,2,2.36563158035278,-15.9744558334351,0,174,139,97,0,25,-42.1264381408691,25.6254768371582,25,0,0,0,0" />
	<E K="Contrast" V="0" />
	<E K="FilmGrainAmount" V="25" />
	<E K="FilmGrainDensity" V="0" />
	<E K="FilmGrainGranularity" V="50" />
	<E K="FilmGrainType" V="4" />
	<E K="GradationCurve" V="0,0.0156859997659922;0.258823990821838,0.207843005657196;0.388235002756119,0.36862701177597;0.505882024765015,0.49803900718689;0.615685999393463,0.619607985019684;0.737254977226257,0.745097994804382;0.886274993419647,0.878431022167206;1,0.972549021244049" />
	<E K="GradationCurveBlue" V="0,0.0156859997659922;0.258823990821838,0.243137001991272;0.388235002756119,0.372548997402191;0.505882024765015,0.549019992351532;0.615685999393463,0.686275005340576;0.737254977226257,0.80392199754715;0.886274993419647,0.921568989753723;1,1" />
	<E K="GradationCurveGreen" V="0,0.011765000410378;0.258823990821838,0.231372997164726;0.388235002756119,0.360783994197845;0.505882024765015,0.533333003520966;0.615685999393463,0.67451000213623;0.737254977226257,0.796078026294708;0.886274993419647,0.917647004127502;1,1" />
	<E K="GradationCurveRed" V="0,0;0.258823990821838,0.219607993960381;0.388235002756119,0.356862992048264;0.505882024765015,0.525489985942841;0.615685999393463,0.666666984558105;0.737254977226257,0.788235008716583;0.886274993419647,0.913725018501282;1,1" />
	<E K="GradationCurveY" V="0,0;0.200000002980232,0.207499995827675;0.400000005960464,0.380250006914139;0.600000023841858,0.564999997615814;0.800000011920929,0.764999985694885;1,1" />
	<E K="Highlight" V="1;1;1;1" />
	<E K="HighlightRecovery" V="25" />
	<E K="Midtone" V="0;0;0;0.010950000025332" />
	<E K="Name" V="Kodak Royal Gold 400 +" />
	<E K="Saturation" V="0" />
	<E K="ShadowRecovery" V="28" />
	<E K="StyleSource" V="Styles" />
	<E K="TargetHighlight" V="1;1;1;0.950290024280548" />
	<E K="UsmAmount" V="0" />
	<E K="UsmRadius" V="1" />
	<E K="UUID" V="C1907747-509A-46CA-8235-3709F23BA3F7" />
</SL>
