styles/Kodak/Kodak E100VS Landscape.costyle
<?xml version="1.0"?>
<SL Engine="900">
	<E K="Clarity" V="0" />
	<E K="ClarityMethod" V="2" />
	<E K="ClarityStructure" V="0" />
	<E K="ColorBalanceHighlight" V="1.02564096450806;1.02564096450806;1.02564096450806" />
	<E K="ColorBalanceMidtone" V="1.05263197422028;1.05263197422028;1.05263197422028" />
	<E K="ColorBalanceShadow" V="0.939999997615814;0.939999997615814;0.939999997615814" />
	<E K="ColorCorrections" V="1,1,0,2.40000009536743,-12,-1.5,237,45.3288917541504,66.479118347168,-9.59939575195313,9.18455505371094,-80.8738861083984,19.1261138916016,25.9748382568359,0,0,0,0;1,1,0,1.5,0,-0.879999995231628,255,130,12,0,4.55426025390625,-95.2941207885742,4.70587921142578,18.2099227905273,0,0,0,0;1,1,0,-1.5,0,-0.300000011920929,255,225.91796875,36.1078147888184,-5.1807861328125,1.47015380859375,-85.8400726318359,14.1599273681641,20.3872756958008,0,0,0,0;1,1,0,7.5,-33,-2,58.8606338500977,208,10.4000005722046,-33.7201843261719,32.3572998046875,-95,5,23.2739639282227,0,0,0,0;1,1,0,0,0,-1.1599999666214,22.6761436462402,216,177.109222412109,-4.34454345703125,5.92352294921875,-89.5017852783203,10.4982147216797,28.4633140563965,0,0,0,0;1,1,0,1.5,2.5,-1.5,61.345775604248,87.8979263305664,165,-14.3739013671875,22.6552124023438,-62.820743560791,37.179256439209,27.3963947296143,0,0,0,0;1,1,0,0,0,-0.699999988079071,104,0,148,-12.1621704101563,2.99188232421875,-100,0,26.3488998413086,0,0,0,0;1,1,0,0,-14,-1.20000004768372,235,50.884838104248,191.595169067383,-6.26992797851563,5.4552001953125,-78.3468780517578,21.6531219482422,20.9790744781494,0,0,0,0;1,1,2,2.36563158035278,-15.9744558334351,0,174,139,97,0,25,-42.1264381408691,25.6254768371582,25,0,0,0,0" />
	<E K="Contrast" V="0" />
	<E K="FilmGrainAmount" V="25" />
	<E K="FilmGrainDensity" V="0" />
	<E K="FilmGrainGranularity" V="50" />
	<E K="FilmGrainType" V="2" />
	<E K="GradationCurve" V="0,0;0.125489994883537,0.121569000184536;0.254902005195618,0.247059002518654;0.384314000606537,0.372548997402191;0.513725996017456,0.49803900718689;0.639216005802155,0.619607985019684;0.768626987934113,0.745097994804382;0.898038983345032,0.878431022167206;1,0.988234996795654" />
	<E K="GradationCurveBlue" V="0,0;0.125489994883537,0.058823999017477;0.254902005195618,0.160784006118774;0.384314000606537,0.372548997402191;0.513725996017456,0.596077978610992;0.639216005802155,0.768626987934113;0.768626987934113,0.890196025371552;0.898038983345032,0.960784018039703;1,1" />
	<E K="GradationCurveGreen" V="0,0;0.125489994883537,0.0549019984900951;0.254902005195618,0.141176000237465;0.384314000606537,0.333332985639572;0.513725996017456,0.560783982276917;0.639216005802155,0.733332991600037;0.768626987934113,0.862744987010956;0.898038983345032,0.945097982883453;1,0.996078014373779" />
	<E K="GradationCurveRed" V="0,0;0.125489994883537,0.0549019984900951;0.254902005195618,0.152941003441811;0.384314000606537,0.360783994197845;0.513725996017456,0.584313988685608;0.639216005802155,0.752941012382507;0.768626987934113,0.870588004589081;0.898038983345032,0.949020028114319;1,1" />
	<E K="GradationCurveY" V="0,0;0.200000002980232,0.212500005960464;0.400000005960464,0.398750007152557;0.600000023841858,0.586000025272369;0.800000011920929,0.78600001335144;1,1" />
	<E K="Highlight" V="1;1;1;1" />
	<E K="HighlightRecovery" V="10" />
	<E K="Name" V="Kodak E100VS Landscape" />
	<E K="Saturation" V="10" />
	<E K="ShadowRecovery" V="12" />
	<E K="StyleSource" V="Styles" />
	<E K="TargetHighlight" V="1;1;1;1" />
	<E K="UsmAmount" V="40" />
	<E K="UsmRadius" V="1.20000004768372" />
	<E K="UUID" V="DB6A5B76-FE84-47EF-B8AD-A1D3C8EE8E3A" />
</SL>
