styles/Polaroid/Polaroid 690 Cold +.costyle
<?xml version="1.0"?>
<SL Engine="900">
	<E K="Clarity" V="-10" />
	<E K="ClarityMethod" V="2" />
	<E K="ClarityStructure" V="-3.33333301544189" />
	<E K="ColorBalanceHighlight" V="1;1;1" />
	<E K="ColorBalanceMidtone" V="1;1;1" />
	<E K="ColorBalanceShadow" V="1;1;1" />
	<E K="ColorCorrections" V="1,1,0,-3,0,-1.75,237,45.3288917541504,66.479118347168,-9.59939575195313,9.18455505371094,-80.8738861083984,19.1261138916016,25.9748382568359,0,0,0,0;1,1,0,0,-3,0,255,130,12,0,4.55426025390625,-95.2941207885742,4.70587921142578,18.2099227905273,0,0,0,0;1,1,0,0,1.5,-0.300000011920929,255,225.91796875,36.1078147888184,-5.1807861328125,1.47015380859375,-85.8400726318359,14.1599273681641,20.3872756958008,0,0,0,0;1,1,0,-1.5,-6.6000018119812,-1.25,58.8606338500977,208,10.4000005722046,-33.7201843261719,32.3572998046875,-95,5,23.2739639282227,0,0,0,0;1,1,0,0,-13.5,-0.28999999165535,22.6761436462402,216,177.109222412109,-4.34454345703125,5.92352294921875,-89.5017852783203,10.4982147216797,28.4633140563965,0,0,0,0;1,1,0,0,-11.7999992370605,-1.25,61.345775604248,87.8979263305664,165,-14.3739013671875,22.6552124023438,-62.820743560791,37.179256439209,27.3963947296143,0,0,0,0;1,1,0,0,-15,0.629999995231628,104,0,148,-12.1621704101563,2.99188232421875,-100,0,26.3488998413086,0,0,0,0;1,1,0,4.5,-14,-1.60000002384186,235,50.884838104248,191.595169067383,-6.26992797851563,5.4552001953125,-78.3468780517578,21.6531219482422,20.9790744781494,0,0,0,0;1,1,2,2.36563158035278,-15.9744558334351,0,174,139,97,0,25,-42.1264381408691,25.6254768371582,25,0,0,0,0" />
	<E K="Contrast" V="0" />
	<E K="FilmGrainAmount" V="10" />
	<E K="FilmGrainDensity" V="0" />
	<E K="FilmGrainGranularity" V="50" />
	<E K="FilmGrainType" V="5" />
	<E K="GradationCurve" V="0,0.0666669979691505;0.101961001753807,0.184313997626305;0.356862992048264,0.352941006422043;0.494118005037308,0.49803900718689;0.623529016971588,0.619607985019684;0.756862998008728,0.745097994804382;0.894118010997772,0.874509990215302;1,0.97647100687027" />
	<E K="GradationCurveBlue" V="0,0.0352940000593662;0.101961001753807,0.0784310027956963;0.356862992048264,0.372548997402191;0.494118005037308,0.564706027507782;0.623529016971588,0.737254977226257;0.756862998008728,0.866666972637177;0.894118010997772,0.956862986087799;1,1" />
	<E K="GradationCurveGreen" V="0,0.0313730016350746;0.101961001753807,0.0784310027956963;0.356862992048264,0.32548999786377;0.494118005037308,0.505882024765015;0.623529016971588,0.682353019714355;0.756862998008728,0.800000011920929;0.894118010997772,0.909803986549377;1,1" />
	<E K="GradationCurveRed" V="0,0;0.101961001753807,0.0313730016350746;0.356862992048264,0.294117987155914;0.494118005037308,0.494118005037308;0.623529016971588,0.67058801651001;0.756862998008728,0.807843029499054;0.894118010997772,0.917647004127502;1,0.97647100687027" />
	<E K="GradationCurveY" V="0,0;0.200000002980232,0.200000002980232;0.400000005960464,0.395000010728836;0.600000023841858,0.592999994754791;0.800000011920929,0.792999982833862;1,1" />
	<E K="Highlight" V="1;1;1;1" />
	<E K="HighlightRecovery" V="5" />
	<E K="Midtone" V="0;0;0;0.00365000008605421" />
	<E K="Name" V="Polaroid 690 Cold +" />
	<E K="Saturation" V="-8" />
	<E K="ShadowRecovery" V="12" />
	<E K="StyleSource" V="Styles" />
	<E K="TargetHighlight" V="1;1;1;0.983430027961731" />
	<E K="UsmAmount" V="0" />
	<E K="UsmRadius" V="1.20000004768372" />
	<E K="UUID" V="D9066641-B41D-40F2-8452-2856E28E1B3D" />
</SL>
