styles/Polaroid/Polaroid 690 ++.costyle
<?xml version="1.0"?>
<SL Engine="900">
	<E K="Clarity" V="-10" />
	<E K="ClarityMethod" V="2" />
	<E K="ClarityStructure" V="-3.33333301544189" />
	<E K="ColorBalanceHighlight" V="1;1;1" />
	<E K="ColorBalanceMidtone" V="1;1;1" />
	<E K="ColorBalanceShadow" V="1;1;1" />
	<E K="ColorCorrections" V="1,1,0,-3,0,-1.75,237,45.3288917541504,66.479118347168,-9.59939575195313,9.18455505371094,-80.8738861083984,19.1261138916016,25.9748382568359,0,0,0,0;1,1,0,0,-3,0,255,130,12,0,4.55426025390625,-95.2941207885742,4.70587921142578,18.2099227905273,0,0,0,0;1,1,0,0,1.5,-0.300000011920929,255,225.91796875,36.1078147888184,-5.1807861328125,1.47015380859375,-85.8400726318359,14.1599273681641,20.3872756958008,0,0,0,0;1,1,0,-1.5,-6.6000018119812,-1.25,58.8606338500977,208,10.4000005722046,-33.7201843261719,32.3572998046875,-95,5,23.2739639282227,0,0,0,0;1,1,0,0,-13.5,-0.28999999165535,22.6761436462402,216,177.109222412109,-4.34454345703125,5.92352294921875,-89.5017852783203,10.4982147216797,28.4633140563965,0,0,0,0;1,1,0,0,-11.7999992370605,-1.25,61.345775604248,87.8979263305664,165,-14.3739013671875,22.6552124023438,-62.820743560791,37.179256439209,27.3963947296143,0,0,0,0;1,1,0,0,-15,0.629999995231628,104,0,148,-12.1621704101563,2.99188232421875,-100,0,26.3488998413086,0,0,0,0;1,1,0,4.5,-14,-1.60000002384186,235,50.884838104248,191.595169067383,-6.26992797851563,5.4552001953125,-78.3468780517578,21.6531219482422,20.9790744781494,0,0,0,0;1,1,2,2.36563158035278,-15.9744558334351,0,174,139,97,0,25,-42.1264381408691,25.6254768371582,25,0,0,0,0" />
	<E K="Contrast" V="0" />
	<E K="FilmGrainAmount" V="10" />
	<E K="FilmGrainDensity" V="0" />
	<E K="FilmGrainGranularity" V="50" />
	<E K="FilmGrainType" V="5" />
	<E K="GradationCurve" V="0,0.117646999657154;0.286274999380112,0.32548999786377;0.490195989608765,0.49803900718689;0.627451002597809,0.619607985019684;0.756862998008728,0.745097994804382;0.886274993419647,0.874509990215302;1,0.984314024448395" />
	<E K="GradationCurveBlue" V="0,0;0.286274999380112,0.274509996175766;0.490195989608765,0.525489985942841;0.627451002597809,0.717647016048431;0.756862998008728,0.85097998380661;0.886274993419647,0.917647004127502;1,0.949020028114319" />
	<E K="GradationCurveGreen" V="0,0.0196080002933741;0.286274999380112,0.294117987155914;0.490195989608765,0.51764702796936;0.627451002597809,0.686275005340576;0.756862998008728,0.800000011920929;0.886274993419647,0.901961028575897;1,1" />
	<E K="GradationCurveRed" V="0,0.0274509992450476;0.286274999380112,0.321568995714188;0.490195989608765,0.549019992351532;0.627451002597809,0.717647016048431;0.756862998008728,0.84313702583313;0.886274993419647,0.929412007331848;1,0.980391979217529" />
	<E K="GradationCurveY" V="0,0;0.200000002980232,0.200000002980232;0.400000005960464,0.395000010728836;0.600000023841858,0.592999994754791;0.800000011920929,0.792999982833862;1,1" />
	<E K="Highlight" V="1;1;1;1" />
	<E K="HighlightRecovery" V="5" />
	<E K="Midtone" V="0;0;0;0.00365000008605421" />
	<E K="Name" V="Polaroid 690 ++" />
	<E K="Saturation" V="-8" />
	<E K="ShadowRecovery" V="12" />
	<E K="StyleSource" V="Styles" />
	<E K="TargetHighlight" V="1;1;1;0.983430027961731" />
	<E K="UsmAmount" V="0" />
	<E K="UsmRadius" V="1.20000004768372" />
	<E K="UUID" V="F1012A4D-C5EE-4F53-AA6A-AD8023581F2E" />
</SL>
