styles/Polaroid/Polaroid 669 -.costyle
<?xml version="1.0"?>
<SL Engine="900">
	<E K="Clarity" V="-5" />
	<E K="ClarityMethod" V="2" />
	<E K="ClarityStructure" V="-1.66666698455811" />
	<E K="ColorBalanceHighlight" V="1;1;1" />
	<E K="ColorBalanceMidtone" V="1;1;1" />
	<E K="ColorBalanceShadow" V="1;1;1" />
	<E K="ColorCorrections" V="1,1,0,3,-9,-1,237,45.3288917541504,66.479118347168,-9.59939575195313,9.18455505371094,-80.8738861083984,19.1261138916016,25.9748382568359,0,0,0,0;1,1,0,0,-7.5,-0.439999997615814,255,130,12,0,4.55426025390625,-95.2941207885742,4.70587921142578,18.2099227905273,0,0,0,0;1,1,0,-3,0,-1.04999995231628,255,225.91796875,36.1078147888184,-5.1807861328125,1.47015380859375,-85.8400726318359,14.1599273681641,20.3872756958008,0,0,0,0;1,1,0,-1.5,-13.2000007629395,-2,58.8606338500977,208,10.4000005722046,-33.7201843261719,32.3572998046875,-95,5,23.2739639282227,0,0,0,0;1,1,0,-4.5,-5.40000200271606,-0.28999999165535,22.6761436462402,216,177.109222412109,-4.34454345703125,5.92352294921875,-89.5017852783203,10.4982147216797,28.4633140563965,0,0,0,0;1,1,0,-9,-17.7000007629395,-0.75,61.345775604248,87.8979263305664,165,-14.3739013671875,22.6552124023438,-62.820743560791,37.179256439209,27.3963947296143,0,0,0,0;1,1,0,0,-45,1.25999999046326,104,0,148,-12.1621704101563,2.99188232421875,-100,0,26.3488998413086,0,0,0,0;1,1,0,4.5,-28,0.46000000834465,235,50.884838104248,191.595169067383,-6.26992797851563,5.4552001953125,-78.3468780517578,21.6531219482422,20.9790744781494,0,0,0,0;1,1,2,2.36563158035278,-15.9744558334351,0,174,139,97,0,25,-42.1264381408691,25.6254768371582,25,0,0,0,0" />
	<E K="Contrast" V="0" />
	<E K="FilmGrainAmount" V="25" />
	<E K="FilmGrainDensity" V="0" />
	<E K="FilmGrainGranularity" V="50" />
	<E K="FilmGrainType" V="5" />
	<E K="GradationCurve" V="0,0.0470589995384216;0.192157000303268,0.203922003507614;0.360783994197845,0.372548997402191;0.474510014057159,0.494118005037308;0.592157006263733,0.619607985019684;0.721569001674652,0.745097994804382;0.858824014663696,0.870588004589081;1,1" />
	<E K="GradationCurveBlue" V="0,0.0156859997659922;0.192157000303268,0.184313997626305;0.360783994197845,0.341176003217697;0.474510014057159,0.494118005037308;0.592157006263733,0.643136978149414;0.721569001674652,0.780391991138458;0.858824014663696,0.882353007793427;1,0.949020028114319" />
	<E K="GradationCurveGreen" V="0,0.011765000410378;0.192157000303268,0.176470994949341;0.360783994197845,0.341176003217697;0.474510014057159,0.50196099281311;0.592157006263733,0.65490198135376;0.721569001674652,0.796078026294708;0.858824014663696,0.909803986549377;1,1" />
	<E K="GradationCurveRed" V="0,0;0.192157000303268,0.160784006118774;0.360783994197845,0.317647010087967;0.474510014057159,0.482353001832962;0.592157006263733,0.63137298822403;0.721569001674652,0.768626987934113;0.858824014663696,0.878431022167206;1,0.964706003665924" />
	<E K="GradationCurveY" V="0,0;0.200000002980232,0.200000002980232;0.400000005960464,0.389999985694885;0.600000023841858,0.586000025272369;0.800000011920929,0.78600001335144;1,1" />
	<E K="Highlight" V="1;1;1;1" />
	<E K="HighlightRecovery" V="10" />
	<E K="Midtone" V="0;0;0;0.00365000008605421" />
	<E K="Name" V="Polaroid 669 -" />
	<E K="Saturation" V="-15" />
	<E K="ShadowRecovery" V="20" />
	<E K="StyleSource" V="Styles" />
	<E K="TargetHighlight" V="1;1;1;0.983430027961731" />
	<E K="UsmAmount" V="15" />
	<E K="UsmRadius" V="1.20000004768372" />
	<E K="UUID" V="9C262C70-E249-42EC-8DB4-5246F2FD3D79" />
</SL>
