styles/Polaroid/Polaroid 690 Warm - -.costyle
<?xml version="1.0"?>
<SL Engine="900">
	<E K="Clarity" V="0" />
	<E K="ClarityMethod" V="2" />
	<E K="ClarityStructure" V="0" />
	<E K="ColorBalanceHighlight" V="1;1;1" />
	<E K="ColorBalanceMidtone" V="1;1;1" />
	<E K="ColorBalanceShadow" V="1;1;1" />
	<E K="ColorCorrections" V="1,1,0,-3,0,-1.75,237,45.3288917541504,66.479118347168,-9.59939575195313,9.18455505371094,-80.8738861083984,19.1261138916016,25.9748382568359,0,0,0,0;1,1,0,0,-3,0,255,130,12,0,4.55426025390625,-95.2941207885742,4.70587921142578,18.2099227905273,0,0,0,0;1,1,0,0,1.5,-0.300000011920929,255,225.91796875,36.1078147888184,-5.1807861328125,1.47015380859375,-85.8400726318359,14.1599273681641,20.3872756958008,0,0,0,0;1,1,0,-1.5,-6.6000018119812,-1.25,58.8606338500977,208,10.4000005722046,-33.7201843261719,32.3572998046875,-95,5,23.2739639282227,0,0,0,0;1,1,0,0,-13.5,-0.28999999165535,22.6761436462402,216,177.109222412109,-4.34454345703125,5.92352294921875,-89.5017852783203,10.4982147216797,28.4633140563965,0,0,0,0;1,1,0,0,-11.7999992370605,-1.25,61.345775604248,87.8979263305664,165,-14.3739013671875,22.6552124023438,-62.820743560791,37.179256439209,27.3963947296143,0,0,0,0;1,1,0,0,-15,0.629999995231628,104,0,148,-12.1621704101563,2.99188232421875,-100,0,26.3488998413086,0,0,0,0;1,1,0,4.5,-14,-1.60000002384186,235,50.884838104248,191.595169067383,-6.26992797851563,5.4552001953125,-78.3468780517578,21.6531219482422,20.9790744781494,0,0,0,0;1,1,2,2.36563158035278,-15.9744558334351,0,174,139,97,0,25,-42.1264381408691,25.6254768371582,25,0,0,0,0" />
	<E K="Contrast" V="0" />
	<E K="FilmGrainAmount" V="0" />
	<E K="FilmGrainDensity" V="0" />
	<E K="FilmGrainGranularity" V="50" />
	<E K="FilmGrainType" V="5" />
	<E K="GradationCurve" V="0,0;0.0901959985494614,0.101961001753807;0.192157000303268,0.227450996637344;0.32548999786377,0.36862701177597;0.490195989608765,0.49803900718689;0.650979995727539,0.623529016971588;0.784313976764679,0.745097994804382;0.898038983345032,0.874509990215302;1,1" />
	<E K="GradationCurveBlue" V="0,0;0.0901959985494614,0.0313730016350746;0.192157000303268,0.0941179990768433;0.32548999786377,0.258823990821838;0.490195989608765,0.509804010391235;0.650979995727539,0.721569001674652;0.784313976764679,0.866666972637177;0.898038983345032,0.949020028114319;1,1" />
	<E K="GradationCurveGreen" V="0,0;0.0901959985494614,0.0352940000593662;0.192157000303268,0.101961001753807;0.32548999786377,0.266667008399963;0.490195989608765,0.50196099281311;0.650979995727539,0.701960980892181;0.784313976764679,0.84313702583313;0.898038983345032,0.933332979679108;1,1" />
	<E K="GradationCurveRed" V="0,0;0.0901959985494614,0.0431369990110397;0.192157000303268,0.121569000184536;0.32548999786377,0.294117987155914;0.490195989608765,0.525489985942841;0.650979995727539,0.729412019252777;0.784313976764679,0.870588004589081;0.898038983345032,0.952941000461578;1,1" />
	<E K="GradationCurveY" V="0,0;0.200000002980232,0.212500005960464;0.400000005960464,0.398750007152557;0.600000023841858,0.586000025272369;0.800000011920929,0.78600001335144;1,1" />
	<E K="Highlight" V="1;1;1;1" />
	<E K="HighlightRecovery" V="10" />
	<E K="Midtone" V="0;0;0;0.00365000008605421" />
	<E K="Name" V="Polaroid 690 Warm - -" />
	<E K="Saturation" V="0" />
	<E K="ShadowRecovery" V="20" />
	<E K="StyleSource" V="Styles" />
	<E K="TargetHighlight" V="1;1;1;0.983430027961731" />
	<E K="UsmAmount" V="25" />
	<E K="UsmRadius" V="1.20000004768372" />
	<E K="UUID" V="B0675D06-5D0A-4105-B976-2C48B82DBBB0" />
</SL>
