styles/Polaroid/Polaroid 690 Cold -.costyle
<?xml version="1.0"?>
<SL Engine="900">
	<E K="Clarity" V="-10" />
	<E K="ClarityMethod" V="2" />
	<E K="ClarityStructure" V="-3.33333301544189" />
	<E K="ColorBalanceHighlight" V="1;1;1" />
	<E K="ColorBalanceMidtone" V="1;1;1" />
	<E K="ColorBalanceShadow" V="1;1;1" />
	<E K="ColorCorrections" V="1,1,0,-3,0,-1.75,237,45.3288917541504,66.479118347168,-9.59939575195313,9.18455505371094,-80.8738861083984,19.1261138916016,25.9748382568359,0,0,0,0;1,1,0,0,-3,0,255,130,12,0,4.55426025390625,-95.2941207885742,4.70587921142578,18.2099227905273,0,0,0,0;1,1,0,0,1.5,-0.300000011920929,255,225.91796875,36.1078147888184,-5.1807861328125,1.47015380859375,-85.8400726318359,14.1599273681641,20.3872756958008,0,0,0,0;1,1,0,-1.5,-6.6000018119812,-1.25,58.8606338500977,208,10.4000005722046,-33.7201843261719,32.3572998046875,-95,5,23.2739639282227,0,0,0,0;1,1,0,0,-13.5,-0.28999999165535,22.6761436462402,216,177.109222412109,-4.34454345703125,5.92352294921875,-89.5017852783203,10.4982147216797,28.4633140563965,0,0,0,0;1,1,0,0,-11.7999992370605,-1.25,61.345775604248,87.8979263305664,165,-14.3739013671875,22.6552124023438,-62.820743560791,37.179256439209,27.3963947296143,0,0,0,0;1,1,0,0,-15,0.629999995231628,104,0,148,-12.1621704101563,2.99188232421875,-100,0,26.3488998413086,0,0,0,0;1,1,0,4.5,-14,-1.60000002384186,235,50.884838104248,191.595169067383,-6.26992797851563,5.4552001953125,-78.3468780517578,21.6531219482422,20.9790744781494,0,0,0,0;1,1,2,2.36563158035278,-15.9744558334351,0,174,139,97,0,25,-42.1264381408691,25.6254768371582,25,0,0,0,0" />
	<E K="Contrast" V="0" />
	<E K="FilmGrainAmount" V="8" />
	<E K="FilmGrainDensity" V="0" />
	<E K="FilmGrainGranularity" V="50" />
	<E K="FilmGrainType" V="5" />
	<E K="GradationCurve" V="0,0.00392200006172061;0.172548994421959,0.192157000303268;0.333332985639572,0.372548997402191;0.494118005037308,0.49803900718689;0.63137298822403,0.619607985019684;0.760783970355988,0.749019980430603;0.882353007793427,0.874509990215302;1,1" />
	<E K="GradationCurveBlue" V="0,0.0156859997659922;0.172548994421959,0.149020001292229;0.333332985639572,0.32548999786377;0.494118005037308,0.560783982276917;0.63137298822403,0.741176009178162;0.760783970355988,0.874509990215302;0.882353007793427,0.945097982883453;1,0.988234996795654" />
	<E K="GradationCurveGreen" V="0,0.0235290005803108;0.172548994421959,0.141176000237465;0.333332985639572,0.278430998325348;0.494118005037308,0.505882024765015;0.63137298822403,0.690195977687836;0.760783970355988,0.800000011920929;0.882353007793427,0.890196025371552;1,1" />
	<E K="GradationCurveRed" V="0,0;0.172548994421959,0.105881996452808;0.333332985639572,0.266667008399963;0.494118005037308,0.505882024765015;0.63137298822403,0.682353019714355;0.760783970355988,0.807843029499054;0.882353007793427,0.905882000923157;1,0.992156982421875" />
	<E K="GradationCurveY" V="0,0;0.200000002980232,0.200000002980232;0.400000005960464,0.395000010728836;0.600000023841858,0.592999994754791;0.800000011920929,0.792999982833862;1,1" />
	<E K="Highlight" V="1;1;1;1" />
	<E K="HighlightRecovery" V="5" />
	<E K="Midtone" V="0;0;0;0.00365000008605421" />
	<E K="Name" V="Polaroid 690 Cold -" />
	<E K="Saturation" V="-5" />
	<E K="ShadowRecovery" V="12" />
	<E K="StyleSource" V="Styles" />
	<E K="TargetHighlight" V="1;1;1;0.983430027961731" />
	<E K="UsmAmount" V="0" />
	<E K="UsmRadius" V="1.20000004768372" />
	<E K="UUID" V="A648364F-C6C5-40B1-BA47-556D5D8D8603" />
</SL>
