styles/Polaroid/Polaroid 690 Cold - -.costyle
<?xml version="1.0"?>
<SL Engine="900">
	<E K="Clarity" V="0" />
	<E K="ClarityMethod" V="2" />
	<E K="ClarityStructure" V="0" />
	<E K="ColorBalanceHighlight" V="1;1;1" />
	<E K="ColorBalanceMidtone" V="1;1;1" />
	<E K="ColorBalanceShadow" V="1;1;1" />
	<E K="ColorCorrections" V="1,1,0,-3,0,-1.75,237,45.3288917541504,66.479118347168,-9.59939575195313,9.18455505371094,-80.8738861083984,19.1261138916016,25.9748382568359,0,0,0,0;1,1,0,0,-3,0,255,130,12,0,4.55426025390625,-95.2941207885742,4.70587921142578,18.2099227905273,0,0,0,0;1,1,0,0,1.5,-0.300000011920929,255,225.91796875,36.1078147888184,-5.1807861328125,1.47015380859375,-85.8400726318359,14.1599273681641,20.3872756958008,0,0,0,0;1,1,0,-1.5,-6.6000018119812,-1.25,58.8606338500977,208,10.4000005722046,-33.7201843261719,32.3572998046875,-95,5,23.2739639282227,0,0,0,0;1,1,0,0,-13.5,-0.28999999165535,22.6761436462402,216,177.109222412109,-4.34454345703125,5.92352294921875,-89.5017852783203,10.4982147216797,28.4633140563965,0,0,0,0;1,1,0,0,-11.7999992370605,-1.25,61.345775604248,87.8979263305664,165,-14.3739013671875,22.6552124023438,-62.820743560791,37.179256439209,27.3963947296143,0,0,0,0;1,1,0,0,-15,0.629999995231628,104,0,148,-12.1621704101563,2.99188232421875,-100,0,26.3488998413086,0,0,0,0;1,1,0,4.5,-14,-1.60000002384186,235,50.884838104248,191.595169067383,-6.26992797851563,5.4552001953125,-78.3468780517578,21.6531219482422,20.9790744781494,0,0,0,0;1,1,2,2.36563158035278,-15.9744558334351,0,174,139,97,0,25,-42.1264381408691,25.6254768371582,25,0,0,0,0" />
	<E K="Contrast" V="0" />
	<E K="FilmGrainAmount" V="0" />
	<E K="FilmGrainDensity" V="0" />
	<E K="FilmGrainGranularity" V="50" />
	<E K="FilmGrainType" V="5" />
	<E K="GradationCurve" V="0,0;0.0862749963998795,0.101961001753807;0.184313997626305,0.227450996637344;0.313726007938385,0.364706009626389;0.490195989608765,0.49803900718689;0.639216005802155,0.619607985019684;0.768626987934113,0.745097994804382;0.886274993419647,0.870588004589081;1,0.996078014373779" />
	<E K="GradationCurveBlue" V="0,0;0.0862749963998795,0.0431369990110397;0.184313997626305,0.125489994883537;0.313726007938385,0.305882006883621;0.490195989608765,0.556863009929657;0.639216005802155,0.749019980430603;0.768626987934113,0.882353007793427;0.886274993419647,0.952941000461578;1,1" />
	<E K="GradationCurveGreen" V="0,0;0.0862749963998795,0.0509800016880035;0.184313997626305,0.121569000184536;0.313726007938385,0.258823990821838;0.490195989608765,0.50196099281311;0.639216005802155,0.698038995265961;0.768626987934113,0.807843029499054;0.886274993419647,0.894118010997772;1,1" />
	<E K="GradationCurveRed" V="0,0;0.0862749963998795,0.0313730016350746;0.184313997626305,0.0901959985494614;0.313726007938385,0.250979989767075;0.490195989608765,0.50196099281311;0.639216005802155,0.686275005340576;0.768626987934113,0.815685987472534;0.886274993419647,0.909803986549377;1,1" />
	<E K="GradationCurveY" V="0,0;0.200000002980232,0.212500005960464;0.400000005960464,0.403750002384186;0.600000023841858,0.592999994754791;0.800000011920929,0.792999982833862;1,1" />
	<E K="Highlight" V="1;1;1;1" />
	<E K="HighlightRecovery" V="5" />
	<E K="Midtone" V="0;0;0;0.00365000008605421" />
	<E K="Name" V="Polaroid 690 Cold - -" />
	<E K="Saturation" V="0" />
	<E K="ShadowRecovery" V="12" />
	<E K="StyleSource" V="Styles" />
	<E K="TargetHighlight" V="1;1;1;0.983430027961731" />
	<E K="UsmAmount" V="25" />
	<E K="UsmRadius" V="1.20000004768372" />
	<E K="UUID" V="2A58FF9F-8BB8-4747-9F9F-60A34E2B46C7" />
</SL>
