styles/Polaroid/Polaroid 669.costyle
<?xml version="1.0"?>
<SL Engine="900">
	<E K="Clarity" V="-10" />
	<E K="ClarityMethod" V="2" />
	<E K="ClarityStructure" V="-3.33333301544189" />
	<E K="ColorBalanceHighlight" V="1;1;1" />
	<E K="ColorBalanceMidtone" V="1;1;1" />
	<E K="ColorBalanceShadow" V="1;1;1" />
	<E K="ColorCorrections" V="1,1,0,3,-9,-1,237,45.3288917541504,66.479118347168,-9.59939575195313,9.18455505371094,-80.8738861083984,19.1261138916016,25.9748382568359,0,0,0,0;1,1,0,-0.599997997283936,-7.5,-0.439999997615814,255,130,12,0,4.55426025390625,-95.2941207885742,4.70587921142578,18.2099227905273,0,0,0,0;1,1,0,-3,0,-1.04999995231628,255,225.91796875,36.1078147888184,-5.1807861328125,1.47015380859375,-85.8400726318359,14.1599273681641,20.3872756958008,0,0,0,0;1,1,0,-1.5,-13.2000007629395,-2,58.8606338500977,208,10.4000005722046,-33.7201843261719,32.3572998046875,-95,5,23.2739639282227,0,0,0,0;1,1,0,-4.5,-5.40000200271606,-0.28999999165535,22.6761436462402,216,177.109222412109,-4.34454345703125,5.92352294921875,-89.5017852783203,10.4982147216797,28.4633140563965,0,0,0,0;1,1,0,-9,-17.7000007629395,-0.75,61.345775604248,87.8979263305664,165,-14.3739013671875,22.6552124023438,-62.820743560791,37.179256439209,27.3963947296143,0,0,0,0;1,1,0,0,-45,1.25999999046326,104,0,148,-12.1621704101563,2.99188232421875,-100,0,26.3488998413086,0,0,0,0;1,1,0,4.5,-28,0.46000000834465,235,50.884838104248,191.595169067383,-6.26992797851563,5.4552001953125,-78.3468780517578,21.6531219482422,20.9790744781494,0,0,0,0;1,1,2,2.36563158035278,-15.9744558334351,0,174,139,97,0,25,-42.1264381408691,25.6254768371582,25,0,0,0,0" />
	<E K="Contrast" V="0" />
	<E K="FilmGrainAmount" V="25" />
	<E K="FilmGrainDensity" V="0" />
	<E K="FilmGrainGranularity" V="50" />
	<E K="FilmGrainType" V="5" />
	<E K="GradationCurve" V="0,0.0392160005867481;0.180391997098923,0.200000002980232;0.341176003217697,0.372548997402191;0.478430986404419,0.49803900718689;0.607842981815338,0.623529016971588;0.737254977226257,0.745097994804382;0.866666972637177,0.870588004589081;1,1" />
	<E K="GradationCurveBlue" V="0,0.011765000410378;0.180391997098923,0.168626993894577;0.341176003217697,0.32548999786377;0.478430986404419,0.513725996017456;0.607842981815338,0.682353019714355;0.737254977226257,0.815685987472534;0.866666972637177,0.894118010997772;1,0.949020028114319" />
	<E K="GradationCurveGreen" V="0,0.0235290005803108;0.180391997098923,0.176470994949341;0.341176003217697,0.305882006883621;0.478430986404419,0.474510014057159;0.607842981815338,0.650979995727539;0.737254977226257,0.807843029499054;0.866666972637177,0.925490021705627;1,1" />
	<E K="GradationCurveRed" V="0,0;0.180391997098923,0.149020001292229;0.341176003217697,0.298038989305496;0.478430986404419,0.478430986404419;0.607842981815338,0.635294020175934;0.737254977226257,0.772548973560333;0.866666972637177,0.886274993419647;1,0.964706003665924" />
	<E K="GradationCurveY" V="0,0;0.200000002980232,0.200000002980232;0.400000005960464,0.392500013113022;0.600000023841858,0.58950001001358;0.800000011920929,0.789499998092651;1,1" />
	<E K="Highlight" V="1;1;1;1" />
	<E K="HighlightRecovery" V="7.5" />
	<E K="Name" V="Polaroid 669" />
	<E K="Saturation" V="-15" />
	<E K="ShadowRecovery" V="20" />
	<E K="StyleSource" V="Styles" />
	<E K="TargetHighlight" V="1;1;1;1" />
	<E K="UsmAmount" V="15" />
	<E K="UsmRadius" V="1.20000004768372" />
	<E K="UUID" V="369940C6-1081-410F-9CDB-9091775589EC" />
</SL>
