styles/Polaroid/Time-Zero Polaroid (Expired) - - -.costyle
<?xml version="1.0"?>
<SL Engine="900">
	<E K="Clarity" V="0" />
	<E K="ClarityMethod" V="2" />
	<E K="ClarityStructure" V="0" />
	<E K="ColorBalanceHighlight" V="1;1;1" />
	<E K="ColorBalanceMidtone" V="1;1;1" />
	<E K="ColorBalanceShadow" V="1;1;1" />
	<E K="ColorCorrections" V="1,1,0,-3,-21,-0.5,237,45.3288917541504,66.479118347168,-9.59939575195313,9.18455505371094,-80.8738861083984,19.1261138916016,25.9748382568359,0,0,0,0;1,1,0,3.59999990463257,-12.5,-0.439999997615814,255,130,12,0,4.55426025390625,-95.2941207885742,4.70587921142578,18.2099227905273,0,0,0,0;1,1,0,0,-28,0.5,255,225.91796875,36.1078147888184,-5.1807861328125,1.47015380859375,-85.8400726318359,14.1599273681641,20.3872756958008,0,0,0,0;1,1,0,-6,0,-0.5,58.8606338500977,208,10.4000005722046,-33.7201843261719,32.3572998046875,-95,5,23.2739639282227,0,0,0,0;1,1,0,-4.5,-27,-0.28999999165535,22.6761436462402,216,177.109222412109,-4.34454345703125,5.92352294921875,-89.5017852783203,10.4982147216797,28.4633140563965,0,0,0,0;1,1,0,15,-23.5999984741211,0.699999988079071,61.345775604248,87.8979263305664,165,-14.3739013671875,22.6552124023438,-62.820743560791,37.179256439209,27.3963947296143,0,0,0,0;1,1,0,-9,-30,1.88999998569489,104,0,148,-12.1621704101563,2.99188232421875,-100,0,26.3488998413086,0,0,0,0;1,1,0,-16.2000007629395,-23.7999992370605,-0.800000011920929,235,50.884838104248,191.595169067383,-6.26992797851563,5.4552001953125,-78.3468780517578,21.6531219482422,20.9790744781494,0,0,0,0;1,1,2,2.36563158035278,-15.9744558334351,0,174,139,97,0,25,-42.1264381408691,25.6254768371582,25,0,0,0,0" />
	<E K="Contrast" V="0" />
	<E K="FilmGrainAmount" V="0" />
	<E K="FilmGrainDensity" V="0" />
	<E K="FilmGrainGranularity" V="50" />
	<E K="FilmGrainType" V="5" />
	<E K="GradationCurve" V="0,0.011765000410378;0.0509800016880035,0.0823530033230782;0.156863003969193,0.215685993432999;0.274509996175766,0.360783994197845;0.407842993736267,0.494118005037308;0.560783982276917,0.619607985019684;0.725489974021912,0.749019980430603;0.882353007793427,0.874509990215302;1,0.972549021244049" />
	<E K="GradationCurveBlue" V="0,0;0.0509800016880035,0.0196080002933741;0.156863003969193,0.0823530033230782;0.274509996175766,0.168626993894577;0.407842993736267,0.313726007938385;0.560783982276917,0.50196099281311;0.725489974021912,0.705882012844086;0.882353007793427,0.874509990215302;1,0.97647100687027" />
	<E K="GradationCurveGreen" V="0,0.00392200006172061;0.0509800016880035,0.0274509992450476;0.156863003969193,0.121569000184536;0.274509996175766,0.26274499297142;0.407842993736267,0.431373000144958;0.560783982276917,0.600000023841858;0.725489974021912,0.756862998008728;0.882353007793427,0.886274993419647;1,0.980391979217529" />
	<E K="GradationCurveRed" V="0,0.0274509992450476;0.0509800016880035,0.058823999017477;0.156863003969193,0.164706006646156;0.274509996175766,0.32548999786377;0.407842993736267,0.50196099281311;0.560783982276917,0.65490198135376;0.725489974021912,0.796078026294708;0.882353007793427,0.909803986549377;1,0.996078014373779" />
	<E K="GradationCurveY" V="0,0;0.200000002980232,0.200000002980232;0.400000005960464,0.395000010728836;0.600000023841858,0.592999994754791;0.800000011920929,0.792999982833862;1,1" />
	<E K="Highlight" V="1;1;1;1" />
	<E K="HighlightRecovery" V="5" />
	<E K="Name" V="Time-Zero Polaroid (Expired) - - -" />
	<E K="Saturation" V="-5" />
	<E K="ShadowRecovery" V="12" />
	<E K="StyleSource" V="Styles" />
	<E K="TargetHighlight" V="1;1;1;1" />
	<E K="UsmAmount" V="25" />
	<E K="UsmRadius" V="1.20000004768372" />
	<E K="UUID" V="94B69CEE-B6E9-4FE6-AD82-3D27A0FE00A8" />
</SL>
