styles/Ilford/Ilford Pan F Plus 50 +.costyle
<?xml version="1.0"?>
<SL Engine="900">
	<E K="BwBlue" V="-10" />
	<E K="BwCyan" V="0" />
	<E K="BwDarkHue" V="341.411987304688" />
	<E K="BwDarkSaturation" V="0" />
	<E K="BwEnabled" V="1" />
	<E K="BwGreen" V="-30" />
	<E K="BwLightHue" V="341.411987304688" />
	<E K="BwLightSaturation" V="0" />
	<E K="BwMagenta" V="20" />
	<E K="BwRed" V="0" />
	<E K="BwYellow" V="-5" />
	<E K="Clarity" V="0" />
	<E K="ClarityMethod" V="2" />
	<E K="ClarityStructure" V="0" />
	<E K="ColorBalanceHighlight" V="0.975000023841858;0.975000023841858;0.975000023841858" />
	<E K="ColorBalanceMidtone" V="1.12676095962524;1.12676095962524;1.12676095962524" />
	<E K="ColorBalanceShadow" V="0.887499988079071;0.887499988079071;0.887499988079071" />
	<E K="ColorCorrections" V="1,1,2,2.36563158035278,-15.9744558334351,0,174,139,97,0,25,-42.1264381408691,25.6254768371582,25,0,0,0,0" />
	<E K="Contrast" V="0" />
	<E K="FilmGrainAmount" V="25" />
	<E K="FilmGrainDensity" V="0" />
	<E K="FilmGrainGranularity" V="50" />
	<E K="FilmGrainType" V="1" />
	<E K="GradationCurve" V="0,0.0705880001187325;0.137254998087883,0.156863003969193;0.400000005960464,0.384314000606537;0.752941012382507,0.733332991600037;1,1" />
	<E K="GradationCurveBlue" V="0,0;1,1" />
	<E K="GradationCurveGreen" V="0,0;1,1" />
	<E K="GradationCurveRed" V="0,0;1,1" />
	<E K="GradationCurveY" V="0,0;0.200000002980232,0.200000002980232;0.400000005960464,0.389999985694885;0.600000023841858,0.586000025272369;0.800000011920929,0.78600001335144;1,1" />
	<E K="Highlight" V="1;1;1;1" />
	<E K="HighlightRecovery" V="10" />
	<E K="Midtone" V="0;0;0;0.00365000008605421" />
	<E K="Name" V="Ilford Pan F Plus 50 +" />
	<E K="ShadowRecovery" V="8" />
	<E K="StyleSource" V="Styles" />
	<E K="TargetHighlight" V="1;1;1;0.983430027961731" />
	<E K="UsmAmount" V="25" />
	<E K="UsmRadius" V="1.5" />
	<E K="UUID" V="03C89431-E236-4A51-8C2D-AE530C0F1FD0" />
</SL>
