styles/Fuji/Fuji Velvia 100F -.costyle
<?xml version="1.0"?>
<SL Engine="900">
	<E K="Clarity" V="0" />
	<E K="ClarityMethod" V="2" />
	<E K="ClarityStructure" V="0" />
	<E K="ColorBalanceHighlight" V="1;1;1" />
	<E K="ColorBalanceMidtone" V="1.03626894950867;1.03626894950867;1.03626894950867" />
	<E K="ColorBalanceShadow" V="0.920000016689301;0.920000016689301;0.920000016689301" />
	<E K="ColorCorrections" V="1,1,0,3,-3,-1,237,45.3288917541504,66.479118347168,-9.59939575195313,9.18455505371094,-80.8738861083984,19.1261138916016,25.9748382568359,0,0,0,0;1,1,0,0.600000023841858,0,-0.439999997615814,255,130,12,0,4.55426025390625,-95.2941207885742,4.70587921142578,18.2099227905273,0,0,0,0;1,1,0,-3,0,-0.449999988079071,255,225.91796875,36.1078147888184,-5.1807861328125,1.47015380859375,-85.8400726318359,14.1599273681641,20.3872756958008,0,0,0,0;1,1,0,0,-6.6000018119812,-0.5,58.8606338500977,208,10.4000005722046,-33.7201843261719,32.3572998046875,-95,5,23.2739639282227,0,0,0,0;1,1,0,1.5,0,-0.28999999165535,22.6761436462402,216,177.109222412109,-4.34454345703125,5.92352294921875,-89.5017852783203,10.4982147216797,28.4633140563965,0,0,0,0;1,1,0,3.59999990463257,2.5,-0.75,61.345775604248,87.8979263305664,165,-14.3739013671875,22.6552124023438,-62.820743560791,37.179256439209,27.3963947296143,0,0,0,0;1,1,0,4.19999980926514,0,0,104,0,148,-12.1621704101563,2.99188232421875,-100,0,26.3488998413086,0,0,0,0;1,1,0,4.5,-21,-2,235,50.884838104248,191.595169067383,-6.26992797851563,5.4552001953125,-78.3468780517578,21.6531219482422,20.9790744781494,0,0,0,0;1,1,2,2.36563158035278,-15.9744558334351,0,174,139,97,0,25,-42.1264381408691,25.6254768371582,25,0,0,0,0" />
	<E K="Contrast" V="0" />
	<E K="FilmGrainAmount" V="10" />
	<E K="FilmGrainDensity" V="0" />
	<E K="FilmGrainGranularity" V="50" />
	<E K="FilmGrainType" V="2" />
	<E K="GradationCurve" V="0,0;0.176470994949341,0.180391997098923;0.50196099281311,0.50196099281311;1,1" />
	<E K="GradationCurveBlue" V="0,0;0.113724999129772,0.0705880001187325;0.23921599984169,0.188234999775887;0.36862701177597,0.372548997402191;0.49803900718689,0.564706027507782;0.627451002597809,0.725489974021912;0.752941012382507,0.847059011459351;0.874509990215302,0.929412007331848;1,1" />
	<E K="GradationCurveGreen" V="0,0;0.113724999129772,0.0705880001187325;0.23921599984169,0.176470994949341;0.36862701177597,0.349020004272461;0.49803900718689,0.541176021099091;0.627451002597809,0.717647016048431;0.752941012382507,0.847059011459351;0.874509990215302,0.929412007331848;1,1" />
	<E K="GradationCurveRed" V="0,0;0.113724999129772,0.0705880001187325;0.23921599984169,0.184313997626305;0.36862701177597,0.356862992048264;0.49803900718689,0.545098006725311;0.627451002597809,0.709803998470306;0.752941012382507,0.839215993881226;0.874509990215302,0.925490021705627;1,1" />
	<E K="GradationCurveY" V="0,0;0.200000002980232,0.212500005960464;0.400000005960464,0.396250009536743;0.600000023841858,0.582499980926514;0.800000011920929,0.782500028610229;1,1" />
	<E K="Highlight" V="1;1;1;1" />
	<E K="HighlightRecovery" V="12.5" />
	<E K="Name" V="Fuji Velvia 100F -" />
	<E K="Saturation" V="5" />
	<E K="ShadowRecovery" V="16" />
	<E K="StyleSource" V="Styles" />
	<E K="TargetHighlight" V="1;1;1;1" />
	<E K="UsmAmount" V="40" />
	<E K="UsmRadius" V="1.20000004768372" />
	<E K="UUID" V="D9A45E2F-0F50-444C-B424-D7A563F01B9B" />
</SL>
