styles/Fuji/Fuji Velvia 100 +++.costyle
<?xml version="1.0"?>
<SL Engine="900">
	<E K="Clarity" V="0" />
	<E K="ClarityMethod" V="2" />
	<E K="ClarityStructure" V="0" />
	<E K="ColorBalanceHighlight" V="1.02564096450806;1.01807904243469;0.98461502790451" />
	<E K="ColorBalanceMidtone" V="1.01265799999237;0.995859980583191;0.921518981456757" />
	<E K="ColorBalanceShadow" V="0.975000023841858;0.975000023841858;0.975000023841858" />
	<E K="ColorCorrections" V="1,1,0,3.59999990463257,-6,-1,237,45.3288917541504,66.479118347168,-9.59939575195313,9.18455505371094,-80.8738861083984,19.1261138916016,25.9748382568359,0,0,0,0;1,1,0,-1.5,-2.5,-0.439999997615814,255,130,12,0,4.55426025390625,-95.2941207885742,4.70587921142578,18.2099227905273,0,0,0,0;1,1,0,1.5,0,0,255,225.91796875,36.1078147888184,-5.1807861328125,1.47015380859375,-85.8400726318359,14.1599273681641,20.3872756958008,0,0,0,0;1,1,0,3,-6.6000018119812,-0.75,58.8606338500977,208,10.4000005722046,-33.7201843261719,32.3572998046875,-95,5,23.2739639282227,0,0,0,0;1,1,0,3,0,-0.870000004768372,22.6761436462402,216,177.109222412109,-4.34454345703125,5.92352294921875,-89.5017852783203,10.4982147216797,28.4633140563965,0,0,0,0;1,1,0,6,0,-1,61.345775604248,87.8979263305664,165,-14.3739013671875,22.6552124023438,-62.820743560791,37.179256439209,27.3963947296143,0,0,0,0;1,1,0,9,-10,-0.699999988079071,104,0,148,-12.1621704101563,2.99188232421875,-100,0,26.3488998413086,0,0,0,0;1,1,0,4.5,-10.5,-1.20000004768372,235,50.884838104248,191.595169067383,-6.26992797851563,5.4552001953125,-78.3468780517578,21.6531219482422,20.9790744781494,0,0,0,0;1,1,2,2.36563158035278,-15.9744558334351,0,174,139,97,0,25,-42.1264381408691,25.6254768371582,25,0,0,0,0" />
	<E K="Contrast" V="0" />
	<E K="FilmGrainAmount" V="20" />
	<E K="FilmGrainDensity" V="0" />
	<E K="FilmGrainGranularity" V="50" />
	<E K="FilmGrainType" V="2" />
	<E K="GradationCurve" V="0,0.0196080002933741;0.235293999314308,0.207843005657196;0.376471012830734,0.372548997402191;0.49803900718689,0.49803900718689;0.619607985019684,0.619607985019684;0.745097994804382,0.745097994804382;0.870588004589081,0.870588004589081;1,1" />
	<E K="GradationCurveBlue" V="0,0.00784299988299608;0.235293999314308,0.227450996637344;0.376471012830734,0.41176500916481;0.49803900718689,0.600000023841858;0.619607985019684,0.729412019252777;0.745097994804382,0.819607973098755;0.870588004589081,0.882353007793427;1,0.937255024909973" />
	<E K="GradationCurveGreen" V="0,0;0.235293999314308,0.180391997098923;0.376471012830734,0.32548999786377;0.49803900718689,0.521569013595581;0.619607985019684,0.686275005340576;0.745097994804382,0.823529005050659;0.870588004589081,0.921568989753723;1,1" />
	<E K="GradationCurveRed" V="0,0.0235290005803108;0.235293999314308,0.231372997164726;0.376471012830734,0.360783994197845;0.49803900718689,0.529411971569061;0.619607985019684,0.686275005340576;0.745097994804382,0.815685987472534;0.870588004589081,0.913725018501282;1,1" />
	<E K="GradationCurveY" V="0,0;0.200000002980232,0.204999998211861;0.400000005960464,0.395999997854233;0.600000023841858,0.58950001001358;0.800000011920929,0.789499998092651;1,1" />
	<E K="Highlight" V="1;1;1;1" />
	<E K="HighlightRecovery" V="7.5" />
	<E K="Name" V="Fuji Velvia 100 +++" />
	<E K="Saturation" V="5" />
	<E K="ShadowRecovery" V="12" />
	<E K="StyleSource" V="Styles" />
	<E K="TargetHighlight" V="1;1;1;1" />
	<E K="UsmAmount" V="40" />
	<E K="UsmRadius" V="1.20000004768372" />
	<E K="UUID" V="9C92213C-A3AB-4E28-9A7E-12B54C1F7C5B" />
</SL>
