styles/Fuji/Fuji Superia 400 -.costyle
<?xml version="1.0"?>
<SL Engine="900">
	<E K="Clarity" V="0" />
	<E K="ClarityMethod" V="2" />
	<E K="ClarityStructure" V="0" />
	<E K="ColorBalanceHighlight" V="1;1;1" />
	<E K="ColorBalanceMidtone" V="1.05263197422028;1.05263197422028;1.05263197422028" />
	<E K="ColorBalanceShadow" V="0.922500014305115;0.922500014305115;0.922500014305115" />
	<E K="ColorCorrections" V="1,1,0,6,-6,-0.25,237,45.3288917541504,66.479118347168,-9.59939575195313,9.18455505371094,-80.8738861083984,19.1261138916016,25.9748382568359,0,0,0,0;1,1,0,0,0.439999997615814,-0.527999997138977,255,130,12,0,4.55426025390625,-95.2941207885742,4.70587921142578,18.2099227905273,0,0,0,0;1,1,0,3.59999990463257,-6.40000200271606,0.75,255,225.91796875,36.1078147888184,-5.1807861328125,1.47015380859375,-85.8400726318359,14.1599273681641,20.3872756958008,0,0,0,0;1,1,0,4.5,-36.3000030517578,-0.5,58.8606338500977,208,10.4000005722046,-33.7201843261719,32.3572998046875,-95,5,23.2739639282227,0,0,0,0;1,1,0,0,-24.2999992370605,0,22.6761436462402,216,177.109222412109,-4.34454345703125,5.92352294921875,-89.5017852783203,10.4982147216797,28.4633140563965,0,0,0,0;1,1,0,1.5,-5.90000200271606,-0.75,61.345775604248,87.8979263305664,165,-14.3739013671875,22.6552124023438,-62.820743560791,37.179256439209,27.3963947296143,0,0,0,0;1,1,0,3,-39.9999961853027,0,104,0,148,-12.1621704101563,2.99188232421875,-100,0,26.3488998413086,0,0,0,0;1,1,0,6,-21,0,235,50.884838104248,191.595169067383,-6.26992797851563,5.4552001953125,-78.3468780517578,21.6531219482422,20.9790744781494,0,0,0,0;1,1,2,2.36563158035278,-15.9744558334351,0,174,139,97,0,25,-42.1264381408691,25.6254768371582,25,0,0,0,0" />
	<E K="Contrast" V="0" />
	<E K="FilmGrainAmount" V="15" />
	<E K="FilmGrainDensity" V="0" />
	<E K="FilmGrainGranularity" V="50" />
	<E K="FilmGrainType" V="2" />
	<E K="GradationCurve" V="0,0;0.215685993432999,0.250979989767075;0.486274987459183,0.505882024765015;1,1" />
	<E K="GradationCurveBlue" V="0,0.00784299988299608;0.0941179990768433,0.0627449974417686;0.200000002980232,0.145098000764847;0.329412013292313,0.298038989305496;0.478430986404419,0.50196099281311;0.619607985019684,0.666666984558105;0.749019980430603,0.796078026294708;0.874509990215302,0.898038983345032;1,0.992156982421875" />
	<E K="GradationCurveGreen" V="0,0.00392200006172061;0.0941179990768433,0.0705880001187325;0.200000002980232,0.152941003441811;0.329412013292313,0.309803992509842;0.478430986404419,0.509804010391235;0.619607985019684,0.67451000213623;0.749019980430603,0.800000011920929;0.874509990215302,0.898038983345032;1,0.992156982421875" />
	<E K="GradationCurveRed" V="0,0;0.0941179990768433,0.0549019984900951;0.200000002980232,0.141176000237465;0.329412013292313,0.298038989305496;0.478430986404419,0.50196099281311;0.619607985019684,0.67451000213623;0.749019980430603,0.80392199754715;0.874509990215302,0.901961028575897;1,0.992156982421875" />
	<E K="GradationCurveY" V="0,0;0.200000002980232,0.212500005960464;0.400000005960464,0.401250004768372;0.600000023841858,0.58950001001358;0.800000011920929,0.789499998092651;1,1" />
	<E K="Highlight" V="1;1;1;1" />
	<E K="HighlightRecovery" V="7.5" />
	<E K="Midtone" V="0;0;0;0.00365000008605421" />
	<E K="Name" V="Fuji Superia 400 -" />
	<E K="Saturation" V="-5" />
	<E K="ShadowRecovery" V="20" />
	<E K="StyleSource" V="Styles" />
	<E K="TargetHighlight" V="1;1;1;0.983430027961731" />
	<E K="UsmAmount" V="25" />
	<E K="UsmRadius" V="1" />
	<E K="UUID" V="CDF57D05-F08F-44FE-AD16-BE69285C5E75" />
</SL>
