styles/Fuji/Fuji 800Z.costyle
<?xml version="1.0"?>
<SL Engine="900">
	<E K="Clarity" V="0" />
	<E K="ClarityMethod" V="2" />
	<E K="ClarityStructure" V="0" />
	<E K="ColorBalanceHighlight" V="0.949999988079071;0.949999988079071;0.949999988079071" />
	<E K="ColorBalanceMidtone" V="1.11111104488373;1.11111104488373;1.11111104488373" />
	<E K="ColorBalanceShadow" V="0.912500023841858;0.912500023841858;0.912500023841858" />
	<E K="ColorCorrections" V="1,1,0,0,0,-0.5,237,45.3288917541504,66.479118347168,-9.59939575195313,9.18455505371094,-80.8738861083984,19.1261138916016,25.9748382568359,0,0,0,0;1,1,0,-1.5,-2.5,0,255,130,12,0,4.55426025390625,-95.2941207885742,4.70587921142578,18.2099227905273,0,0,0,0;1,1,0,0,-4,0,255,225.91796875,36.1078147888184,-5.1807861328125,1.47015380859375,-85.8400726318359,14.1599273681641,20.3872756958008,0,0,0,0;1,1,0,-1.5,-16.5,-0.75,58.8606338500977,208,10.4000005722046,-33.7201843261719,32.3572998046875,-95,5,23.2739639282227,0,0,0,0;1,1,0,-6,-21.5999984741211,0,22.6761436462402,216,177.109222412109,-4.34454345703125,5.92352294921875,-89.5017852783203,10.4982147216797,28.4633140563965,0,0,0,0;1,1,0,1.79999995231628,-8.84999847412109,-0.5,61.345775604248,87.8979263305664,165,-14.3739013671875,22.6552124023438,-62.820743560791,37.179256439209,27.3963947296143,0,0,0,0;1,1,0,0,-5,0,104,0,148,-12.1621704101563,2.99188232421875,-100,0,26.3488998413086,0,0,0,0;1,1,0,0,-17.5,0,235,50.884838104248,191.595169067383,-6.26992797851563,5.4552001953125,-78.3468780517578,21.6531219482422,20.9790744781494,0,0,0,0;1,1,2,2.36563158035278,-15.9744558334351,0,174,139,97,0,25,-42.1264381408691,25.6254768371582,25,0,0,0,0" />
	<E K="Contrast" V="0" />
	<E K="FilmGrainAmount" V="40" />
	<E K="FilmGrainDensity" V="0" />
	<E K="FilmGrainGranularity" V="50" />
	<E K="FilmGrainType" V="2" />
	<E K="GradationCurve" V="0,0.0235290005803108;0.0509800016880035,0.0823530033230782;0.192157000303268,0.235293999314308;0.333332985639572,0.372548997402191;0.470587998628616,0.494118005037308;0.611765027046204,0.623529016971588;0.749019980430603,0.745097994804382;0.890196025371552,0.870588004589081;1,0.972549021244049" />
	<E K="GradationCurveBlue" V="0,0.00392200006172061;0.0509800016880035,0.0470589995384216;0.192157000303268,0.176470994949341;0.333332985639572,0.32548999786377;0.470587998628616,0.470587998628616;0.611765027046204,0.611765027046204;0.749019980430603,0.745097994804382;0.890196025371552,0.886274993419647;1,1" />
	<E K="GradationCurveGreen" V="0,0.011765000410378;0.0509800016880035,0.0549019984900951;0.192157000303268,0.188234999775887;0.333332985639572,0.345097988843918;0.470587998628616,0.50196099281311;0.611765027046204,0.643136978149414;0.749019980430603,0.772548973560333;0.890196025371552,0.898038983345032;1,0.992156982421875" />
	<E K="GradationCurveRed" V="0,0;0.0509800016880035,0.0352940000593662;0.192157000303268,0.164706006646156;0.333332985639572,0.32548999786377;0.470587998628616,0.482353001832962;0.611765027046204,0.635294020175934;0.749019980430603,0.768626987934113;0.890196025371552,0.894118010997772;1,0.992156982421875" />
	<E K="GradationCurveY" V="0,0;0.200000002980232,0.200000002980232;0.400000005960464,0.392500013113022;0.600000023841858,0.58950001001358;0.800000011920929,0.789499998092651;1,1" />
	<E K="Highlight" V="1;1;1;1" />
	<E K="HighlightRecovery" V="7.5" />
	<E K="Midtone" V="0;0;0;0.00912499986588955" />
	<E K="Name" V="Fuji 800Z" />
	<E K="Saturation" V="0" />
	<E K="ShadowRecovery" V="12" />
	<E K="StyleSource" V="Styles" />
	<E K="TargetHighlight" V="1;1;1;0.958575010299683" />
	<E K="UsmAmount" V="10" />
	<E K="UsmRadius" V="1" />
	<E K="UUID" V="FFE82F1F-5C81-49F8-B9A5-2ED4528D8139" />
</SL>
