styles/Fuji/Fuji 160S +.costyle
<?xml version="1.0"?>
<SL Engine="900">
	<E K="Clarity" V="0" />
	<E K="ClarityMethod" V="2" />
	<E K="ClarityStructure" V="0" />
	<E K="ColorBalanceHighlight" V="0.987500011920929;0.987500011920929;0.987500011920929" />
	<E K="ColorBalanceMidtone" V="1.06666696071625;1.06666696071625;1.06666696071625" />
	<E K="ColorBalanceShadow" V="1;1;1" />
	<E K="ColorCorrections" V="1,1,0,3,0,-0.75,237,45.3288917541504,66.479118347168,-9.59939575195313,9.18455505371094,-80.8738861083984,19.1261138916016,25.9748382568359,0,0,0,0;1,1,0,0,0,0,255,130,12,0,4.55426025390625,-95.2941207885742,4.70587921142578,18.2099227905273,0,0,0,0;1,1,0,3,0,0.5,255,225.91796875,36.1078147888184,-5.1807861328125,1.47015380859375,-85.8400726318359,14.1599273681641,20.3872756958008,0,0,0,0;1,1,0,4.5,-13.2000007629395,0.280000001192093,58.8606338500977,208,10.4000005722046,-33.7201843261719,32.3572998046875,-95,5,23.2739639282227,0,0,0,0;1,1,0,0,-8.09999847412109,-0.28999999165535,22.6761436462402,216,177.109222412109,-4.34454345703125,5.92352294921875,-89.5017852783203,10.4982147216797,28.4633140563965,0,0,0,0;1,1,0,-4.5,-5.90000200271606,-1,61.345775604248,87.8979263305664,165,-14.3739013671875,22.6552124023438,-62.820743560791,37.179256439209,27.3963947296143,0,0,0,0;1,1,0,0,-25,-0.349999994039536,104,0,148,-12.1621704101563,2.99188232421875,-100,0,26.3488998413086,0,0,0,0;1,1,0,1.5,-3.5,0,235,50.884838104248,191.595169067383,-6.26992797851563,5.4552001953125,-78.3468780517578,21.6531219482422,20.9790744781494,0,0,0,0;1,1,2,2.36563158035278,-15.9744558334351,0,174,139,97,0,25,-42.1264381408691,25.6254768371582,25,0,0,0,0" />
	<E K="Contrast" V="0" />
	<E K="FilmGrainAmount" V="20" />
	<E K="FilmGrainDensity" V="0" />
	<E K="FilmGrainGranularity" V="50" />
	<E K="FilmGrainType" V="2" />
	<E K="GradationCurve" V="0,0.0156859997659922;0.113724999129772,0.113724999129772;0.258823990821838,0.247059002518654;0.384314000606537,0.372548997402191;0.509804010391235,0.494118005037308;0.635294020175934,0.619607985019684;0.760783970355988,0.749019980430603;0.882353007793427,0.874509990215302;1,1" />
	<E K="GradationCurveBlue" V="0,0;0.113724999129772,0.0941179990768433;0.258823990821838,0.211765006184578;0.384314000606537,0.341176003217697;0.509804010391235,0.486274987459183;0.635294020175934,0.627451002597809;0.760783970355988,0.760783970355988;0.882353007793427,0.886274993419647;1,1" />
	<E K="GradationCurveGreen" V="0,0;0.113724999129772,0.0941179990768433;0.258823990821838,0.215685993432999;0.384314000606537,0.352941006422043;0.509804010391235,0.49803900718689;0.635294020175934,0.643136978149414;0.760783970355988,0.780391991138458;0.882353007793427,0.894118010997772;1,1" />
	<E K="GradationCurveRed" V="0,0;0.113724999129772,0.0862749963998795;0.258823990821838,0.203922003507614;0.384314000606537,0.345097988843918;0.509804010391235,0.50196099281311;0.635294020175934,0.650979995727539;0.760783970355988,0.788235008716583;0.882353007793427,0.901961028575897;1,1" />
	<E K="GradationCurveY" V="0,0;0.200000002980232,0.200000002980232;0.400000005960464,0.387499988079071;0.600000023841858,0.582499980926514;0.800000011920929,0.782500028610229;1,1" />
	<E K="Highlight" V="1;1;1;1" />
	<E K="HighlightRecovery" V="12.5" />
	<E K="Midtone" V="0;0;0;0.00365000008605421" />
	<E K="Name" V="Fuji 160S +" />
	<E K="Saturation" V="0" />
	<E K="ShadowRecovery" V="4" />
	<E K="StyleSource" V="Styles" />
	<E K="TargetHighlight" V="1;1;1;0.983430027961731" />
	<E K="UsmAmount" V="15" />
	<E K="UsmRadius" V="1" />
	<E K="UUID" V="FB39B5A2-062B-4F8D-89BA-438FCC201126" />
</SL>
