styles/Fuji/Fuji FP-100c Negative ++ Alt.costyle
<?xml version="1.0"?>
<SL Engine="900">
	<E K="Clarity" V="0" />
	<E K="ClarityMethod" V="2" />
	<E K="ClarityStructure" V="0" />
	<E K="ColorBalanceHighlight" V="1;1;1" />
	<E K="ColorBalanceMidtone" V="1;1;1" />
	<E K="ColorBalanceShadow" V="1;1;1" />
	<E K="ColorCorrections" V="1,1,0,6,-12,0,237,45.3288917541504,66.479118347168,-9.59939575195313,9.18455505371094,-80.8738861083984,19.1261138916016,25.9748382568359,0,0,0,0;1,1,0,0,-5,-0.219999998807907,255,130,12,0,4.55426025390625,-95.2941207885742,4.70587921142578,18.2099227905273,0,0,0,0;1,1,0,0,-8,0,255,225.91796875,36.1078147888184,-5.1807861328125,1.47015380859375,-85.8400726318359,14.1599273681641,20.3872756958008,0,0,0,0;1,1,0,6,-39.5999984741211,-0.75,58.8606338500977,208,10.4000005722046,-33.7201843261719,32.3572998046875,-95,5,23.2739639282227,0,0,0,0;1,1,0,9,-19.4400024414063,-2.3199999332428,22.6761436462402,216,177.109222412109,-4.34454345703125,5.92352294921875,-89.5017852783203,10.4982147216797,28.4633140563965,0,0,0,0;1,1,0,0,0,-2,61.345775604248,87.8979263305664,165,-14.3739013671875,22.6552124023438,-62.820743560791,37.179256439209,27.3963947296143,0,0,0,0;1,1,0,18,-60,1.57500004768372,104,0,148,-12.1621704101563,2.99188232421875,-100,0,26.3488998413086,0,0,0,0;1,1,0,13.8000001907349,-21,1.37999999523163,235,50.884838104248,191.595169067383,-6.26992797851563,5.4552001953125,-78.3468780517578,21.6531219482422,20.9790744781494,0,0,0,0;1,1,2,2.36563158035278,-15.9744558334351,0,174,139,97,0,25,-42.1264381408691,25.6254768371582,25,0,0,0,0" />
	<E K="Contrast" V="0" />
	<E K="FilmGrainAmount" V="10" />
	<E K="FilmGrainDensity" V="0" />
	<E K="FilmGrainGranularity" V="50" />
	<E K="FilmGrainType" V="5" />
	<E K="GradationCurve" V="0,0.0705880001187325;0.129411995410919,0.192157000303268;0.36862701177597,0.36862701177597;0.529411971569061,0.494118005037308;0.65490198135376,0.619607985019684;0.768626987934113,0.745097994804382;0.882353007793427,0.870588004589081;1,0.992156982421875" />
	<E K="GradationCurveBlue" V="0,0.0352940000593662;0.129411995410919,0.152941003441811;0.36862701177597,0.41176500916481;0.529411971569061,0.576470971107483;0.65490198135376,0.662744998931885;0.768626987934113,0.729412019252777;0.882353007793427,0.796078026294708;1,0.870588004589081" />
	<E K="GradationCurveGreen" V="0,0.00392200006172061;0.129411995410919,0.129411995410919;0.36862701177597,0.431373000144958;0.529411971569061,0.643136978149414;0.65490198135376,0.756862998008728;0.768626987934113,0.823529005050659;0.882353007793427,0.882353007793427;1,0.949020028114319" />
	<E K="GradationCurveRed" V="0,0;0.129411995410919,0.10980399698019;0.36862701177597,0.450980007648468;0.529411971569061,0.67843097448349;0.65490198135376,0.784313976764679;0.768626987934113,0.85097998380661;0.882353007793427,0.921568989753723;1,1" />
	<E K="GradationCurveY" V="0,0;0.200000002980232,0.200000002980232;0.400000005960464,0.395000010728836;0.600000023841858,0.592999994754791;0.800000011920929,0.792999982833862;1,1" />
	<E K="Highlight" V="1;1;1;1" />
	<E K="HighlightRecovery" V="5" />
	<E K="Midtone" V="0;0;0;0.00365000008605421" />
	<E K="Name" V="Fuji FP-100c Negative ++ Alt" />
	<E K="Saturation" V="-15" />
	<E K="Shadow" V="0;0;0;0.0189089998602867" />
	<E K="ShadowRecovery" V="8" />
	<E K="StyleSource" V="Styles" />
	<E K="TargetHighlight" V="1;1;1;0.983430027961731" />
	<E K="TargetShadow" V="0;0;0;0" />
	<E K="UsmAmount" V="0" />
	<E K="UsmRadius" V="1" />
	<E K="UUID" V="10E21BD5-8BC5-49D9-BEB4-8DCC0DBBEE96" />
</SL>
