styles/Fuji/Fuji Superia 1600 -.costyle
<?xml version="1.0"?>
<SL Engine="900">
	<E K="Clarity" V="0" />
	<E K="ClarityMethod" V="2" />
	<E K="ClarityStructure" V="0" />
	<E K="ColorBalanceHighlight" V="1;1;1" />
	<E K="ColorBalanceMidtone" V="1.03092801570892;1.03092801570892;1.03092801570892" />
	<E K="ColorBalanceShadow" V="0.8125;0.8125;0.8125" />
	<E K="ColorCorrections" V="1,1,0,7.5,-6,-0.75,237,45.3288917541504,66.479118347168,-9.59939575195313,9.18455505371094,-80.8738861083984,19.1261138916016,25.9748382568359,0,0,0,0;1,1,0,0,-5,0,255,130,12,0,4.55426025390625,-95.2941207885742,4.70587921142578,18.2099227905273,0,0,0,0;1,1,0,6,-8,0.75,255,225.91796875,36.1078147888184,-5.1807861328125,1.47015380859375,-85.8400726318359,14.1599273681641,20.3872756958008,0,0,0,0;1,1,0,6,-26.3999977111816,0,58.8606338500977,208,10.4000005722046,-33.7201843261719,32.3572998046875,-95,5,23.2739639282227,0,0,0,0;1,1,0,0,-18.9000015258789,0.990000009536743,22.6761436462402,216,177.109222412109,-4.34454345703125,5.92352294921875,-89.5017852783203,10.4982147216797,28.4633140563965,0,0,0,0;1,1,0,1.20000004768372,-5.90000200271606,-1,61.345775604248,87.8979263305664,165,-14.3739013671875,22.6552124023438,-62.820743560791,37.179256439209,27.3963947296143,0,0,0,0;1,1,0,3,-35,0,104,0,148,-12.1621704101563,2.99188232421875,-100,0,26.3488998413086,0,0,0,0;1,1,0,7.5,-21,0.46000000834465,235,50.884838104248,191.595169067383,-6.26992797851563,5.4552001953125,-78.3468780517578,21.6531219482422,20.9790744781494,0,0,0,0;1,1,2,2.36563158035278,-15.9744558334351,0,174,139,97,0,25,-42.1264381408691,25.6254768371582,25,0,0,0,0" />
	<E K="Contrast" V="0" />
	<E K="FilmGrainAmount" V="50" />
	<E K="FilmGrainDensity" V="0" />
	<E K="FilmGrainGranularity" V="50" />
	<E K="FilmGrainType" V="1" />
	<E K="GradationCurve" V="0,0.0156859997659922;0.0470589995384216,0.0823530033230782;0.152941003441811,0.215685993432999;0.294117987155914,0.364706009626389;0.454901993274689,0.494118005037308;0.603922009468079,0.619607985019684;0.741176009178162,0.745097994804382;0.870588004589081,0.870588004589081;1,1" />
	<E K="GradationCurveBlue" V="0,0.00784299988299608;0.0470589995384216,0.0313730016350746;0.152941003441811,0.10980399698019;0.294117987155914,0.26274499297142;0.454901993274689,0.462745010852814;0.603922009468079,0.635294020175934;0.741176009178162,0.776471018791199;0.870588004589081,0.890196025371552;1,0.992156982421875" />
	<E K="GradationCurveGreen" V="0,0.00392200006172061;0.0470589995384216,0.0235290005803108;0.152941003441811,0.117646999657154;0.294117987155914,0.274509996175766;0.454901993274689,0.470587998628616;0.603922009468079,0.639216005802155;0.741176009178162,0.776471018791199;0.870588004589081,0.890196025371552;1,0.992156982421875" />
	<E K="GradationCurveRed" V="0,0;0.0470589995384216,0.0196080002933741;0.152941003441811,0.101961001753807;0.294117987155914,0.26274499297142;0.454901993274689,0.478430986404419;0.603922009468079,0.64705902338028;0.741176009178162,0.780391991138458;0.870588004589081,0.890196025371552;1,0.992156982421875" />
	<E K="GradationCurveY" V="0,0;0.200000002980232,0.212500005960464;0.400000005960464,0.403750002384186;0.600000023841858,0.592999994754791;0.800000011920929,0.792999982833862;1,1" />
	<E K="Highlight" V="1;1;1;1" />
	<E K="HighlightRecovery" V="5" />
	<E K="Midtone" V="0;0;0;0.00365000008605421" />
	<E K="Name" V="Fuji Superia 1600 -" />
	<E K="Saturation" V="-5" />
	<E K="ShadowRecovery" V="16" />
	<E K="StyleSource" V="Styles" />
	<E K="TargetHighlight" V="1;1;1;0.983430027961731" />
	<E K="UsmAmount" V="25" />
	<E K="UsmRadius" V="1" />
	<E K="UUID" V="75968A84-D56B-4481-9DE7-E5937C33DAA7" />
</SL>
