styles/Fuji/Fuji Astia 100F ++.costyle
<?xml version="1.0"?>
<SL Engine="900">
	<E K="Clarity" V="0" />
	<E K="ClarityMethod" V="2" />
	<E K="ClarityStructure" V="0" />
	<E K="ColorBalanceHighlight" V="1;1;1" />
	<E K="ColorBalanceMidtone" V="1;1;1" />
	<E K="ColorBalanceShadow" V="1;1;1" />
	<E K="ColorCorrections" V="1,1,0,2.40000009536743,-6,-1,237,45.3288917541504,66.479118347168,-9.59939575195313,9.18455505371094,-80.8738861083984,19.1261138916016,25.9748382568359,0,0,0,0;1,1,0,0.600000023841858,-2.5,0,255,130,12,0,4.55426025390625,-95.2941207885742,4.70587921142578,18.2099227905273,0,0,0,0;1,1,0,0,0,0,255,225.91796875,36.1078147888184,-5.1807861328125,1.47015380859375,-85.8400726318359,14.1599273681641,20.3872756958008,0,0,0,0;1,1,0,5.40000009536743,-19.7999992370605,-0.75,58.8606338500977,208,10.4000005722046,-33.7201843261719,32.3572998046875,-95,5,23.2739639282227,0,0,0,0;1,1,0,0,-8.09999847412109,0,22.6761436462402,216,177.109222412109,-4.34454345703125,5.92352294921875,-89.5017852783203,10.4982147216797,28.4633140563965,0,0,0,0;1,1,0,1.5,0,-0.5,61.345775604248,87.8979263305664,165,-14.3739013671875,22.6552124023438,-62.820743560791,37.179256439209,27.3963947296143,0,0,0,0;1,1,0,9,-10,-0.699999988079071,104,0,148,-12.1621704101563,2.99188232421875,-100,0,26.3488998413086,0,0,0,0;1,1,0,4.5,-14,-2,235,50.884838104248,191.595169067383,-6.26992797851563,5.4552001953125,-78.3468780517578,21.6531219482422,20.9790744781494,0,0,0,0;1,1,2,2.36563158035278,-15.9744558334351,0,174,139,97,0,25,-42.1264381408691,25.6254768371582,25,0,0,0,0" />
	<E K="Contrast" V="0" />
	<E K="FilmGrainAmount" V="25" />
	<E K="FilmGrainDensity" V="0" />
	<E K="FilmGrainGranularity" V="50" />
	<E K="FilmGrainType" V="2" />
	<E K="GradationCurve" V="0,0.0235290005803108;0.0431369990110397,0.0784310027956963;0.227450996637344,0.235293999314308;0.360783994197845,0.372548997402191;0.482353001832962,0.49803900718689;0.607842981815338,0.623529016971588;0.737254977226257,0.749019980430603;0.866666972637177,0.870588004589081;1,1" />
	<E K="GradationCurveBlue" V="0,0;0.0431369990110397,0.0156859997659922;0.227450996637344,0.176470994949341;0.360783994197845,0.341176003217697;0.482353001832962,0.513725996017456;0.607842981815338,0.67451000213623;0.737254977226257,0.80392199754715;0.866666972637177,0.905882000923157;1,1" />
	<E K="GradationCurveGreen" V="0,0;0.0431369990110397,0.0196080002933741;0.227450996637344,0.176470994949341;0.360783994197845,0.321568995714188;0.482353001832962,0.482353001832962;0.607842981815338,0.639216005802155;0.737254977226257,0.776471018791199;0.866666972637177,0.890196025371552;1,1" />
	<E K="GradationCurveRed" V="0,0;0.0431369990110397,0.0156859997659922;0.227450996637344,0.172548994421959;0.360783994197845,0.32548999786377;0.482353001832962,0.490195989608765;0.607842981815338,0.643136978149414;0.737254977226257,0.776471018791199;0.866666972637177,0.890196025371552;1,1" />
	<E K="GradationCurveY" V="0,0;0.200000002980232,0.212500005960464;0.400000005960464,0.396250009536743;0.600000023841858,0.582499980926514;0.800000011920929,0.782500028610229;1,1" />
	<E K="Highlight" V="1;1;1;1" />
	<E K="HighlightRecovery" V="12.5" />
	<E K="Name" V="Fuji Astia 100F ++" />
	<E K="Saturation" V="5" />
	<E K="ShadowRecovery" V="12" />
	<E K="StyleSource" V="Styles" />
	<E K="TargetHighlight" V="1;1;1;1" />
	<E K="UsmAmount" V="75" />
	<E K="UsmRadius" V="1.20000004768372" />
	<E K="UUID" V="EBD982C4-DED2-4D51-A453-EB8531B1AD9B" />
</SL>
