styles/Fuji/Fuji Sensia 100 - -.costyle
<?xml version="1.0"?>
<SL Engine="900">
	<E K="Clarity" V="0" />
	<E K="ClarityMethod" V="2" />
	<E K="ClarityStructure" V="0" />
	<E K="ColorBalanceHighlight" V="1.01265799999237;1.01265799999237;1.01265799999237" />
	<E K="ColorBalanceMidtone" V="1.09589004516602;1.09589004516602;1.09589004516602" />
	<E K="ColorBalanceShadow" V="0.949999988079071;0.949999988079071;0.949999988079071" />
	<E K="ColorCorrections" V="1,1,0,0,-9,-0.5,237,45.3288917541504,66.479118347168,-9.59939575195313,9.18455505371094,-80.8738861083984,19.1261138916016,25.9748382568359,0,0,0,0;1,1,0,0,0,0,255,130,12,0,4.55426025390625,-95.2941207885742,4.70587921142578,18.2099227905273,0,0,0,0;1,1,0,0,-8,0,255,225.91796875,36.1078147888184,-5.1807861328125,1.47015380859375,-85.8400726318359,14.1599273681641,20.3872756958008,0,0,0,0;1,1,0,1.5,-16.5,0,58.8606338500977,208,10.4000005722046,-33.7201843261719,32.3572998046875,-95,5,23.2739639282227,0,0,0,0;1,1,0,0,-5.40000200271606,-0.579999983310699,22.6761436462402,216,177.109222412109,-4.34454345703125,5.92352294921875,-89.5017852783203,10.4982147216797,28.4633140563965,0,0,0,0;1,1,0,-1.5,0,-0.75,61.345775604248,87.8979263305664,165,-14.3739013671875,22.6552124023438,-62.820743560791,37.179256439209,27.3963947296143,0,0,0,0;1,1,0,1.5,0,0,104,0,148,-12.1621704101563,2.99188232421875,-100,0,26.3488998413086,0,0,0,0;1,1,0,0,-7,-0.800000011920929,235,50.884838104248,191.595169067383,-6.26992797851563,5.4552001953125,-78.3468780517578,21.6531219482422,20.9790744781494,0,0,0,0;1,1,2,2.36563158035278,-15.9744558334351,0,174,139,97,0,25,-42.1264381408691,25.6254768371582,25,0,0,0,0" />
	<E K="Contrast" V="0" />
	<E K="FilmGrainAmount" V="15" />
	<E K="FilmGrainDensity" V="0" />
	<E K="FilmGrainGranularity" V="50" />
	<E K="FilmGrainType" V="2" />
	<E K="GradationCurve" V="0,0;0.101961001753807,0.117646999657154;0.282353013753891,0.309803992509842;0.470587998628616,0.470587998628616;0.729412019252777,0.733332991600037;1,1" />
	<E K="GradationCurveBlue" V="0,0;0.0941179990768433,0.0431369990110397;0.211765006184578,0.137254998087883;0.352941006422043,0.290196001529694;0.50196099281311,0.490195989608765;0.623529016971588,0.650979995727539;0.745097994804382,0.792156994342804;0.870588004589081,0.901961028575897;1,1" />
	<E K="GradationCurveGreen" V="0,0;0.0941179990768433,0.0509800016880035;0.211765006184578,0.137254998087883;0.352941006422043,0.298038989305496;0.50196099281311,0.513725996017456;0.623529016971588,0.682353019714355;0.745097994804382,0.815685987472534;0.870588004589081,0.913725018501282;1,1" />
	<E K="GradationCurveRed" V="0,0;0.0941179990768433,0.0470589995384216;0.211765006184578,0.137254998087883;0.352941006422043,0.301961004734039;0.50196099281311,0.509804010391235;0.623529016971588,0.67451000213623;0.745097994804382,0.811765015125275;0.870588004589081,0.913725018501282;1,1" />
	<E K="GradationCurveY" V="0,0;0.200000002980232,0.212500005960464;0.400000005960464,0.401250004768372;0.600000023841858,0.58950001001358;0.800000011920929,0.789499998092651;1,1" />
	<E K="Highlight" V="1;1;1;1" />
	<E K="HighlightRecovery" V="7.5" />
	<E K="Midtone" V="0;0;0;0.00365000008605421" />
	<E K="Name" V="Fuji Sensia 100 - -" />
	<E K="Saturation" V="0" />
	<E K="ShadowRecovery" V="20" />
	<E K="StyleSource" V="Styles" />
	<E K="TargetHighlight" V="1;1;1;0.983430027961731" />
	<E K="UsmAmount" V="25" />
	<E K="UsmRadius" V="1" />
	<E K="UUID" V="C57C963A-A093-47EC-9799-84A23A31E7E8" />
</SL>
