styles/Fuji/Fuji T64 ++.costyle
<?xml version="1.0"?>
<SL Engine="900">
	<E K="Clarity" V="0" />
	<E K="ClarityMethod" V="2" />
	<E K="ClarityStructure" V="0" />
	<E K="ColorBalanceHighlight" V="1;1;1" />
	<E K="ColorBalanceMidtone" V="1.03896105289459;1.03896105289459;1.03896105289459" />
	<E K="ColorBalanceShadow" V="1;1;1" />
	<E K="ColorCorrections" V="1,1,0,-4.5,-18,-1,237,45.3288917541504,66.479118347168,-9.59939575195313,9.18455505371094,-80.8738861083984,19.1261138916016,25.9748382568359,0,0,0,0;1,1,0,-1.5,0,-0.439999997615814,255,130,12,0,4.55426025390625,-95.2941207885742,4.70587921142578,18.2099227905273,0,0,0,0;1,1,0,-3,0,-0.300000011920929,255,225.91796875,36.1078147888184,-5.1807861328125,1.47015380859375,-85.8400726318359,14.1599273681641,20.3872756958008,0,0,0,0;1,1,0,0,0,0,58.8606338500977,208,10.4000005722046,-33.7201843261719,32.3572998046875,-95,5,23.2739639282227,0,0,0,0;1,1,0,0,0,-0.28999999165535,22.6761436462402,216,177.109222412109,-4.34454345703125,5.92352294921875,-89.5017852783203,10.4982147216797,28.4633140563965,0,0,0,0;1,1,0,0,0,-0.75,61.345775604248,87.8979263305664,165,-14.3739013671875,22.6552124023438,-62.820743560791,37.179256439209,27.3963947296143,0,0,0,0;1,1,0,0,0,-1.39999997615814,104,0,148,-12.1621704101563,2.99188232421875,-100,0,26.3488998413086,0,0,0,0;1,1,0,0,0,-1.60000002384186,235,50.884838104248,191.595169067383,-6.26992797851563,5.4552001953125,-78.3468780517578,21.6531219482422,20.9790744781494,0,0,0,0;1,1,2,2.36563158035278,-15.9744558334351,0,174,139,97,0,25,-42.1264381408691,25.6254768371582,25,0,0,0,0" />
	<E K="Contrast" V="0" />
	<E K="FilmGrainAmount" V="25" />
	<E K="FilmGrainDensity" V="0" />
	<E K="FilmGrainGranularity" V="50" />
	<E K="FilmGrainType" V="2" />
	<E K="GradationCurve" V="0,0.0196080002933741;0.23921599984169,0.211765006184578;0.376471012830734,0.372548997402191;0.49803900718689,0.494118005037308;0.623529016971588,0.623529016971588;0.752941012382507,0.749019980430603;0.882353007793427,0.874509990215302;1,0.988234996795654" />
	<E K="GradationCurveBlue" V="0,0;0.23921599984169,0.188234999775887;0.376471012830734,0.329412013292313;0.49803900718689,0.509804010391235;0.623529016971588,0.67843097448349;0.752941012382507,0.819607973098755;0.882353007793427,0.909803986549377;1,0.960784018039703" />
	<E K="GradationCurveGreen" V="0,0.00392200006172061;0.23921599984169,0.19607800245285;0.376471012830734,0.321568995714188;0.49803900718689,0.494118005037308;0.623529016971588,0.662744998931885;0.752941012382507,0.811765015125275;0.882353007793427,0.917647004127502;1,0.996078014373779" />
	<E K="GradationCurveRed" V="0,0.00392200006172061;0.23921599984169,0.188234999775887;0.376471012830734,0.317647010087967;0.49803900718689,0.494118005037308;0.623529016971588,0.666666984558105;0.752941012382507,0.815685987472534;0.882353007793427,0.921568989753723;1,1" />
	<E K="GradationCurveY" V="0,0;0.200000002980232,0.209999993443489;0.400000005960464,0.407000005245209;0.600000023841858,0.600000023841858;0.800000011920929,0.800000011920929;1,1" />
	<E K="Highlight" V="1;1;1;1" />
	<E K="Name" V="Fuji T64 ++" />
	<E K="Saturation" V="0" />
	<E K="StyleSource" V="Styles" />
	<E K="TargetHighlight" V="1;1;1;1" />
	<E K="UsmAmount" V="25" />
	<E K="UsmRadius" V="1" />
	<E K="UUID" V="31213641-58DF-4B62-BE8E-8DD2B7D267C6" />
</SL>
