styles/Fuji/Fuji Astia 100F -.costyle
<?xml version="1.0"?>
<SL Engine="900">
	<E K="Clarity" V="0" />
	<E K="ClarityMethod" V="2" />
	<E K="ClarityStructure" V="0" />
	<E K="ColorBalanceHighlight" V="1;1;1" />
	<E K="ColorBalanceMidtone" V="1;1;1" />
	<E K="ColorBalanceShadow" V="1;1;1" />
	<E K="ColorCorrections" V="1,1,0,2.40000009536743,-6,-1,237,45.3288917541504,66.479118347168,-9.59939575195313,9.18455505371094,-80.8738861083984,19.1261138916016,25.9748382568359,0,0,0,0;1,1,0,-0.599997997283936,-2.5,0,255,130,12,0,4.55426025390625,-95.2941207885742,4.70587921142578,18.2099227905273,0,0,0,0;1,1,0,0,0,0,255,225.91796875,36.1078147888184,-5.1807861328125,1.47015380859375,-85.8400726318359,14.1599273681641,20.3872756958008,0,0,0,0;1,1,0,5.40000009536743,-19.7999992370605,-0.75,58.8606338500977,208,10.4000005722046,-33.7201843261719,32.3572998046875,-95,5,23.2739639282227,0,0,0,0;1,1,0,0,-8.09999847412109,0,22.6761436462402,216,177.109222412109,-4.34454345703125,5.92352294921875,-89.5017852783203,10.4982147216797,28.4633140563965,0,0,0,0;1,1,0,1.5,0,-0.5,61.345775604248,87.8979263305664,165,-14.3739013671875,22.6552124023438,-62.820743560791,37.179256439209,27.3963947296143,0,0,0,0;1,1,0,9,-10,-0.699999988079071,104,0,148,-12.1621704101563,2.99188232421875,-100,0,26.3488998413086,0,0,0,0;1,1,0,4.5,-14,-2,235,50.884838104248,191.595169067383,-6.26992797851563,5.4552001953125,-78.3468780517578,21.6531219482422,20.9790744781494,0,0,0,0;1,1,2,2.36563158035278,-15.9744558334351,0,174,139,97,0,25,-42.1264381408691,25.6254768371582,25,0,0,0,0" />
	<E K="Contrast" V="0" />
	<E K="FilmGrainAmount" V="10" />
	<E K="FilmGrainDensity" V="0" />
	<E K="FilmGrainGranularity" V="50" />
	<E K="FilmGrainType" V="2" />
	<E K="GradationCurve" V="0,0;0.200000002980232,0.215685993432999;0.505882024765015,0.50196099281311;0.764706015586853,0.745097994804382;1,1" />
	<E K="GradationCurveBlue" V="0,0;0.105881996452808,0.0745100006461143;0.223528996109962,0.180391997098923;0.356862992048264,0.341176003217697;0.50196099281311,0.533333003520966;0.639216005802155,0.705882012844086;0.768626987934113,0.839215993881226;0.886274993419647,0.929412007331848;1,1" />
	<E K="GradationCurveGreen" V="0,0;0.105881996452808,0.0705880001187325;0.223528996109962,0.180391997098923;0.356862992048264,0.345097988843918;0.50196099281311,0.533333003520966;0.639216005802155,0.690195977687836;0.768626987934113,0.815685987472534;0.886274993419647,0.913725018501282;1,1" />
	<E K="GradationCurveRed" V="0,0;0.105881996452808,0.0666669979691505;0.223528996109962,0.176470994949341;0.356862992048264,0.345097988843918;0.50196099281311,0.529411971569061;0.639216005802155,0.682353019714355;0.768626987934113,0.80392199754715;0.886274993419647,0.905882000923157;1,1" />
	<E K="GradationCurveY" V="0,0;0.200000002980232,0.212500005960464;0.400000005960464,0.396250009536743;0.600000023841858,0.582499980926514;0.800000011920929,0.782500028610229;1,1" />
	<E K="Highlight" V="1;1;1;1" />
	<E K="HighlightRecovery" V="12.5" />
	<E K="Name" V="Fuji Astia 100F -" />
	<E K="Saturation" V="0" />
	<E K="ShadowRecovery" V="12" />
	<E K="StyleSource" V="Styles" />
	<E K="TargetHighlight" V="1;1;1;1" />
	<E K="UsmAmount" V="40" />
	<E K="UsmRadius" V="1.20000004768372" />
	<E K="UUID" V="ABA4091D-C1F6-4283-89E5-CB519D04BE86" />
</SL>
