styles/Fuji/Fuji Velvia 50 +++.costyle
<?xml version="1.0"?>
<SL Engine="900">
	<E K="Clarity" V="0" />
	<E K="ClarityMethod" V="2" />
	<E K="ClarityStructure" V="0" />
	<E K="ColorBalanceHighlight" V="1;1;1" />
	<E K="ColorBalanceMidtone" V="1.02564096450806;1.02564096450806;1.02564096450806" />
	<E K="ColorBalanceShadow" V="0.975000023841858;0.975000023841858;0.975000023841858" />
	<E K="ColorCorrections" V="1,1,0,2.40000009536743,-6,-0.5,237,45.3288917541504,66.479118347168,-9.59939575195313,9.18455505371094,-80.8738861083984,19.1261138916016,25.9748382568359,0,0,0,0;1,1,0,0,-2.5,-0.351999998092651,255,130,12,0,4.55426025390625,-95.2941207885742,4.70587921142578,18.2099227905273,0,0,0,0;1,1,0,-1.5,0,0,255,225.91796875,36.1078147888184,-5.1807861328125,1.47015380859375,-85.8400726318359,14.1599273681641,20.3872756958008,0,0,0,0;1,1,0,3.59999990463257,-19.7999992370605,-1.25,58.8606338500977,208,10.4000005722046,-33.7201843261719,32.3572998046875,-95,5,23.2739639282227,0,0,0,0;1,1,0,0,0,-0.870000004768372,22.6761436462402,216,177.109222412109,-4.34454345703125,5.92352294921875,-89.5017852783203,10.4982147216797,28.4633140563965,0,0,0,0;1,1,0,3,0,-0.5,61.345775604248,87.8979263305664,165,-14.3739013671875,22.6552124023438,-62.820743560791,37.179256439209,27.3963947296143,0,0,0,0;1,1,0,6,-10,-0.699999988079071,104,0,148,-12.1621704101563,2.99188232421875,-100,0,26.3488998413086,0,0,0,0;1,1,0,4.5,-14,0.230000004172325,235,50.884838104248,191.595169067383,-6.26992797851563,5.4552001953125,-78.3468780517578,21.6531219482422,20.9790744781494,0,0,0,0;1,1,2,2.36563158035278,-15.9744558334351,0,174,139,97,0,25,-42.1264381408691,25.6254768371582,25,0,0,0,0" />
	<E K="Contrast" V="0" />
	<E K="FilmGrainAmount" V="45" />
	<E K="FilmGrainDensity" V="0" />
	<E K="FilmGrainGranularity" V="50" />
	<E K="FilmGrainType" V="2" />
	<E K="GradationCurve" V="0,0.00392200006172061;0.10980399698019,0.0941179990768433;0.266667008399963,0.243137001991272;0.388235002756119,0.372548997402191;0.49803900718689,0.494118005037308;0.619607985019684,0.619607985019684;0.749019980430603,0.745097994804382;0.890196025371552,0.882353007793427;1,0.984314024448395" />
	<E K="GradationCurveBlue" V="0,0.0156859997659922;0.10980399698019,0.0941179990768433;0.266667008399963,0.211765006184578;0.388235002756119,0.392156988382339;0.49803900718689,0.572548985481262;0.619607985019684,0.737254977226257;0.749019980430603,0.858824014663696;0.890196025371552,0.945097982883453;1,1" />
	<E K="GradationCurveGreen" V="0,0.00392200006172061;0.10980399698019,0.0784310027956963;0.266667008399963,0.192157000303268;0.388235002756119,0.360783994197845;0.49803900718689,0.533333003520966;0.619607985019684,0.694118022918701;0.749019980430603,0.823529005050659;0.890196025371552,0.925490021705627;1,0.996078014373779" />
	<E K="GradationCurveRed" V="0,0;0.10980399698019,0.0666669979691505;0.266667008399963,0.164706006646156;0.388235002756119,0.345097988843918;0.49803900718689,0.537254989147186;0.619607985019684,0.705882012844086;0.749019980430603,0.835294008255005;0.890196025371552,0.925490021705627;1,0.992156982421875" />
	<E K="GradationCurveY" V="0,0;0.200000002980232,0.200000002980232;0.400000005960464,0.387499988079071;0.600000023841858,0.582499980926514;0.800000011920929,0.782500028610229;1,1" />
	<E K="Highlight" V="1;1;1;1" />
	<E K="HighlightRecovery" V="12.5" />
	<E K="Midtone" V="0;0;0;0.00547500001266599" />
	<E K="Name" V="Fuji Velvia 50 +++" />
	<E K="Saturation" V="-5" />
	<E K="ShadowRecovery" V="12" />
	<E K="StyleSource" V="Styles" />
	<E K="TargetHighlight" V="1;1;1;0.975144982337952" />
	<E K="UsmAmount" V="50" />
	<E K="UsmRadius" V="1.20000004768372" />
	<E K="UUID" V="C8A2D9A5-241F-4A43-A040-25785DEA76F3" />
</SL>
