styles/Fuji/Fuji Provia 400X - -.costyle
<?xml version="1.0"?>
<SL Engine="900">
	<E K="Clarity" V="0" />
	<E K="ClarityMethod" V="2" />
	<E K="ClarityStructure" V="0" />
	<E K="ColorBalanceHighlight" V="1;1;1" />
	<E K="ColorBalanceMidtone" V="1.02564096450806;1.02564096450806;1.02564096450806" />
	<E K="ColorBalanceShadow" V="0.987500011920929;0.987500011920929;0.987500011920929" />
	<E K="ColorCorrections" V="1,1,0,3,-6,-0.5,237,45.3288917541504,66.479118347168,-9.59939575195313,9.18455505371094,-80.8738861083984,19.1261138916016,25.9748382568359,0,0,0,0;1,1,0,1.5,-2.5,-0.351999998092651,255,130,12,0,4.55426025390625,-95.2941207885742,4.70587921142578,18.2099227905273,0,0,0,0;1,1,0,-1.5,0,0,255,225.91796875,36.1078147888184,-5.1807861328125,1.47015380859375,-85.8400726318359,14.1599273681641,20.3872756958008,0,0,0,0;1,1,0,3.59999990463257,-19.7999992370605,-1.25,58.8606338500977,208,10.4000005722046,-33.7201843261719,32.3572998046875,-95,5,23.2739639282227,0,0,0,0;1,1,0,0,0,-0.870000004768372,22.6761436462402,216,177.109222412109,-4.34454345703125,5.92352294921875,-89.5017852783203,10.4982147216797,28.4633140563965,0,0,0,0;1,1,0,3,5,-0.5,61.345775604248,87.8979263305664,165,-14.3739013671875,22.6552124023438,-62.820743560791,37.179256439209,27.3963947296143,0,0,0,0;1,1,0,9,-10,-0.699999988079071,104,0,148,-12.1621704101563,2.99188232421875,-100,0,26.3488998413086,0,0,0,0;1,1,0,4.5,-14,0.230000004172325,235,50.884838104248,191.595169067383,-6.26992797851563,5.4552001953125,-78.3468780517578,21.6531219482422,20.9790744781494,0,0,0,0;1,1,2,2.36563158035278,-15.9744558334351,0,174,139,97,0,25,-42.1264381408691,25.6254768371582,25,0,0,0,0" />
	<E K="Contrast" V="0" />
	<E K="FilmGrainAmount" V="0" />
	<E K="FilmGrainDensity" V="0" />
	<E K="FilmGrainGranularity" V="50" />
	<E K="FilmGrainType" V="2" />
	<E K="GradationCurve" V="0,0;0.125489994883537,0.152941003441811;0.482353001832962,0.482353001832962;1,1" />
	<E K="GradationCurveBlue" V="0,0;0.0862749963998795,0.0392160005867481;0.19607800245285,0.133332997560501;0.341176003217697,0.321568995714188;0.50196099281311,0.552941024303436;0.639216005802155,0.737254977226257;0.764706015586853,0.870588004589081;0.886274993419647,0.949020028114319;1,1" />
	<E K="GradationCurveGreen" V="0,0;0.0862749963998795,0.0392160005867481;0.19607800245285,0.129411995410919;0.341176003217697,0.321568995714188;0.50196099281311,0.560783982276917;0.639216005802155,0.745097994804382;0.764706015586853,0.870588004589081;0.886274993419647,0.949020028114319;1,1" />
	<E K="GradationCurveRed" V="0,0;0.0862749963998795,0.0313730016350746;0.19607800245285,0.121569000184536;0.341176003217697,0.321568995714188;0.50196099281311,0.556863009929657;0.639216005802155,0.733332991600037;0.764706015586853,0.85097998380661;0.886274993419647,0.929412007331848;1,1" />
	<E K="GradationCurveY" V="0,0;0.200000002980232,0.215000003576279;0.400000005960464,0.398000001907349;0.600000023841858,0.582499980926514;0.800000011920929,0.782500028610229;1,1" />
	<E K="Highlight" V="1;1;1;1" />
	<E K="HighlightRecovery" V="12.5" />
	<E K="Midtone" V="0;0;0;0.00547500001266599" />
	<E K="Name" V="Fuji Provia 400X - -" />
	<E K="Saturation" V="-5" />
	<E K="ShadowRecovery" V="20" />
	<E K="StyleSource" V="Styles" />
	<E K="TargetHighlight" V="1;1;1;0.975144982337952" />
	<E K="UsmAmount" V="40" />
	<E K="UsmRadius" V="1.20000004768372" />
	<E K="UUID" V="68BB0E96-B0B3-4EA7-803B-7699021E7833" />
</SL>
