styles/Fuji/Fuji FP-100c Negative -.costyle
<?xml version="1.0"?>
<SL Engine="900">
	<E K="Clarity" V="0" />
	<E K="ClarityMethod" V="2" />
	<E K="ClarityStructure" V="0" />
	<E K="ColorBalanceHighlight" V="1;1;1" />
	<E K="ColorBalanceMidtone" V="1;1;1" />
	<E K="ColorBalanceShadow" V="1;1;1" />
	<E K="ColorCorrections" V="1,1,0,6,-12,0,237,45.3288917541504,66.479118347168,-9.59939575195313,9.18455505371094,-80.8738861083984,19.1261138916016,25.9748382568359,0,0,0,0;1,1,0,0,-5,-0.219999998807907,255,130,12,0,4.55426025390625,-95.2941207885742,4.70587921142578,18.2099227905273,0,0,0,0;1,1,0,3,-8,0,255,225.91796875,36.1078147888184,-5.1807861328125,1.47015380859375,-85.8400726318359,14.1599273681641,20.3872756958008,0,0,0,0;1,1,0,6,-39.5999984741211,-0.75,58.8606338500977,208,10.4000005722046,-33.7201843261719,32.3572998046875,-95,5,23.2739639282227,0,0,0,0;1,1,0,9,-19.4400024414063,-2.3199999332428,22.6761436462402,216,177.109222412109,-4.34454345703125,5.92352294921875,-89.5017852783203,10.4982147216797,28.4633140563965,0,0,0,0;1,1,0,0,0,-2,61.345775604248,87.8979263305664,165,-14.3739013671875,22.6552124023438,-62.820743560791,37.179256439209,27.3963947296143,0,0,0,0;1,1,0,18,-60,1.57500004768372,104,0,148,-12.1621704101563,2.99188232421875,-100,0,26.3488998413086,0,0,0,0;1,1,0,13.8000001907349,-21,1.37999999523163,235,50.884838104248,191.595169067383,-6.26992797851563,5.4552001953125,-78.3468780517578,21.6531219482422,20.9790744781494,0,0,0,0;1,1,2,2.36563158035278,-15.9744558334351,0,174,139,97,0,25,-42.1264381408691,25.6254768371582,25,0,0,0,0" />
	<E K="Contrast" V="0" />
	<E K="FilmGrainAmount" V="8" />
	<E K="FilmGrainDensity" V="0" />
	<E K="FilmGrainGranularity" V="50" />
	<E K="FilmGrainType" V="5" />
	<E K="GradationCurve" V="0,0.0274509992450476;0.164706006646156,0.19607800245285;0.345097988843918,0.36862701177597;0.537254989147186,0.49803900718689;0.67058801651001,0.619607985019684;0.776471018791199,0.745097994804382;0.886274993419647,0.874509990215302;1,0.992156982421875" />
	<E K="GradationCurveBlue" V="0,0.0156859997659922;0.164706006646156,0.188234999775887;0.345097988843918,0.419607996940613;0.537254989147186,0.639216005802155;0.67058801651001,0.749019980430603;0.776471018791199,0.796078026294708;0.886274993419647,0.847059011459351;1,0.952941000461578" />
	<E K="GradationCurveGreen" V="0,0.0196080002933741;0.164706006646156,0.172548994421959;0.345097988843918,0.415686011314392;0.537254989147186,0.650979995727539;0.67058801651001,0.772548973560333;0.776471018791199,0.84313702583313;0.886274993419647,0.901961028575897;1,0.964706003665924" />
	<E K="GradationCurveRed" V="0,0;0.164706006646156,0.176470994949341;0.345097988843918,0.431373000144958;0.537254989147186,0.666666984558105;0.67058801651001,0.792156994342804;0.776471018791199,0.866666972637177;0.886274993419647,0.933332979679108;1,1" />
	<E K="GradationCurveY" V="0,0;0.200000002980232,0.200000002980232;0.400000005960464,0.395000010728836;0.600000023841858,0.592999994754791;0.800000011920929,0.792999982833862;1,1" />
	<E K="Highlight" V="1;1;1;1" />
	<E K="HighlightRecovery" V="5" />
	<E K="Midtone" V="0;0;0;0.00365000008605421" />
	<E K="Name" V="Fuji FP-100c Negative -" />
	<E K="Saturation" V="-10" />
	<E K="ShadowRecovery" V="8" />
	<E K="StyleSource" V="Styles" />
	<E K="TargetHighlight" V="1;1;1;0.983430027961731" />
	<E K="UsmAmount" V="15" />
	<E K="UsmRadius" V="1" />
	<E K="UUID" V="B9C5A1CC-BE86-43DE-9936-D1E2DCDABC8A" />
</SL>
