styles/Fuji/Fuji Superia 800.costyle
<?xml version="1.0"?>
<SL Engine="900">
	<E K="Clarity" V="0" />
	<E K="ClarityMethod" V="2" />
	<E K="ClarityStructure" V="0" />
	<E K="ColorBalanceHighlight" V="0.949999988079071;0.949999988079071;0.949999988079071" />
	<E K="ColorBalanceMidtone" V="1.03896105289459;1.03896105289459;1.03896105289459" />
	<E K="ColorBalanceShadow" V="0.824999988079071;0.824999988079071;0.824999988079071" />
	<E K="ColorCorrections" V="1,1,0,9,-6,-0.75,237,45.3288917541504,66.479118347168,-9.59939575195313,9.18455505371094,-80.8738861083984,19.1261138916016,25.9748382568359,0,0,0,0;1,1,0,0.600000023841858,-5,-0.219999998807907,255,130,12,0,4.55426025390625,-95.2941207885742,4.70587921142578,18.2099227905273,0,0,0,0;1,1,0,3,0,0.75,255,225.91796875,36.1078147888184,-5.1807861328125,1.47015380859375,-85.8400726318359,14.1599273681641,20.3872756958008,0,0,0,0;1,1,0,4.5,-19.7999992370605,0.699999988079071,58.8606338500977,208,10.4000005722046,-33.7201843261719,32.3572998046875,-95,5,23.2739639282227,0,0,0,0;1,1,0,0,-18.9000015258789,0.990000009536743,22.6761436462402,216,177.109222412109,-4.34454345703125,5.92352294921875,-89.5017852783203,10.4982147216797,28.4633140563965,0,0,0,0;1,1,0,2.40000009536743,-11.7999992370605,-1,61.345775604248,87.8979263305664,165,-14.3739013671875,22.6552124023438,-62.820743560791,37.179256439209,27.3963947296143,0,0,0,0;1,1,0,3,-30,-0.699999988079071,104,0,148,-12.1621704101563,2.99188232421875,-100,0,26.3488998413086,0,0,0,0;1,1,0,6,-21,0,235,50.884838104248,191.595169067383,-6.26992797851563,5.4552001953125,-78.3468780517578,21.6531219482422,20.9790744781494,0,0,0,0;1,1,2,2.36563158035278,-15.9744558334351,0,174,139,97,0,25,-42.1264381408691,25.6254768371582,25,0,0,0,0" />
	<E K="Contrast" V="0" />
	<E K="FilmGrainAmount" V="70" />
	<E K="FilmGrainDensity" V="0" />
	<E K="FilmGrainGranularity" V="50" />
	<E K="FilmGrainType" V="1" />
	<E K="GradationCurve" V="0,0.0156859997659922;0.0470589995384216,0.0784310027956963;0.188234999775887,0.231372997164726;0.32548999786377,0.364706009626389;0.466666996479034,0.49803900718689;0.603922009468079,0.619607985019684;0.745097994804382,0.749019980430603;0.882353007793427,0.870588004589081;1,0.980391979217529" />
	<E K="GradationCurveBlue" V="0,0.0156859997659922;0.0470589995384216,0.0392160005867481;0.188234999775887,0.156863003969193;0.32548999786377,0.298038989305496;0.466666996479034,0.474510014057159;0.603922009468079,0.64705902338028;0.745097994804382,0.792156994342804;0.882353007793427,0.901961028575897;1,0.996078014373779" />
	<E K="GradationCurveGreen" V="0,0.011765000410378;0.0470589995384216,0.0352940000593662;0.188234999775887,0.152941003441811;0.32548999786377,0.301961004734039;0.466666996479034,0.490195989608765;0.603922009468079,0.662744998931885;0.745097994804382,0.807843029499054;0.882353007793427,0.917647004127502;1,1" />
	<E K="GradationCurveRed" V="0,0;0.0470589995384216,0.0196080002933741;0.188234999775887,0.133332997560501;0.32548999786377,0.290196001529694;0.466666996479034,0.490195989608765;0.603922009468079,0.662744998931885;0.745097994804382,0.807843029499054;0.882353007793427,0.917647004127502;1,1" />
	<E K="GradationCurveY" V="0,0;0.200000002980232,0.212500005960464;0.400000005960464,0.403750002384186;0.600000023841858,0.592999994754791;0.800000011920929,0.792999982833862;1,1" />
	<E K="Highlight" V="1;1;1;1" />
	<E K="HighlightRecovery" V="5" />
	<E K="Midtone" V="0;0;0;0.00365000008605421" />
	<E K="Name" V="Fuji Superia 800" />
	<E K="Saturation" V="-5" />
	<E K="ShadowRecovery" V="16" />
	<E K="StyleSource" V="Styles" />
	<E K="TargetHighlight" V="1;1;1;0.983430027961731" />
	<E K="UsmAmount" V="25" />
	<E K="UsmRadius" V="1" />
	<E K="UUID" V="DB7BD023-E89E-45EF-90D1-3077E0CE103E" />
</SL>
