styles/Fuji/Fuji Velvia 50 HC.costyle
<?xml version="1.0"?>
<SL Engine="900">
	<E K="Clarity" V="0" />
	<E K="ClarityMethod" V="2" />
	<E K="ClarityStructure" V="0" />
	<E K="ColorBalanceHighlight" V="1;1;1" />
	<E K="ColorBalanceMidtone" V="1.02564096450806;1.02564096450806;1.02564096450806" />
	<E K="ColorBalanceShadow" V="0.975000023841858;0.975000023841858;0.975000023841858" />
	<E K="ColorCorrections" V="1,1,0,3.59999990463257,-6,-1,237,45.3288917541504,66.479118347168,-9.59939575195313,9.18455505371094,-80.8738861083984,19.1261138916016,25.9748382568359,0,0,0,0;1,1,0,-3,0,-0.660000026226044,255,130,12,0,4.55426025390625,-95.2941207885742,4.70587921142578,18.2099227905273,0,0,0,0;1,1,0,-4.5,0,0,255,225.91796875,36.1078147888184,-5.1807861328125,1.47015380859375,-85.8400726318359,14.1599273681641,20.3872756958008,0,0,0,0;1,1,0,5.40000009536743,-6.6000018119812,-1.25,58.8606338500977,208,10.4000005722046,-33.7201843261719,32.3572998046875,-95,5,23.2739639282227,0,0,0,0;1,1,0,3,0,-1.1599999666214,22.6761436462402,216,177.109222412109,-4.34454345703125,5.92352294921875,-89.5017852783203,10.4982147216797,28.4633140563965,0,0,0,0;1,1,0,3,-5.90000200271606,-1.5,61.345775604248,87.8979263305664,165,-14.3739013671875,22.6552124023438,-62.820743560791,37.179256439209,27.3963947296143,0,0,0,0;1,1,0,6,0,-0.349999994039536,104,0,148,-12.1621704101563,2.99188232421875,-100,0,26.3488998413086,0,0,0,0;1,1,0,4.5,-10.5,-1.20000004768372,235,50.884838104248,191.595169067383,-6.26992797851563,5.4552001953125,-78.3468780517578,21.6531219482422,20.9790744781494,0,0,0,0;1,1,2,2.36563158035278,-15.9744558334351,0,174,139,97,0,25,-42.1264381408691,25.6254768371582,25,0,0,0,0" />
	<E K="Contrast" V="0" />
	<E K="FilmGrainAmount" V="15" />
	<E K="FilmGrainDensity" V="0" />
	<E K="FilmGrainGranularity" V="50" />
	<E K="FilmGrainType" V="4" />
	<E K="GradationCurve" V="0,0;1,1" />
	<E K="GradationCurveBlue" V="0,0;0.152941003441811,0.0549019984900951;0.243137001991272,0.105881996452808;0.443136990070343,0.482353001832962;0.690195977687836,0.823529005050659;1,1" />
	<E K="GradationCurveGreen" V="0,0;0.152941003441811,0.0549019984900951;0.247059002518654,0.105881996452808;0.443136990070343,0.482353001832962;0.686275005340576,0.80392199754715;1,1" />
	<E K="GradationCurveRed" V="0,0;0.152941003441811,0.0549019984900951;0.247059002518654,0.105881996452808;0.443136990070343,0.482353001832962;0.698038995265961,0.80392199754715;1,1" />
	<E K="GradationCurveY" V="0,0;0.200000002980232,0.212500005960464;0.400000005960464,0.396250009536743;0.600000023841858,0.582499980926514;0.800000011920929,0.782500028610229;1,1" />
	<E K="Highlight" V="1;1;1;1" />
	<E K="HighlightRecovery" V="12.5" />
	<E K="Name" V="Fuji Velvia 50 HC" />
	<E K="Saturation" V="5" />
	<E K="ShadowRecovery" V="12" />
	<E K="StyleSource" V="Styles" />
	<E K="TargetHighlight" V="1;1;1;1" />
	<E K="UsmAmount" V="50" />
	<E K="UsmRadius" V="1.20000004768372" />
	<E K="UUID" V="493BBA6E-2BDC-4C1E-8491-376BDD0ADF01" />
</SL>
