styles/Fuji/Fuji Provia 100F ++.costyle
<?xml version="1.0"?>
<SL Engine="900">
	<E K="Clarity" V="0" />
	<E K="ClarityMethod" V="2" />
	<E K="ClarityStructure" V="0" />
	<E K="ColorBalanceHighlight" V="1.05599999427795;1.06265103816986;1.06666696071625" />
	<E K="ColorBalanceMidtone" V="1.00256395339966;1.0169529914856;1.02564096450806" />
	<E K="ColorBalanceShadow" V="0.887499988079071;0.887499988079071;0.887499988079071" />
	<E K="ColorCorrections" V="1,1,0,3.59999990463257,-9,-1,237,45.3288917541504,66.479118347168,-9.59939575195313,9.18455505371094,-80.8738861083984,19.1261138916016,25.9748382568359,0,0,0,0;1,1,0,0,-2.5,-0.351999998092651,255,130,12,0,4.55426025390625,-95.2941207885742,4.70587921142578,18.2099227905273,0,0,0,0;1,1,0,0,0,0,255,225.91796875,36.1078147888184,-5.1807861328125,1.47015380859375,-85.8400726318359,14.1599273681641,20.3872756958008,0,0,0,0;1,1,0,3.59999990463257,-19.7999992370605,-1.25,58.8606338500977,208,10.4000005722046,-33.7201843261719,32.3572998046875,-95,5,23.2739639282227,0,0,0,0;1,1,0,0,0,-0.870000004768372,22.6761436462402,216,177.109222412109,-4.34454345703125,5.92352294921875,-89.5017852783203,10.4982147216797,28.4633140563965,0,0,0,0;1,1,0,1.5,5,-1.25,61.345775604248,87.8979263305664,165,-14.3739013671875,22.6552124023438,-62.820743560791,37.179256439209,27.3963947296143,0,0,0,0;1,1,0,6,-10,-0.699999988079071,104,0,148,-12.1621704101563,2.99188232421875,-100,0,26.3488998413086,0,0,0,0;1,1,0,4.5,-10.5,-1.20000004768372,235,50.884838104248,191.595169067383,-6.26992797851563,5.4552001953125,-78.3468780517578,21.6531219482422,20.9790744781494,0,0,0,0;1,1,2,2.36563158035278,-15.9744558334351,0,174,139,97,0,25,-42.1264381408691,25.6254768371582,25,0,0,0,0" />
	<E K="Contrast" V="0" />
	<E K="FilmGrainAmount" V="20" />
	<E K="FilmGrainDensity" V="0" />
	<E K="FilmGrainGranularity" V="50" />
	<E K="FilmGrainType" V="2" />
	<E K="GradationCurve" V="0,0.00392200006172061;0.113724999129772,0.10980399698019;0.250979989767075,0.247059002518654;0.372548997402191,0.36862701177597;0.494118005037308,0.49803900718689;0.615685999393463,0.619607985019684;0.749019980430603,0.749019980430603;0.886274993419647,0.874509990215302;1,0.984314024448395" />
	<E K="GradationCurveBlue" V="0,0;0.113724999129772,0.0666669979691505;0.250979989767075,0.172548994421959;0.372548997402191,0.356862992048264;0.494118005037308,0.556863009929657;0.615685999393463,0.725489974021912;0.749019980430603,0.847059011459351;0.886274993419647,0.909803986549377;1,0.937255024909973" />
	<E K="GradationCurveGreen" V="0,0;0.113724999129772,0.0705880001187325;0.250979989767075,0.180391997098923;0.372548997402191,0.356862992048264;0.494118005037308,0.541176021099091;0.615685999393463,0.694118022918701;0.749019980430603,0.819607973098755;0.886274993419647,0.909803986549377;1,0.972549021244049" />
	<E K="GradationCurveRed" V="0,0;0.113724999129772,0.0627449974417686;0.250979989767075,0.164706006646156;0.372548997402191,0.352941006422043;0.494118005037308,0.552941024303436;0.615685999393463,0.709803998470306;0.749019980430603,0.839215993881226;0.886274993419647,0.933332979679108;1,1" />
	<E K="GradationCurveY" V="0,0;0.200000002980232,0.204999998211861;0.400000005960464,0.391000002622604;0.600000023841858,0.582499980926514;0.800000011920929,0.782500028610229;1,1" />
	<E K="Highlight" V="1;1;1;1" />
	<E K="HighlightRecovery" V="12.5" />
	<E K="Name" V="Fuji Provia 100F ++" />
	<E K="Saturation" V="4" />
	<E K="ShadowRecovery" V="12" />
	<E K="StyleSource" V="Styles" />
	<E K="TargetHighlight" V="1;1;1;1" />
	<E K="UsmAmount" V="40" />
	<E K="UsmRadius" V="1.20000004768372" />
	<E K="UUID" V="3676336E-1ABC-4A63-8D3F-FE4446DB496D" />
</SL>
