styles/Fuji/Fuji FP-100c +.costyle
<?xml version="1.0"?>
<SL Engine="900">
	<E K="Clarity" V="-10" />
	<E K="ClarityMethod" V="2" />
	<E K="ClarityStructure" V="-3.33333301544189" />
	<E K="ColorBalanceHighlight" V="1;1;1" />
	<E K="ColorBalanceMidtone" V="1;1;1" />
	<E K="ColorBalanceShadow" V="1;1;1" />
	<E K="ColorCorrections" V="1,1,0,4.5,-9,-1.25,237,45.3288917541504,66.479118347168,-9.59939575195313,9.18455505371094,-80.8738861083984,19.1261138916016,25.9748382568359,0,0,0,0;1,1,0,0,-8,-0.439999997615814,255,130,12,0,4.55426025390625,-95.2941207885742,4.70587921142578,18.2099227905273,0,0,0,0;1,1,0,-1.5,0,-0.75,255,225.91796875,36.1078147888184,-5.1807861328125,1.47015380859375,-85.8400726318359,14.1599273681641,20.3872756958008,0,0,0,0;1,1,0,0,-21.1199989318848,-1.5,58.8606338500977,208,10.4000005722046,-33.7201843261719,32.3572998046875,-95,5,23.2739639282227,0,0,0,0;1,1,0,7.5,-10.7999992370605,-0.870000004768372,22.6761436462402,216,177.109222412109,-4.34454345703125,5.92352294921875,-89.5017852783203,10.4982147216797,28.4633140563965,0,0,0,0;1,1,0,-1.5,-17.7000007629395,-2,61.345775604248,87.8979263305664,165,-14.3739013671875,22.6552124023438,-62.820743560791,37.179256439209,27.3963947296143,0,0,0,0;1,1,0,9,0,0,104,0,148,-12.1621704101563,2.99188232421875,-100,0,26.3488998413086,0,0,0,0;1,1,0,0,-31.5,-1.60000002384186,235,50.884838104248,191.595169067383,-6.26992797851563,5.4552001953125,-78.3468780517578,21.6531219482422,20.9790744781494,0,0,0,0;1,1,2,2.36563158035278,-15.9744558334351,0,174,139,97,0,25,-42.1264381408691,25.6254768371582,25,0,0,0,0" />
	<E K="Contrast" V="0" />
	<E K="FilmGrainAmount" V="10" />
	<E K="FilmGrainDensity" V="0" />
	<E K="FilmGrainGranularity" V="50" />
	<E K="FilmGrainType" V="0" />
	<E K="GradationCurve" V="0,0.0156859997659922;0.141176000237465,0.180391997098923;0.278430998325348,0.360783994197845;0.41176500916481,0.494118005037308;0.552941024303436,0.623529016971588;0.713725984096527,0.749019980430603;0.870588004589081,0.874509990215302;1,0.984314024448395" />
	<E K="GradationCurveBlue" V="0,0;0.141176000237465,0.0901959985494614;0.278430998325348,0.219607993960381;0.41176500916481,0.427451014518738;0.552941024303436,0.619607985019684;0.713725984096527,0.792156994342804;0.870588004589081,0.921568989753723;1,1" />
	<E K="GradationCurveGreen" V="0,0.0156859997659922;0.141176000237465,0.113724999129772;0.278430998325348,0.243137001991272;0.41176500916481,0.439215987920761;0.552941024303436,0.623529016971588;0.713725984096527,0.792156994342804;0.870588004589081,0.921568989753723;1,1" />
	<E K="GradationCurveRed" V="0,0.0196080002933741;0.141176000237465,0.121569000184536;0.278430998325348,0.258823990821838;0.41176500916481,0.450980007648468;0.552941024303436,0.627451002597809;0.713725984096527,0.792156994342804;0.870588004589081,0.917647004127502;1,1" />
	<E K="GradationCurveY" V="0,0;0.200000002980232,0.202500000596046;0.400000005960464,0.396750003099442;0.600000023841858,0.592999994754791;0.800000011920929,0.792999982833862;1,1" />
	<E K="Highlight" V="1;1;1;1" />
	<E K="HighlightRecovery" V="5" />
	<E K="Midtone" V="0;0;0;0.00365000008605421" />
	<E K="Name" V="Fuji FP-100c +" />
	<E K="Saturation" V="-8" />
	<E K="ShadowRecovery" V="16" />
	<E K="StyleSource" V="Styles" />
	<E K="TargetHighlight" V="1;1;1;0.983430027961731" />
	<E K="UsmAmount" V="0" />
	<E K="UsmRadius" V="1" />
	<E K="UUID" V="C8E59D04-6FCC-4811-A9AF-B4F2948A1682" />
</SL>
