styles/Fuji/Fuji Velvia 100 -.costyle
<?xml version="1.0"?>
<SL Engine="900">
	<E K="Clarity" V="0" />
	<E K="ClarityMethod" V="2" />
	<E K="ClarityStructure" V="0" />
	<E K="ColorBalanceHighlight" V="1.02564096450806;1.02564096450806;1.02564096450806" />
	<E K="ColorBalanceMidtone" V="1.01265799999237;1.01265799999237;1.01265799999237" />
	<E K="ColorBalanceShadow" V="0.975000023841858;0.975000023841858;0.975000023841858" />
	<E K="ColorCorrections" V="1,1,0,3.59999990463257,-6,-0.75,237,45.3288917541504,66.479118347168,-9.59939575195313,9.18455505371094,-80.8738861083984,19.1261138916016,25.9748382568359,0,0,0,0;1,1,0,0,-2.5,-0.439999997615814,255,130,12,0,4.55426025390625,-95.2941207885742,4.70587921142578,18.2099227905273,0,0,0,0;1,1,0,1.5,0,0,255,225.91796875,36.1078147888184,-5.1807861328125,1.47015380859375,-85.8400726318359,14.1599273681641,20.3872756958008,0,0,0,0;1,1,0,3,-6.6000018119812,-0.75,58.8606338500977,208,10.4000005722046,-33.7201843261719,32.3572998046875,-95,5,23.2739639282227,0,0,0,0;1,1,0,3,0,-0.695999979972839,22.6761436462402,216,177.109222412109,-4.34454345703125,5.92352294921875,-89.5017852783203,10.4982147216797,28.4633140563965,0,0,0,0;1,1,0,4.5,0,-1,61.345775604248,87.8979263305664,165,-14.3739013671875,22.6552124023438,-62.820743560791,37.179256439209,27.3963947296143,0,0,0,0;1,1,0,4.5,-10,-0.699999988079071,104,0,148,-12.1621704101563,2.99188232421875,-100,0,26.3488998413086,0,0,0,0;1,1,0,3.59999990463257,-10.5,-0.959999978542328,235,50.884838104248,191.595169067383,-6.26992797851563,5.4552001953125,-78.3468780517578,21.6531219482422,20.9790744781494,0,0,0,0;1,1,2,2.36563158035278,-15.9744558334351,0,174,139,97,0,25,-42.1264381408691,25.6254768371582,25,0,0,0,0" />
	<E K="Contrast" V="0" />
	<E K="FilmGrainAmount" V="10" />
	<E K="FilmGrainDensity" V="0" />
	<E K="FilmGrainGranularity" V="50" />
	<E K="FilmGrainType" V="2" />
	<E K="GradationCurve" V="0,0;0.164706006646156,0.188234999775887;0.486274987459183,0.494118005037308;1,1" />
	<E K="GradationCurveBlue" V="0,0;0.0980390012264252,0.0431369990110397;0.211765006184578,0.141176000237465;0.349020004272461,0.349020004272461;0.490195989608765,0.580392003059387;0.627451002597809,0.760783970355988;0.752941012382507,0.878431022167206;0.878431022167206,0.952941000461578;1,1" />
	<E K="GradationCurveGreen" V="0,0;0.0980390012264252,0.0392160005867481;0.211765006184578,0.133332997560501;0.349020004272461,0.337255001068115;0.490195989608765,0.556863009929657;0.627451002597809,0.729412019252777;0.752941012382507,0.84313702583313;0.878431022167206,0.929412007331848;1,1" />
	<E K="GradationCurveRed" V="0,0;0.0980390012264252,0.0470589995384216;0.211765006184578,0.141176000237465;0.349020004272461,0.333332985639572;0.490195989608765,0.549019992351532;0.627451002597809,0.721569001674652;0.752941012382507,0.84313702583313;0.878431022167206,0.929412007331848;1,1" />
	<E K="GradationCurveY" V="0,0;0.200000002980232,0.209999993443489;0.400000005960464,0.394499987363815;0.600000023841858,0.582499980926514;0.800000011920929,0.782500028610229;1,1" />
	<E K="Highlight" V="1;1;1;1" />
	<E K="HighlightRecovery" V="12.5" />
	<E K="Name" V="Fuji Velvia 100 -" />
	<E K="Saturation" V="5" />
	<E K="ShadowRecovery" V="12" />
	<E K="StyleSource" V="Styles" />
	<E K="TargetHighlight" V="1;1;1;1" />
	<E K="UsmAmount" V="40" />
	<E K="UsmRadius" V="1.20000004768372" />
	<E K="UUID" V="498D5033-F215-4AFA-8AB5-AB614479F758" />
</SL>
