styles/Fuji/Fuji 160S Alt.costyle
<?xml version="1.0"?>
<SL Engine="900">
	<E K="Clarity" V="0" />
	<E K="ClarityMethod" V="2" />
	<E K="ClarityStructure" V="0" />
	<E K="ColorBalanceHighlight" V="0.987500011920929;0.987500011920929;0.987500011920929" />
	<E K="ColorBalanceMidtone" V="1.06666696071625;1.06666696071625;1.06666696071625" />
	<E K="ColorBalanceShadow" V="1;1;1" />
	<E K="ColorCorrections" V="1,1,0,3,0,-0.75,237,45.3288917541504,66.479118347168,-9.59939575195313,9.18455505371094,-80.8738861083984,19.1261138916016,25.9748382568359,0,0,0,0;1,1,0,0,0,0,255,130,12,0,4.55426025390625,-95.2941207885742,4.70587921142578,18.2099227905273,0,0,0,0;1,1,0,3,0,0.5,255,225.91796875,36.1078147888184,-5.1807861328125,1.47015380859375,-85.8400726318359,14.1599273681641,20.3872756958008,0,0,0,0;1,1,0,4.5,-13.2000007629395,0.280000001192093,58.8606338500977,208,10.4000005722046,-33.7201843261719,32.3572998046875,-95,5,23.2739639282227,0,0,0,0;1,1,0,0,-8.09999847412109,-0.28999999165535,22.6761436462402,216,177.109222412109,-4.34454345703125,5.92352294921875,-89.5017852783203,10.4982147216797,28.4633140563965,0,0,0,0;1,1,0,-4.5,-5.90000200271606,-1,61.345775604248,87.8979263305664,165,-14.3739013671875,22.6552124023438,-62.820743560791,37.179256439209,27.3963947296143,0,0,0,0;1,1,0,0,-25,-0.349999994039536,104,0,148,-12.1621704101563,2.99188232421875,-100,0,26.3488998413086,0,0,0,0;1,1,0,1.5,-3.5,0,235,50.884838104248,191.595169067383,-6.26992797851563,5.4552001953125,-78.3468780517578,21.6531219482422,20.9790744781494,0,0,0,0;1,1,2,2.36563158035278,-15.9744558334351,0,174,139,97,0,25,-42.1264381408691,25.6254768371582,25,0,0,0,0" />
	<E K="Contrast" V="0" />
	<E K="FilmGrainAmount" V="15" />
	<E K="FilmGrainDensity" V="0" />
	<E K="FilmGrainGranularity" V="50" />
	<E K="FilmGrainType" V="2" />
	<E K="GradationCurve" V="0,0;0.0901959985494614,0.0705880001187325;0.243137001991272,0.223528996109962;1,1" />
	<E K="GradationCurveBlue" V="0,0;0.152941003441811,0.121569000184536;0.26274499297142,0.211765006184578;0.376471012830734,0.329412013292313;0.494118005037308,0.470587998628616;0.615685999393463,0.615685999393463;0.741176009178162,0.756862998008728;0.870588004589081,0.886274993419647;1,1" />
	<E K="GradationCurveGreen" V="0,0;0.152941003441811,0.121569000184536;0.26274499297142,0.215685993432999;0.376471012830734,0.337255001068115;0.494118005037308,0.478430986404419;0.615685999393463,0.623529016971588;0.741176009178162,0.760783970355988;0.870588004589081,0.882353007793427;1,1" />
	<E K="GradationCurveRed" V="0,0;0.152941003441811,0.117646999657154;0.26274499297142,0.207843005657196;0.376471012830734,0.337255001068115;0.494118005037308,0.486274987459183;0.615685999393463,0.63137298822403;0.741176009178162,0.768626987934113;0.870588004589081,0.890196025371552;1,1" />
	<E K="GradationCurveY" V="0,0;0.200000002980232,0.200000002980232;0.400000005960464,0.387499988079071;0.600000023841858,0.582499980926514;0.800000011920929,0.782500028610229;1,1" />
	<E K="Highlight" V="1;1;1;1" />
	<E K="HighlightRecovery" V="12.5" />
	<E K="Midtone" V="0;0;0;0.00365000008605421" />
	<E K="Name" V="Fuji 160S Alt" />
	<E K="Saturation" V="0" />
	<E K="ShadowRecovery" V="4" />
	<E K="StyleSource" V="Styles" />
	<E K="TargetHighlight" V="1;1;1;0.983430027961731" />
	<E K="UsmAmount" V="15" />
	<E K="UsmRadius" V="1" />
	<E K="UUID" V="F5EFA306-AA9E-4D77-8372-29BFC28C9AEE" />
</SL>
