styles/Fuji/Fuji Velvia 100 ++.costyle
<?xml version="1.0"?>
<SL Engine="900">
	<E K="Clarity" V="0" />
	<E K="ClarityMethod" V="2" />
	<E K="ClarityStructure" V="0" />
	<E K="ColorBalanceHighlight" V="1.02564096450806;1.02564096450806;1.02564096450806" />
	<E K="ColorBalanceMidtone" V="1.01265799999237;1.01265799999237;1.01265799999237" />
	<E K="ColorBalanceShadow" V="0.975000023841858;0.975000023841858;0.975000023841858" />
	<E K="ColorCorrections" V="1,1,0,3.59999990463257,-6,-1,237,45.3288917541504,66.479118347168,-9.59939575195313,9.18455505371094,-80.8738861083984,19.1261138916016,25.9748382568359,0,0,0,0;1,1,0,-1.5,-2.5,-0.439999997615814,255,130,12,0,4.55426025390625,-95.2941207885742,4.70587921142578,18.2099227905273,0,0,0,0;1,1,0,1.5,0,0,255,225.91796875,36.1078147888184,-5.1807861328125,1.47015380859375,-85.8400726318359,14.1599273681641,20.3872756958008,0,0,0,0;1,1,0,3,-6.6000018119812,-0.75,58.8606338500977,208,10.4000005722046,-33.7201843261719,32.3572998046875,-95,5,23.2739639282227,0,0,0,0;1,1,0,3,0,-0.870000004768372,22.6761436462402,216,177.109222412109,-4.34454345703125,5.92352294921875,-89.5017852783203,10.4982147216797,28.4633140563965,0,0,0,0;1,1,0,6,0,-1.5,61.345775604248,87.8979263305664,165,-14.3739013671875,22.6552124023438,-62.820743560791,37.179256439209,27.3963947296143,0,0,0,0;1,1,0,9,-10,-0.699999988079071,104,0,148,-12.1621704101563,2.99188232421875,-100,0,26.3488998413086,0,0,0,0;1,1,0,4.5,-10.5,-1.20000004768372,235,50.884838104248,191.595169067383,-6.26992797851563,5.4552001953125,-78.3468780517578,21.6531219482422,20.9790744781494,0,0,0,0;1,1,2,2.36563158035278,-15.9744558334351,0,174,139,97,0,25,-42.1264381408691,25.6254768371582,25,0,0,0,0" />
	<E K="Contrast" V="0" />
	<E K="FilmGrainAmount" V="15" />
	<E K="FilmGrainDensity" V="0" />
	<E K="FilmGrainGranularity" V="50" />
	<E K="FilmGrainType" V="2" />
	<E K="GradationCurve" V="0,0;0.10980399698019,0.10980399698019;0.243137001991272,0.243137001991272;0.372548997402191,0.36862701177597;0.49803900718689,0.49803900718689;0.623529016971588,0.623529016971588;0.749019980430603,0.749019980430603;0.874509990215302,0.874509990215302;1,1" />
	<E K="GradationCurveBlue" V="0,0;0.10980399698019,0.0666669979691505;0.243137001991272,0.192157000303268;0.372548997402191,0.407842993736267;0.49803900718689,0.611765027046204;0.623529016971588,0.768626987934113;0.749019980430603,0.878431022167206;0.874509990215302,0.949020028114319;1,1" />
	<E K="GradationCurveGreen" V="0,0;0.10980399698019,0.058823999017477;0.243137001991272,0.152941003441811;0.372548997402191,0.32548999786377;0.49803900718689,0.51764702796936;0.623529016971588,0.690195977687836;0.749019980430603,0.82745099067688;0.874509990215302,0.925490021705627;1,1" />
	<E K="GradationCurveRed" V="0,0;0.10980399698019,0.0705880001187325;0.243137001991272,0.172548994421959;0.372548997402191,0.345097988843918;0.49803900718689,0.533333003520966;0.623529016971588,0.690195977687836;0.749019980430603,0.819607973098755;0.874509990215302,0.917647004127502;1,1" />
	<E K="GradationCurveY" V="0,0;0.200000002980232,0.204999998211861;0.400000005960464,0.395999997854233;0.600000023841858,0.58950001001358;0.800000011920929,0.789499998092651;1,1" />
	<E K="Highlight" V="1;1;1;1" />
	<E K="HighlightRecovery" V="7.5" />
	<E K="Name" V="Fuji Velvia 100 ++" />
	<E K="Saturation" V="5" />
	<E K="ShadowRecovery" V="12" />
	<E K="StyleSource" V="Styles" />
	<E K="TargetHighlight" V="1;1;1;1" />
	<E K="UsmAmount" V="40" />
	<E K="UsmRadius" V="1.20000004768372" />
	<E K="UUID" V="BAF68364-8110-4309-B1B7-33987E0C815D" />
</SL>
