styles/Fuji/Fuji Provia 400X HC +.costyle
<?xml version="1.0"?>
<SL Engine="900">
	<E K="Clarity" V="0" />
	<E K="ClarityMethod" V="2" />
	<E K="ClarityStructure" V="0" />
	<E K="ColorBalanceHighlight" V="0.980000019073486;0.992470979690552;1" />
	<E K="ColorBalanceMidtone" V="0.979487001895905;1.00826501846313;1.02564096450806" />
	<E K="ColorBalanceShadow" V="0.987500011920929;0.987500011920929;0.987500011920929" />
	<E K="ColorCorrections" V="1,1,0,3,-6,-0.75,237,45.3288917541504,66.479118347168,-9.59939575195313,9.18455505371094,-80.8738861083984,19.1261138916016,25.9748382568359,0,0,0,0;1,1,0,1.5,-2.5,-0.351999998092651,255,130,12,0,4.55426025390625,-95.2941207885742,4.70587921142578,18.2099227905273,0,0,0,0;1,1,0,-1.5,0,0,255,225.91796875,36.1078147888184,-5.1807861328125,1.47015380859375,-85.8400726318359,14.1599273681641,20.3872756958008,0,0,0,0;1,1,0,4.5,-19.7999992370605,-1.25,58.8606338500977,208,10.4000005722046,-33.7201843261719,32.3572998046875,-95,5,23.2739639282227,0,0,0,0;1,1,0,0,0,-0.870000004768372,22.6761436462402,216,177.109222412109,-4.34454345703125,5.92352294921875,-89.5017852783203,10.4982147216797,28.4633140563965,0,0,0,0;1,1,0,3,7.5,-0.600000023841858,61.345775604248,87.8979263305664,165,-14.3739013671875,22.6552124023438,-62.820743560791,37.179256439209,27.3963947296143,0,0,0,0;1,1,0,9,-10,-0.699999988079071,104,0,148,-12.1621704101563,2.99188232421875,-100,0,26.3488998413086,0,0,0,0;1,1,0,4.5,-14,0.230000004172325,235,50.884838104248,191.595169067383,-6.26992797851563,5.4552001953125,-78.3468780517578,21.6531219482422,20.9790744781494,0,0,0,0;1,1,2,2.36563158035278,-15.9744558334351,0,174,139,97,0,25,-42.1264381408691,25.6254768371582,25,0,0,0,0" />
	<E K="Contrast" V="0" />
	<E K="FilmGrainAmount" V="35" />
	<E K="FilmGrainDensity" V="0" />
	<E K="FilmGrainGranularity" V="50" />
	<E K="FilmGrainType" V="2" />
	<E K="GradationCurve" V="0,0.00392200006172061;0.101961001753807,0.0862749963998795;0.26274499297142,0.243137001991272;0.376471012830734,0.372548997402191;0.482353001832962,0.494118005037308;0.600000023841858,0.623529016971588;0.729412019252777,0.749019980430603;0.874509990215302,0.882353007793427;1,0.984314024448395" />
	<E K="GradationCurveBlue" V="0,0.011765000410378;0.101961001753807,0.0823530033230782;0.26274499297142,0.192157000303268;0.376471012830734,0.356862992048264;0.482353001832962,0.533333003520966;0.600000023841858,0.698038995265961;0.729412019252777,0.835294008255005;0.874509990215302,0.929412007331848;1,1" />
	<E K="GradationCurveGreen" V="0,0.00784299988299608;0.101961001753807,0.0745100006461143;0.26274499297142,0.192157000303268;0.376471012830734,0.360783994197845;0.482353001832962,0.537254989147186;0.600000023841858,0.690195977687836;0.729412019252777,0.811765015125275;0.874509990215302,0.909803986549377;1,0.992156982421875" />
	<E K="GradationCurveRed" V="0,0;0.101961001753807,0.058823999017477;0.26274499297142,0.156863003969193;0.376471012830734,0.345097988843918;0.482353001832962,0.541176021099091;0.600000023841858,0.698038995265961;0.729412019252777,0.815685987472534;0.874509990215302,0.909803986549377;1,0.992156982421875" />
	<E K="GradationCurveY" V="0,0;0.200000002980232,0.200000002980232;0.400000005960464,0.387499988079071;0.600000023841858,0.582499980926514;0.800000011920929,0.782500028610229;1,1" />
	<E K="Highlight" V="1;1;1;1" />
	<E K="HighlightRecovery" V="12.5" />
	<E K="Midtone" V="0;0;0;0.00547500001266599" />
	<E K="Name" V="Fuji Provia 400X HC +" />
	<E K="Saturation" V="0" />
	<E K="ShadowRecovery" V="12" />
	<E K="StyleSource" V="Styles" />
	<E K="TargetHighlight" V="1;1;1;0.975144982337952" />
	<E K="UsmAmount" V="40" />
	<E K="UsmRadius" V="1.20000004768372" />
	<E K="UUID" V="226A1105-AC04-40E7-AD23-BCDA34F91F92" />
</SL>
