styles/Fuji/Fuji Velvia 50 ++.costyle
<?xml version="1.0"?>
<SL Engine="900">
	<E K="Clarity" V="0" />
	<E K="ClarityMethod" V="2" />
	<E K="ClarityStructure" V="0" />
	<E K="ColorBalanceHighlight" V="0.992824018001556;0.970000028610229;1" />
	<E K="ColorBalanceMidtone" V="1.00908005237579;0.956409990787506;1.02564096450806" />
	<E K="ColorBalanceShadow" V="0.975000023841858;0.975000023841858;0.975000023841858" />
	<E K="ColorCorrections" V="1,1,0,2.40000009536743,-9,-1,237,45.3288917541504,66.479118347168,-9.59939575195313,9.18455505371094,-80.8738861083984,19.1261138916016,25.9748382568359,0,0,0,0;1,1,0,-3,0,-1.10000002384186,255,130,12,0,4.55426025390625,-95.2941207885742,4.70587921142578,18.2099227905273,0,0,0,0;1,1,0,-4.5,0,0,255,225.91796875,36.1078147888184,-5.1807861328125,1.47015380859375,-85.8400726318359,14.1599273681641,20.3872756958008,0,0,0,0;1,1,0,5.40000009536743,-6.6000018119812,-1.25,58.8606338500977,208,10.4000005722046,-33.7201843261719,32.3572998046875,-95,5,23.2739639282227,0,0,0,0;1,1,0,3,0,-0.870000004768372,22.6761436462402,216,177.109222412109,-4.34454345703125,5.92352294921875,-89.5017852783203,10.4982147216797,28.4633140563965,0,0,0,0;1,1,0,4.5,0,-1.5,61.345775604248,87.8979263305664,165,-14.3739013671875,22.6552124023438,-62.820743560791,37.179256439209,27.3963947296143,0,0,0,0;1,1,0,6,0,-0.349999994039536,104,0,148,-12.1621704101563,2.99188232421875,-100,0,26.3488998413086,0,0,0,0;1,1,0,4.5,-10.5,-1.20000004768372,235,50.884838104248,191.595169067383,-6.26992797851563,5.4552001953125,-78.3468780517578,21.6531219482422,20.9790744781494,0,0,0,0;1,1,2,2.36563158035278,-15.9744558334351,0,174,139,97,0,25,-42.1264381408691,25.6254768371582,25,0,0,0,0" />
	<E K="Contrast" V="0" />
	<E K="FilmGrainAmount" V="15" />
	<E K="FilmGrainDensity" V="0" />
	<E K="FilmGrainGranularity" V="50" />
	<E K="FilmGrainType" V="4" />
	<E K="GradationCurve" V="0,0;0.494118005037308,0.50196099281311;0.709803998470306,0.729412019252777;1,1" />
	<E K="GradationCurveBlue" V="0,0;0.121569000184536,0.058823999017477;0.247059002518654,0.160784006118774;0.36862701177597,0.349020004272461;0.490195989608765,0.564706027507782;0.607842981815338,0.737254977226257;0.729412019252777,0.858824014663696;0.862744987010956,0.937255024909973;1,1" />
	<E K="GradationCurveGreen" V="0,0;0.121569000184536,0.058823999017477;0.247059002518654,0.149020001292229;0.36862701177597,0.32548999786377;0.490195989608765,0.525489985942841;0.607842981815338,0.686275005340576;0.729412019252777,0.811765015125275;0.862744987010956,0.909803986549377;1,1" />
	<E K="GradationCurveRed" V="0,0;0.121569000184536,0.0549019984900951;0.247059002518654,0.156863003969193;0.36862701177597,0.349020004272461;0.490195989608765,0.556863009929657;0.607842981815338,0.705882012844086;0.729412019252777,0.819607973098755;0.862744987010956,0.913725018501282;1,1" />
	<E K="GradationCurveY" V="0,0;0.200000002980232,0.207499995827675;0.400000005960464,0.39274999499321;0.600000023841858,0.582499980926514;0.800000011920929,0.782500028610229;1,1" />
	<E K="Highlight" V="1;1;1;1" />
	<E K="HighlightRecovery" V="12.5" />
	<E K="Name" V="Fuji Velvia 50 ++" />
	<E K="Saturation" V="5" />
	<E K="ShadowRecovery" V="12" />
	<E K="StyleSource" V="Styles" />
	<E K="TargetHighlight" V="1;1;1;1" />
	<E K="UsmAmount" V="50" />
	<E K="UsmRadius" V="1.20000004768372" />
	<E K="UUID" V="E9E356DE-38BD-4491-8668-6AF369B81350" />
</SL>
