styles/PX/PX-100UV+ Cold -.costyle
<?xml version="1.0"?>
<SL Engine="900">
	<E K="BwBlue" V="45" />
	<E K="BwCyan" V="-12" />
	<E K="BwDarkHue" V="341.411987304688" />
	<E K="BwDarkSaturation" V="0" />
	<E K="BwEnabled" V="1" />
	<E K="BwGreen" V="-25" />
	<E K="BwLightHue" V="341.411987304688" />
	<E K="BwLightSaturation" V="0" />
	<E K="BwMagenta" V="50" />
	<E K="BwRed" V="14" />
	<E K="BwYellow" V="-26" />
	<E K="Clarity" V="-5" />
	<E K="ClarityMethod" V="2" />
	<E K="ClarityStructure" V="-1.66666698455811" />
	<E K="ColorBalanceHighlight" V="1;1;1" />
	<E K="ColorBalanceMidtone" V="1;1;1" />
	<E K="ColorBalanceShadow" V="1;1;1" />
	<E K="ColorCorrections" V="1,1,2,2.36563158035278,-15.9744558334351,0,174,139,97,0,25,-42.1264381408691,25.6254768371582,25,0,0,0,0" />
	<E K="Contrast" V="0" />
	<E K="FilmGrainAmount" V="10" />
	<E K="FilmGrainDensity" V="0" />
	<E K="FilmGrainGranularity" V="50" />
	<E K="FilmGrainType" V="5" />
	<E K="GradationCurve" V="0,0.0941179990768433;0.125489994883537,0.243137001991272;0.254902005195618,0.372548997402191;0.419607996940613,0.494118005037308;0.615685999393463,0.619607985019684;0.788235008716583,0.745097994804382;0.921568989753723,0.874509990215302;1,0.956862986087799" />
	<E K="GradationCurveBlue" V="0,0.00392200006172061;0.125489994883537,0.125489994883537;0.254902005195618,0.254902005195618;0.419607996940613,0.415686011314392;0.615685999393463,0.600000023841858;0.788235008716583,0.752941012382507;0.921568989753723,0.874509990215302;1,0.949020028114319" />
	<E K="GradationCurveGreen" V="0,0;0.125489994883537,0.125489994883537;0.254902005195618,0.254902005195618;0.419607996940613,0.419607996940613;0.615685999393463,0.615685999393463;0.788235008716583,0.788235008716583;0.921568989753723,0.921568989753723;1,1" />
	<E K="GradationCurveRed" V="0,0;0.125489994883537,0.117646999657154;0.254902005195618,0.247059002518654;0.419607996940613,0.41176500916481;0.615685999393463,0.603922009468079;0.788235008716583,0.776471018791199;0.921568989753723,0.913725018501282;1,0.996078014373779" />
	<E K="GradationCurveY" V="0,0;0.200000002980232,0.200000002980232;0.400000005960464,0.395000010728836;0.600000023841858,0.592999994754791;0.800000011920929,0.792999982833862;1,1" />
	<E K="Highlight" V="1;1;1;1" />
	<E K="HighlightRecovery" V="5" />
	<E K="Name" V="PX-100UV+ Cold -" />
	<E K="ShadowRecovery" V="8" />
	<E K="StyleSource" V="Styles" />
	<E K="TargetHighlight" V="1;1;1;1" />
	<E K="UsmAmount" V="15" />
	<E K="UsmRadius" V="1" />
	<E K="UUID" V="76FF267E-F820-4765-84F8-14ED6D7D1D2F" />
</SL>
