styles/PX/PX-100UV+ Warm - -.costyle
<?xml version="1.0"?>
<SL Engine="900">
	<E K="BwBlue" V="45" />
	<E K="BwCyan" V="-12" />
	<E K="BwDarkHue" V="341.411987304688" />
	<E K="BwDarkSaturation" V="0" />
	<E K="BwEnabled" V="1" />
	<E K="BwGreen" V="-25" />
	<E K="BwLightHue" V="341.411987304688" />
	<E K="BwLightSaturation" V="0" />
	<E K="BwMagenta" V="50" />
	<E K="BwRed" V="14" />
	<E K="BwYellow" V="-26" />
	<E K="Clarity" V="0" />
	<E K="ClarityMethod" V="2" />
	<E K="ClarityStructure" V="0" />
	<E K="ColorBalanceHighlight" V="1;1;1" />
	<E K="ColorBalanceMidtone" V="1;1;1" />
	<E K="ColorBalanceShadow" V="1;1;1" />
	<E K="ColorCorrections" V="1,1,2,2.36563158035278,-15.9744558334351,0,174,139,97,0,25,-42.1264381408691,25.6254768371582,25,0,0,0,0" />
	<E K="Contrast" V="0" />
	<E K="FilmGrainAmount" V="0" />
	<E K="FilmGrainDensity" V="0" />
	<E K="FilmGrainGranularity" V="50" />
	<E K="FilmGrainType" V="5" />
	<E K="GradationCurve" V="0,0;0.0784310027956963,0.160784006118774;0.200000002980232,0.32548999786377;0.49803900718689,0.549019992351532;0.811765015125275,0.768626987934113;1,1" />
	<E K="GradationCurveBlue" V="0,0.00392200006172061;0.0549019984900951,0.0549019984900951;0.133332997560501,0.133332997560501;0.247059002518654,0.247059002518654;0.415686011314392,0.41176500916481;0.627451002597809,0.615685999393463;0.792156994342804,0.772548973560333;0.901961028575897,0.886274993419647;1,1" />
	<E K="GradationCurveGreen" V="0,0;0.0549019984900951,0.0549019984900951;0.133332997560501,0.133332997560501;0.247059002518654,0.247059002518654;0.415686011314392,0.415686011314392;0.627451002597809,0.627451002597809;0.792156994342804,0.792156994342804;0.901961028575897,0.901961028575897;1,1" />
	<E K="GradationCurveRed" V="0,0;0.0549019984900951,0.058823999017477;0.133332997560501,0.137254998087883;0.247059002518654,0.254902005195618;0.415686011314392,0.423528999090195;0.627451002597809,0.63137298822403;0.792156994342804,0.796078026294708;0.901961028575897,0.901961028575897;1,1" />
	<E K="GradationCurveY" V="0,0;0.200000002980232,0.212500005960464;0.400000005960464,0.403750002384186;0.600000023841858,0.592999994754791;0.800000011920929,0.792999982833862;1,1" />
	<E K="Highlight" V="1;1;1;1" />
	<E K="HighlightRecovery" V="5" />
	<E K="Midtone" V="0;0;0;0.00365000008605421" />
	<E K="Name" V="PX-100UV+ Warm - -" />
	<E K="ShadowRecovery" V="8" />
	<E K="StyleSource" V="Styles" />
	<E K="TargetHighlight" V="1;1;1;0.983430027961731" />
	<E K="UsmAmount" V="25" />
	<E K="UsmRadius" V="1" />
	<E K="UUID" V="3E86D695-F242-44C2-A881-A4EB91F830EB" />
</SL>
