styles/PX/PX-680 Warm - -.costyle
<?xml version="1.0"?>
<SL Engine="900">
	<E K="Clarity" V="-10" />
	<E K="ClarityMethod" V="2" />
	<E K="ClarityStructure" V="-3.33333301544189" />
	<E K="ColorBalanceHighlight" V="1;1;1" />
	<E K="ColorBalanceMidtone" V="1;1;1" />
	<E K="ColorBalanceShadow" V="1;1;1" />
	<E K="ColorCorrections" V="1,1,0,9,-18,0.479999989271164,237,45.3288917541504,66.479118347168,-9.59939575195313,9.18455505371094,-80.8738861083984,19.1261138916016,25.9748382568359,0,0,0,0;1,1,0,0,-7.5,-0.219999998807907,255,130,12,0,4.55426025390625,-95.2941207885742,4.70587921142578,18.2099227905273,0,0,0,0;1,1,0,3.59999990463257,-20,0,255,225.91796875,36.1078147888184,-5.1807861328125,1.47015380859375,-85.8400726318359,14.1599273681641,20.3872756958008,0,0,0,0;1,1,0,7.5,-26.3999977111816,-1,58.8606338500977,208,10.4000005722046,-33.7201843261719,32.3572998046875,-95,5,23.2739639282227,0,0,0,0;1,1,0,0,-13.5,-2.60999989509583,22.6761436462402,216,177.109222412109,-4.34454345703125,5.92352294921875,-89.5017852783203,10.4982147216797,28.4633140563965,0,0,0,0;1,1,0,-4.5,-14.75,-1.25,61.345775604248,87.8979263305664,165,-14.3739013671875,22.6552124023438,-62.820743560791,37.179256439209,27.3963947296143,0,0,0,0;1,1,0,7.5,-80,1.88999998569489,104,0,148,-12.1621704101563,2.99188232421875,-100,0,26.3488998413086,0,0,0,0;1,1,0,7.5,-28,0.46000000834465,235,50.884838104248,191.595169067383,-6.26992797851563,5.4552001953125,-78.3468780517578,21.6531219482422,20.9790744781494,0,0,0,0;1,1,2,2.36563158035278,-15.9744558334351,0,174,139,97,0,25,-42.1264381408691,25.6254768371582,25,0,0,0,0" />
	<E K="Contrast" V="0" />
	<E K="FilmGrainAmount" V="25" />
	<E K="FilmGrainDensity" V="0" />
	<E K="FilmGrainGranularity" V="50" />
	<E K="FilmGrainType" V="5" />
	<E K="GradationCurve" V="0,0;0.121569000184536,0.145098000764847;0.266667008399963,0.309803992509842;0.466666996479034,0.494118005037308;0.67058801651001,0.658824026584625;0.866666972637177,0.85097998380661;1,1" />
	<E K="GradationCurveBlue" V="0,0;0.0901959985494614,0.0392160005867481;0.19607800245285,0.113724999129772;0.32548999786377,0.258823990821838;0.470587998628616,0.43529400229454;0.627451002597809,0.596077978610992;0.768626987934113,0.729412019252777;0.886274993419647,0.858824014663696;1,1" />
	<E K="GradationCurveGreen" V="0,0.00392200006172061;0.0901959985494614,0.0823530033230782;0.19607800245285,0.200000002980232;0.32548999786377,0.364706009626389;0.470587998628616,0.541176021099091;0.627451002597809,0.701960980892181;0.768626987934113,0.82745099067688;0.886274993419647,0.913725018501282;1,1" />
	<E K="GradationCurveRed" V="0,0;0.0901959985494614,0.0823530033230782;0.19607800245285,0.207843005657196;0.32548999786377,0.400000005960464;0.470587998628616,0.584313988685608;0.627451002597809,0.737254977226257;0.768626987934113,0.84313702583313;0.886274993419647,0.921568989753723;1,1" />
	<E K="GradationCurveY" V="0,0;0.200000002980232,0.200000002980232;0.400000005960464,0.392500013113022;0.600000023841858,0.58950001001358;0.800000011920929,0.789499998092651;1,1" />
	<E K="Highlight" V="1;1;1;1" />
	<E K="HighlightRecovery" V="7.5" />
	<E K="Name" V="PX-680 Warm - -" />
	<E K="Saturation" V="-10" />
	<E K="Shadow" V="0;0;0;0.0472729988396168" />
	<E K="ShadowRecovery" V="12" />
	<E K="StyleSource" V="Styles" />
	<E K="TargetHighlight" V="1;1;1;1" />
	<E K="TargetShadow" V="0;0;0;0" />
	<E K="UsmAmount" V="15" />
	<E K="UsmRadius" V="1" />
	<E K="UUID" V="74F7BB1C-F7D5-4020-8228-9B533552973D" />
</SL>
