styles/PX/PX-680 - -.costyle
<?xml version="1.0"?>
<SL Engine="900">
	<E K="Clarity" V="0" />
	<E K="ClarityMethod" V="2" />
	<E K="ClarityStructure" V="0" />
	<E K="ColorBalanceHighlight" V="1;1;1" />
	<E K="ColorBalanceMidtone" V="1;1;1" />
	<E K="ColorBalanceShadow" V="1;1;1" />
	<E K="ColorCorrections" V="1,1,0,9,-18,0.479999989271164,237,45.3288917541504,66.479118347168,-9.59939575195313,9.18455505371094,-80.8738861083984,19.1261138916016,25.9748382568359,0,0,0,0;1,1,0,0,-7.5,-0.219999998807907,255,130,12,0,4.55426025390625,-95.2941207885742,4.70587921142578,18.2099227905273,0,0,0,0;1,1,0,3.59999990463257,-20,0,255,225.91796875,36.1078147888184,-5.1807861328125,1.47015380859375,-85.8400726318359,14.1599273681641,20.3872756958008,0,0,0,0;1,1,0,7.5,-26.3999977111816,-1,58.8606338500977,208,10.4000005722046,-33.7201843261719,32.3572998046875,-95,5,23.2739639282227,0,0,0,0;1,1,0,0,-13.5,-2.60999989509583,22.6761436462402,216,177.109222412109,-4.34454345703125,5.92352294921875,-89.5017852783203,10.4982147216797,28.4633140563965,0,0,0,0;1,1,0,-4.5,-14.75,-1.25,61.345775604248,87.8979263305664,165,-14.3739013671875,22.6552124023438,-62.820743560791,37.179256439209,27.3963947296143,0,0,0,0;1,1,0,7.5,-80,1.88999998569489,104,0,148,-12.1621704101563,2.99188232421875,-100,0,26.3488998413086,0,0,0,0;1,1,0,7.5,-28,0.46000000834465,235,50.884838104248,191.595169067383,-6.26992797851563,5.4552001953125,-78.3468780517578,21.6531219482422,20.9790744781494,0,0,0,0;1,1,2,2.36563158035278,-15.9744558334351,0,174,139,97,0,25,-42.1264381408691,25.6254768371582,25,0,0,0,0" />
	<E K="Contrast" V="0" />
	<E K="FilmGrainAmount" V="0" />
	<E K="FilmGrainDensity" V="0" />
	<E K="FilmGrainGranularity" V="50" />
	<E K="FilmGrainType" V="5" />
	<E K="GradationCurve" V="0,0;0.058823999017477,0.0627449974417686;0.156863003969193,0.200000002980232;0.333332985639572,0.372548997402191;0.470587998628616,0.494118005037308;0.607842981815338,0.623529016971588;0.745097994804382,0.749019980430603;0.874509990215302,0.870588004589081;1,1" />
	<E K="GradationCurveBlue" V="0,0.0470589995384216;0.058823999017477,0.0901959985494614;0.156863003969193,0.156863003969193;0.333332985639572,0.333332985639572;0.470587998628616,0.466666996479034;0.607842981815338,0.564706027507782;0.745097994804382,0.650979995727539;0.874509990215302,0.733332991600037;1,0.82745099067688" />
	<E K="GradationCurveGreen" V="0,0.0392160005867481;0.058823999017477,0.0627449974417686;0.156863003969193,0.145098000764847;0.333332985639572,0.396077990531921;0.470587998628616,0.584313988685608;0.607842981815338,0.705882012844086;0.745097994804382,0.796078026294708;0.874509990215302,0.894118010997772;1,0.968626976013184" />
	<E K="GradationCurveRed" V="0,0;0.058823999017477,0.0235290005803108;0.156863003969193,0.121569000184536;0.333332985639572,0.415686011314392;0.470587998628616,0.611765027046204;0.607842981815338,0.721569001674652;0.745097994804382,0.80392199754715;0.874509990215302,0.866666972637177;1,0.941175997257233" />
	<E K="GradationCurveY" V="0,0;0.200000002980232,0.204999998211861;0.400000005960464,0.393500000238419;0.600000023841858,0.586000025272369;0.800000011920929,0.78600001335144;1,1" />
	<E K="Highlight" V="1;1;1;1" />
	<E K="HighlightRecovery" V="10" />
	<E K="Name" V="PX-680 - -" />
	<E K="Saturation" V="-5" />
	<E K="ShadowRecovery" V="20" />
	<E K="StyleSource" V="Styles" />
	<E K="TargetHighlight" V="1;1;1;1" />
	<E K="UsmAmount" V="25" />
	<E K="UsmRadius" V="1" />
	<E K="UUID" V="B10EF5EB-CA75-47BF-B074-6C2241E728E0" />
</SL>
