styles/PX/PX-680.costyle
<?xml version="1.0"?>
<SL Engine="900">
	<E K="Clarity" V="-20" />
	<E K="ClarityMethod" V="2" />
	<E K="ClarityStructure" V="-6.66666698455811" />
	<E K="ColorBalanceHighlight" V="1;1;1" />
	<E K="ColorBalanceMidtone" V="1;1;1" />
	<E K="ColorBalanceShadow" V="1;1;1" />
	<E K="ColorCorrections" V="1,1,0,9,-18,0.479999989271164,237,45.3288917541504,66.479118347168,-9.59939575195313,9.18455505371094,-80.8738861083984,19.1261138916016,25.9748382568359,0,0,0,0;1,1,0,0,-7.5,-0.219999998807907,255,130,12,0,4.55426025390625,-95.2941207885742,4.70587921142578,18.2099227905273,0,0,0,0;1,1,0,3.59999990463257,-20,0,255,225.91796875,36.1078147888184,-5.1807861328125,1.47015380859375,-85.8400726318359,14.1599273681641,20.3872756958008,0,0,0,0;1,1,0,7.5,-26.3999977111816,-1,58.8606338500977,208,10.4000005722046,-33.7201843261719,32.3572998046875,-95,5,23.2739639282227,0,0,0,0;1,1,0,0,-13.5,-2.60999989509583,22.6761436462402,216,177.109222412109,-4.34454345703125,5.92352294921875,-89.5017852783203,10.4982147216797,28.4633140563965,0,0,0,0;1,1,0,-4.5,-14.75,-1.25,61.345775604248,87.8979263305664,165,-14.3739013671875,22.6552124023438,-62.820743560791,37.179256439209,27.3963947296143,0,0,0,0;1,1,0,7.5,-80,1.88999998569489,104,0,148,-12.1621704101563,2.99188232421875,-100,0,26.3488998413086,0,0,0,0;1,1,0,7.5,-28,0.46000000834465,235,50.884838104248,191.595169067383,-6.26992797851563,5.4552001953125,-78.3468780517578,21.6531219482422,20.9790744781494,0,0,0,0;1,1,2,2.36563158035278,-15.9744558334351,0,174,139,97,0,25,-42.1264381408691,25.6254768371582,25,0,0,0,0" />
	<E K="Contrast" V="0" />
	<E K="FilmGrainAmount" V="25" />
	<E K="FilmGrainDensity" V="0" />
	<E K="FilmGrainGranularity" V="50" />
	<E K="FilmGrainType" V="5" />
	<E K="GradationCurve" V="0,0.0627449974417686;0.152941003441811,0.184313997626305;0.329412013292313,0.372548997402191;0.470587998628616,0.494118005037308;0.607842981815338,0.619607985019684;0.737254977226257,0.745097994804382;0.894118010997772,0.874509990215302;1,1" />
	<E K="GradationCurveBlue" V="0,0.0352940000593662;0.152941003441811,0.172548994421959;0.329412013292313,0.329412013292313;0.470587998628616,0.466666996479034;0.607842981815338,0.564706027507782;0.737254977226257,0.643136978149414;0.894118010997772,0.752941012382507;1,0.82745099067688" />
	<E K="GradationCurveGreen" V="0,0.0196080002933741;0.152941003441811,0.160784006118774;0.329412013292313,0.392156988382339;0.470587998628616,0.584313988685608;0.607842981815338,0.705882012844086;0.737254977226257,0.788235008716583;0.894118010997772,0.913725018501282;1,0.968626976013184" />
	<E K="GradationCurveRed" V="0,0;0.152941003441811,0.133332997560501;0.329412013292313,0.41176500916481;0.470587998628616,0.611765027046204;0.607842981815338,0.721569001674652;0.737254977226257,0.796078026294708;0.894118010997772,0.886274993419647;1,0.941175997257233" />
	<E K="GradationCurveY" V="0,0;0.200000002980232,0.200000002980232;0.400000005960464,0.392500013113022;0.600000023841858,0.58950001001358;0.800000011920929,0.789499998092651;1,1" />
	<E K="Highlight" V="1;1;1;1" />
	<E K="HighlightRecovery" V="7.5" />
	<E K="Name" V="PX-680" />
	<E K="Saturation" V="-20" />
	<E K="Shadow" V="0;0;0;0.0283640008419752" />
	<E K="ShadowRecovery" V="12" />
	<E K="StyleSource" V="Styles" />
	<E K="TargetHighlight" V="1;1;1;1" />
	<E K="TargetShadow" V="0;0;0;0" />
	<E K="UsmAmount" V="0" />
	<E K="UsmRadius" V="1" />
	<E K="UUID" V="4185A90E-1DBD-4800-982D-1A4C2C1F0E51" />
</SL>
