styles/PX/PX-680 Cold ++.costyle
<?xml version="1.0"?>
<SL Engine="900">
	<E K="Clarity" V="-20" />
	<E K="ClarityMethod" V="2" />
	<E K="ClarityStructure" V="-6.66666698455811" />
	<E K="ColorBalanceHighlight" V="1;1;1" />
	<E K="ColorBalanceMidtone" V="1;1;1" />
	<E K="ColorBalanceShadow" V="1;1;1" />
	<E K="ColorCorrections" V="1,1,0,9,-18,0.479999989271164,237,45.3288917541504,66.479118347168,-9.59939575195313,9.18455505371094,-80.8738861083984,19.1261138916016,25.9748382568359,0,0,0,0;1,1,0,0,-7.5,-0.219999998807907,255,130,12,0,4.55426025390625,-95.2941207885742,4.70587921142578,18.2099227905273,0,0,0,0;1,1,0,3.59999990463257,-20,0,255,225.91796875,36.1078147888184,-5.1807861328125,1.47015380859375,-85.8400726318359,14.1599273681641,20.3872756958008,0,0,0,0;1,1,0,7.5,-26.3999977111816,-1,58.8606338500977,208,10.4000005722046,-33.7201843261719,32.3572998046875,-95,5,23.2739639282227,0,0,0,0;1,1,0,0,-13.5,-2.60999989509583,22.6761436462402,216,177.109222412109,-4.34454345703125,5.92352294921875,-89.5017852783203,10.4982147216797,28.4633140563965,0,0,0,0;1,1,0,-4.5,-14.75,-1.25,61.345775604248,87.8979263305664,165,-14.3739013671875,22.6552124023438,-62.820743560791,37.179256439209,27.3963947296143,0,0,0,0;1,1,0,7.5,-80,1.88999998569489,104,0,148,-12.1621704101563,2.99188232421875,-100,0,26.3488998413086,0,0,0,0;1,1,0,7.5,-28,0.46000000834465,235,50.884838104248,191.595169067383,-6.26992797851563,5.4552001953125,-78.3468780517578,21.6531219482422,20.9790744781494,0,0,0,0;1,1,2,2.36563158035278,-15.9744558334351,0,174,139,97,0,25,-42.1264381408691,25.6254768371582,25,0,0,0,0" />
	<E K="Contrast" V="0" />
	<E K="FilmGrainAmount" V="25" />
	<E K="FilmGrainDensity" V="0" />
	<E K="FilmGrainGranularity" V="50" />
	<E K="FilmGrainType" V="5" />
	<E K="GradationCurve" V="0,0.0549019984900951;0.101961001753807,0.160784006118774;0.305882006883621,0.36862701177597;0.462745010852814,0.49803900718689;0.623529016971588,0.623529016971588;0.764706015586853,0.745097994804382;0.905882000923157,0.874509990215302;1,1" />
	<E K="GradationCurveBlue" V="0,0.0823530033230782;0.101961001753807,0.168626993894577;0.305882006883621,0.317647010087967;0.462745010852814,0.443136990070343;0.623529016971588,0.564706027507782;0.764706015586853,0.666666984558105;0.905882000923157,0.776471018791199;1,0.847059011459351" />
	<E K="GradationCurveGreen" V="0,0.0392160005867481;0.101961001753807,0.125489994883537;0.305882006883621,0.360783994197845;0.462745010852814,0.576470971107483;0.623529016971588,0.741176009178162;0.764706015586853,0.847059011459351;0.905882000923157,0.929412007331848;1,0.960784018039703" />
	<E K="GradationCurveRed" V="0,0;0.101961001753807,0.0784310027956963;0.305882006883621,0.349020004272461;0.462745010852814,0.572548985481262;0.623529016971588,0.725489974021912;0.764706015586853,0.823529005050659;0.905882000923157,0.909803986549377;1,0.941175997257233" />
	<E K="GradationCurveY" V="0,0;0.200000002980232,0.200000002980232;0.400000005960464,0.392500013113022;0.600000023841858,0.58950001001358;0.800000011920929,0.789499998092651;1,1" />
	<E K="Highlight" V="1;1;1;1" />
	<E K="HighlightRecovery" V="7.5" />
	<E K="Name" V="PX-680 Cold ++" />
	<E K="Saturation" V="-20" />
	<E K="Shadow" V="0;0;0;0.0378179997205734" />
	<E K="ShadowRecovery" V="12" />
	<E K="StyleSource" V="Styles" />
	<E K="TargetHighlight" V="1;1;1;1" />
	<E K="TargetShadow" V="0;0;0;0" />
	<E K="UsmAmount" V="0" />
	<E K="UsmRadius" V="1" />
	<E K="UUID" V="0935C9BA-449B-4225-BECD-C771E8C7DF21" />
</SL>
