styles/PX/PX-70 +.costyle
<?xml version="1.0"?>
<SL Engine="900">
	<E K="Clarity" V="-20" />
	<E K="ClarityMethod" V="2" />
	<E K="ClarityStructure" V="-6.66666698455811" />
	<E K="ColorBalanceHighlight" V="1;1;1" />
	<E K="ColorBalanceMidtone" V="1;1;1" />
	<E K="ColorBalanceShadow" V="1;1;1" />
	<E K="ColorCorrections" V="1,1,0,9,-18,0.479999989271164,237,45.3288917541504,66.479118347168,-9.59939575195313,9.18455505371094,-80.8738861083984,19.1261138916016,25.9748382568359,0,0,0,0;1,1,0,0,-6,-0.219999998807907,255,130,12,0,4.55426025390625,-95.2941207885742,4.70587921142578,18.2099227905273,0,0,0,0;1,1,0,0,-16,0,255,225.91796875,36.1078147888184,-5.1807861328125,1.47015380859375,-85.8400726318359,14.1599273681641,20.3872756958008,0,0,0,0;1,1,0,6,-26.3999977111816,0,58.8606338500977,208,10.4000005722046,-33.7201843261719,32.3572998046875,-95,5,23.2739639282227,0,0,0,0;1,1,0,0,-13.5,-0.28999999165535,22.6761436462402,216,177.109222412109,-4.34454345703125,5.92352294921875,-89.5017852783203,10.4982147216797,28.4633140563965,0,0,0,0;1,1,0,-4.5,-14.75,-0.75,61.345775604248,87.8979263305664,165,-14.3739013671875,22.6552124023438,-62.820743560791,37.179256439209,27.3963947296143,0,0,0,0;1,1,0,7.5,-80,1.88999998569489,104,0,148,-12.1621704101563,2.99188232421875,-100,0,26.3488998413086,0,0,0,0;1,1,0,7.5,-28,0.46000000834465,235,50.884838104248,191.595169067383,-6.26992797851563,5.4552001953125,-78.3468780517578,21.6531219482422,20.9790744781494,0,0,0,0;1,1,2,2.36563158035278,-15.9744558334351,0,174,139,97,0,25,-42.1264381408691,25.6254768371582,25,0,0,0,0" />
	<E K="Contrast" V="0" />
	<E K="FilmGrainAmount" V="15" />
	<E K="FilmGrainDensity" V="0" />
	<E K="FilmGrainGranularity" V="50" />
	<E K="FilmGrainType" V="4" />
	<E K="GradationCurve" V="0,0.0941179990768433;0.309803992509842,0.333332985639572;0.431373000144958,0.49803900718689;0.549019992351532,0.619607985019684;0.690195977687836,0.749019980430603;0.898038983345032,0.886274993419647;1,0.945097982883453" />
	<E K="GradationCurveBlue" V="0,0.0235290005803108;0.309803992509842,0.309803992509842;0.431373000144958,0.388235002756119;0.549019992351532,0.474510014057159;0.690195977687836,0.556863009929657;0.898038983345032,0.67843097448349;1,0.756862998008728" />
	<E K="GradationCurveGreen" V="0,0.0235290005803108;0.309803992509842,0.423528999090195;0.431373000144958,0.572548985481262;0.549019992351532,0.682353019714355;0.690195977687836,0.784313976764679;0.898038983345032,0.929412007331848;1,1" />
	<E K="GradationCurveRed" V="0,0;0.309803992509842,0.415686011314392;0.431373000144958,0.580392003059387;0.549019992351532,0.682353019714355;0.690195977687836,0.772548973560333;0.898038983345032,0.905882000923157;1,0.97647100687027" />
	<E K="GradationCurveY" V="0,0;0.200000002980232,0.200000002980232;0.400000005960464,0.389999985694885;0.600000023841858,0.586000025272369;0.800000011920929,0.78600001335144;1,1" />
	<E K="Highlight" V="1;1;1;1" />
	<E K="HighlightRecovery" V="10" />
	<E K="Midtone" V="0;0;0;0.00912499986588955" />
	<E K="Name" V="PX-70 +" />
	<E K="Saturation" V="-30" />
	<E K="Shadow" V="0;0;0;0.0850910022854805" />
	<E K="StyleSource" V="Styles" />
	<E K="TargetHighlight" V="1;1;1;0.958575010299683" />
	<E K="TargetShadow" V="0;0;0;0" />
	<E K="UsmAmount" V="0" />
	<E K="UsmRadius" V="1" />
	<E K="UUID" V="BADADA97-6FA9-4BD8-9C05-AAA093AEA30D" />
</SL>
