styles/PX/PX-70 Warm - -.costyle
<?xml version="1.0"?>
<SL Engine="900">
	<E K="Clarity" V="0" />
	<E K="ClarityMethod" V="2" />
	<E K="ClarityStructure" V="0" />
	<E K="ColorBalanceHighlight" V="1;1;1" />
	<E K="ColorBalanceMidtone" V="1;1;1" />
	<E K="ColorBalanceShadow" V="1;1;1" />
	<E K="ColorCorrections" V="1,1,0,9,-18,0.479999989271164,237,45.3288917541504,66.479118347168,-9.59939575195313,9.18455505371094,-80.8738861083984,19.1261138916016,25.9748382568359,0,0,0,0;1,1,0,0,-6,-0.219999998807907,255,130,12,0,4.55426025390625,-95.2941207885742,4.70587921142578,18.2099227905273,0,0,0,0;1,1,0,0,-16,0,255,225.91796875,36.1078147888184,-5.1807861328125,1.47015380859375,-85.8400726318359,14.1599273681641,20.3872756958008,0,0,0,0;1,1,0,6,-26.3999977111816,0,58.8606338500977,208,10.4000005722046,-33.7201843261719,32.3572998046875,-95,5,23.2739639282227,0,0,0,0;1,1,0,0,-13.5,-0.28999999165535,22.6761436462402,216,177.109222412109,-4.34454345703125,5.92352294921875,-89.5017852783203,10.4982147216797,28.4633140563965,0,0,0,0;1,1,0,-4.5,-14.75,-0.75,61.345775604248,87.8979263305664,165,-14.3739013671875,22.6552124023438,-62.820743560791,37.179256439209,27.3963947296143,0,0,0,0;1,1,0,7.5,-80,1.88999998569489,104,0,148,-12.1621704101563,2.99188232421875,-100,0,26.3488998413086,0,0,0,0;1,1,0,7.5,-28,0.46000000834465,235,50.884838104248,191.595169067383,-6.26992797851563,5.4552001953125,-78.3468780517578,21.6531219482422,20.9790744781494,0,0,0,0;1,1,2,2.36563158035278,-15.9744558334351,0,174,139,97,0,25,-42.1264381408691,25.6254768371582,25,0,0,0,0" />
	<E K="Contrast" V="0" />
	<E K="FilmGrainAmount" V="15" />
	<E K="FilmGrainDensity" V="0" />
	<E K="FilmGrainGranularity" V="50" />
	<E K="FilmGrainType" V="4" />
	<E K="GradationCurve" V="0,0;0.0823530033230782,0.0980390012264252;0.180391997098923,0.203922003507614;0.309803992509842,0.356862992048264;0.470587998628616,0.529411971569061;0.784313976764679,0.800000011920929;1,1" />
	<E K="GradationCurveBlue" V="0,0;0.0941179990768433,0.0784310027956963;0.211765006184578,0.188234999775887;0.321568995714188,0.305882006883621;0.439215987920761,0.419607996940613;0.576470971107483,0.541176021099091;0.725489974021912,0.67843097448349;0.866666972637177,0.823529005050659;1,0.97647100687027" />
	<E K="GradationCurveGreen" V="0,0;0.0941179990768433,0.0627449974417686;0.211765006184578,0.200000002980232;0.321568995714188,0.403921991586685;0.439215987920761,0.576470971107483;0.576470971107483,0.709803998470306;0.725489974021912,0.819607973098755;0.866666972637177,0.913725018501282;1,1" />
	<E K="GradationCurveRed" V="0,0;0.0941179990768433,0.058823999017477;0.211765006184578,0.207843005657196;0.321568995714188,0.427451014518738;0.439215987920761,0.600000023841858;0.576470971107483,0.721569001674652;0.725489974021912,0.82745099067688;0.866666972637177,0.917647004127502;1,1" />
	<E K="GradationCurveY" V="0,0;0.200000002980232,0.200000002980232;0.400000005960464,0.389999985694885;0.600000023841858,0.586000025272369;0.800000011920929,0.78600001335144;1,1" />
	<E K="Highlight" V="1;1;1;1" />
	<E K="HighlightRecovery" V="10" />
	<E K="Midtone" V="0;0;0;0.00912499986588955" />
	<E K="Name" V="PX-70 Warm - -" />
	<E K="Saturation" V="-10" />
	<E K="StyleSource" V="Styles" />
	<E K="TargetHighlight" V="1;1;1;0.958575010299683" />
	<E K="UsmAmount" V="25" />
	<E K="UsmRadius" V="1" />
	<E K="UUID" V="66998692-9ED4-41D2-BDA5-BAE4D3BC622D" />
</SL>
