styles/Agfa/Agfa RSX 200 II ++.costyle
<?xml version="1.0"?>
<SL Engine="900">
	<E K="Clarity" V="0" />
	<E K="ClarityMethod" V="2" />
	<E K="ClarityStructure" V="0" />
	<E K="ColorBalanceHighlight" V="0.949999988079071;0.949999988079071;0.949999988079071" />
	<E K="ColorBalanceMidtone" V="1.04711997509003;1.04711997509003;1.04711997509003" />
	<E K="ColorBalanceShadow" V="0.962499976158142;0.962499976158142;0.962499976158142" />
	<E K="ColorCorrections" V="1,1,0,4.5,-4.79999923706055,-1.25,237,45.3288917541504,66.479118347168,-9.59939575195313,9.18455505371094,-80.8738861083984,19.1261138916016,25.9748382568359,0,0,0,0;1,1,0,-0.599997997283936,0,0,255,130,12,0,4.55426025390625,-95.2941207885742,4.70587921142578,18.2099227905273,0,0,0,0;1,1,0,0,-12,-0.300000011920929,255,225.91796875,36.1078147888184,-5.1807861328125,1.47015380859375,-85.8400726318359,14.1599273681641,20.3872756958008,0,0,0,0;1,1,0,-4.5,-3.29999899864197,-1,58.8606338500977,208,10.4000005722046,-33.7201843261719,32.3572998046875,-95,5,23.2739639282227,0,0,0,0;1,1,0,0,-2.70000100135803,-0.579999983310699,22.6761436462402,216,177.109222412109,-4.34454345703125,5.92352294921875,-89.5017852783203,10.4982147216797,28.4633140563965,0,0,0,0;1,1,0,0,-11.7999992370605,-1,61.345775604248,87.8979263305664,165,-14.3739013671875,22.6552124023438,-62.820743560791,37.179256439209,27.3963947296143,0,0,0,0;1,1,0,4.5,-15,-0.699999988079071,104,0,148,-12.1621704101563,2.99188232421875,-100,0,26.3488998413086,0,0,0,0;1,1,0,4.5,-17.5,0,235,50.884838104248,191.595169067383,-6.26992797851563,5.4552001953125,-78.3468780517578,21.6531219482422,20.9790744781494,0,0,0,0;1,1,2,2.36563158035278,-15.9744558334351,0,174,139,97,0,25,-42.1264381408691,25.6254768371582,25,0,0,0,0" />
	<E K="Contrast" V="0" />
	<E K="FilmGrainAmount" V="30" />
	<E K="FilmGrainDensity" V="0" />
	<E K="FilmGrainGranularity" V="50" />
	<E K="FilmGrainType" V="1" />
	<E K="GradationCurve" V="0,0.0274509992450476;0.0862749963998795,0.0980390012264252;0.26274499297142,0.243137001991272;0.392156988382339,0.36862701177597;0.509804010391235,0.49803900718689;0.627451002597809,0.623529016971588;0.749019980430603,0.749019980430603;0.874509990215302,0.874509990215302;1,0.996078014373779" />
	<E K="GradationCurveBlue" V="0,0.0196080002933741;0.0862749963998795,0.105881996452808;0.26274499297142,0.278430998325348;0.392156988382339,0.396077990531921;0.509804010391235,0.486274987459183;0.627451002597809,0.576470971107483;0.749019980430603,0.686275005340576;0.874509990215302,0.815685987472534;1,0.960784018039703" />
	<E K="GradationCurveGreen" V="0,0.00784299988299608;0.0862749963998795,0.0862749963998795;0.26274499297142,0.247059002518654;0.392156988382339,0.380391985177994;0.509804010391235,0.505882024765015;0.627451002597809,0.627451002597809;0.749019980430603,0.752941012382507;0.874509990215302,0.874509990215302;1,1" />
	<E K="GradationCurveRed" V="0,0;0.0862749963998795,0.0705880001187325;0.26274499297142,0.227450996637344;0.392156988382339,0.372548997402191;0.509804010391235,0.509804010391235;0.627451002597809,0.63137298822403;0.749019980430603,0.749019980430603;0.874509990215302,0.870588004589081;1,1" />
	<E K="GradationCurveY" V="0,0;0.200000002980232,0.202500000596046;0.400000005960464,0.394250005483627;0.600000023841858,0.58950001001358;0.800000011920929,0.789499998092651;1,1" />
	<E K="Highlight" V="1;1;1;1" />
	<E K="HighlightRecovery" V="7.5" />
	<E K="Name" V="Agfa RSX 200 II ++" />
	<E K="Saturation" V="0" />
	<E K="ShadowRecovery" V="8" />
	<E K="StyleSource" V="Styles" />
	<E K="TargetHighlight" V="1;1;1;1" />
	<E K="UsmAmount" V="10" />
	<E K="UsmRadius" V="1" />
	<E K="UUID" V="99A71E9D-6A3A-44E2-8855-7828D4FDC057" />
</SL>
