styles/Agfa/Agfa Vista 400 +.costyle
<?xml version="1.0"?>
<SL Engine="900">
	<E K="Clarity" V="-10" />
	<E K="ClarityMethod" V="2" />
	<E K="ClarityStructure" V="-3.33333301544189" />
	<E K="ColorBalanceHighlight" V="1;1;1" />
	<E K="ColorBalanceMidtone" V="1;1;1" />
	<E K="ColorBalanceShadow" V="1;1;1" />
	<E K="ColorCorrections" V="1,1,0,3,-12,-0.75,237,45.3288917541504,66.479118347168,-9.59939575195313,9.18455505371094,-80.8738861083984,19.1261138916016,25.9748382568359,0,0,0,0;1,1,0,-1.5,-7.5,-0.219999998807907,255,130,12,0,4.55426025390625,-95.2941207885742,4.70587921142578,18.2099227905273,0,0,0,0;1,1,0,3,-4,0.5,255,225.91796875,36.1078147888184,-5.1807861328125,1.47015380859375,-85.8400726318359,14.1599273681641,20.3872756958008,0,0,0,0;1,1,0,1.5,-19.7999992370605,0.560000002384186,58.8606338500977,208,10.4000005722046,-33.7201843261719,32.3572998046875,-95,5,23.2739639282227,0,0,0,0;1,1,0,3,-18.9000015258789,0.495000004768372,22.6761436462402,216,177.109222412109,-4.34454345703125,5.92352294921875,-89.5017852783203,10.4982147216797,28.4633140563965,0,0,0,0;1,1,0,-1.5,-14.75,-1.25,61.345775604248,87.8979263305664,165,-14.3739013671875,22.6552124023438,-62.820743560791,37.179256439209,27.3963947296143,0,0,0,0;1,1,0,6,-45,-1.04999995231628,104,0,148,-12.1621704101563,2.99188232421875,-100,0,26.3488998413086,0,0,0,0;1,1,0,9,-21,0,235,50.884838104248,191.595169067383,-6.26992797851563,5.4552001953125,-78.3468780517578,21.6531219482422,20.9790744781494,0,0,0,0;1,1,2,2.36563158035278,-15.9744558334351,0,174,139,97,0,25,-42.1264381408691,25.6254768371582,25,0,0,0,0" />
	<E K="Contrast" V="0" />
	<E K="FilmGrainAmount" V="30" />
	<E K="FilmGrainDensity" V="0" />
	<E K="FilmGrainGranularity" V="50" />
	<E K="FilmGrainType" V="4" />
	<E K="GradationCurve" V="0,0.0235290005803108;0.235293999314308,0.207843005657196;0.384314000606537,0.372548997402191;0.49803900718689,0.494118005037308;0.615685999393463,0.619607985019684;0.745097994804382,0.745097994804382;0.890196025371552,0.878431022167206;1,0.980391979217529" />
	<E K="GradationCurveBlue" V="0,0.00784299988299608;0.235293999314308,0.211765006184578;0.384314000606537,0.36862701177597;0.49803900718689,0.549019992351532;0.615685999393463,0.709803998470306;0.745097994804382,0.84313702583313;0.890196025371552,0.941175997257233;1,1" />
	<E K="GradationCurveGreen" V="0,0.00392200006172061;0.235293999314308,0.200000002980232;0.384314000606537,0.360783994197845;0.49803900718689,0.549019992351532;0.615685999393463,0.709803998470306;0.745097994804382,0.839215993881226;0.890196025371552,0.937255024909973;1,1" />
	<E K="GradationCurveRed" V="0,0;0.235293999314308,0.188234999775887;0.384314000606537,0.349020004272461;0.49803900718689,0.541176021099091;0.615685999393463,0.701960980892181;0.745097994804382,0.82745099067688;0.890196025371552,0.933332979679108;1,0.996078014373779" />
	<E K="GradationCurveY" V="0,0;0.200000002980232,0.207499995827675;0.400000005960464,0.385250002145767;0.600000023841858,0.572000026702881;0.800000011920929,0.772000014781952;1,1" />
	<E K="Highlight" V="1;1;1;1" />
	<E K="HighlightRecovery" V="20" />
	<E K="Midtone" V="0;0;0;0.010950000025332" />
	<E K="Name" V="Agfa Vista 400 +" />
	<E K="Saturation" V="-5" />
	<E K="ShadowRecovery" V="24" />
	<E K="StyleSource" V="Styles" />
	<E K="TargetHighlight" V="1;1;1;0.950290024280548" />
	<E K="UsmAmount" V="0" />
	<E K="UsmRadius" V="1" />
	<E K="UUID" V="6B524F9F-D65F-4A0E-B22D-EFF994A2885E" />
</SL>
