styles/Agfa/Agfa Vista 800 -.costyle
<?xml version="1.0"?>
<SL Engine="900">
	<E K="Clarity" V="-5" />
	<E K="ClarityMethod" V="2" />
	<E K="ClarityStructure" V="-1.66666698455811" />
	<E K="ColorBalanceHighlight" V="1;1;1" />
	<E K="ColorBalanceMidtone" V="1;1;1" />
	<E K="ColorBalanceShadow" V="0.954189002513885;0.971436023712158;1" />
	<E K="ColorCorrections" V="1,1,0,4.5,-12,-1.25,237,45.3288917541504,66.479118347168,-9.59939575195313,9.18455505371094,-80.8738861083984,19.1261138916016,25.9748382568359,0,0,0,0;1,1,0,-1.20000100135803,-2.5,-0.219999998807907,255,130,12,0,4.55426025390625,-95.2941207885742,4.70587921142578,18.2099227905273,0,0,0,0;1,1,0,1.5,-4,0.5,255,225.91796875,36.1078147888184,-5.1807861328125,1.47015380859375,-85.8400726318359,14.1599273681641,20.3872756958008,0,0,0,0;1,1,0,0,-13.2000007629395,0,58.8606338500977,208,10.4000005722046,-33.7201843261719,32.3572998046875,-95,5,23.2739639282227,0,0,0,0;1,1,0,3,-27,0.495000004768372,22.6761436462402,216,177.109222412109,-4.34454345703125,5.92352294921875,-89.5017852783203,10.4982147216797,28.4633140563965,0,0,0,0;1,1,0,-1.5,-14.75,-1.25,61.345775604248,87.8979263305664,165,-14.3739013671875,22.6552124023438,-62.820743560791,37.179256439209,27.3963947296143,0,0,0,0;1,1,0,0,-45,0.629999995231628,104,0,148,-12.1621704101563,2.99188232421875,-100,0,26.3488998413086,0,0,0,0;1,1,0,0,-21,0.46000000834465,235,50.884838104248,191.595169067383,-6.26992797851563,5.4552001953125,-78.3468780517578,21.6531219482422,20.9790744781494,0,0,0,0;1,1,2,2.36563158035278,-15.9744558334351,0,174,139,97,0,25,-42.1264381408691,25.6254768371582,25,0,0,0,0" />
	<E K="Contrast" V="0" />
	<E K="FilmGrainAmount" V="25" />
	<E K="FilmGrainDensity" V="0" />
	<E K="FilmGrainGranularity" V="50" />
	<E K="FilmGrainType" V="2" />
	<E K="GradationCurve" V="0,0.00784299988299608;0.0980390012264252,0.0941179990768433;0.26274499297142,0.247059002518654;0.384314000606537,0.372548997402191;0.49803900718689,0.494118005037308;0.623529016971588,0.619607985019684;0.756862998008728,0.745097994804382;0.890196025371552,0.874509990215302;1,0.988234996795654" />
	<E K="GradationCurveBlue" V="0,0.0156859997659922;0.0980390012264252,0.0862749963998795;0.26274499297142,0.207843005657196;0.384314000606537,0.364706009626389;0.49803900718689,0.545098006725311;0.623529016971588,0.721569001674652;0.756862998008728,0.858824014663696;0.890196025371552,0.949020028114319;1,1" />
	<E K="GradationCurveGreen" V="0,0.00392200006172061;0.0980390012264252,0.0666669979691505;0.26274499297142,0.192157000303268;0.384314000606537,0.360783994197845;0.49803900718689,0.541176021099091;0.623529016971588,0.705882012844086;0.756862998008728,0.839215993881226;0.890196025371552,0.933332979679108;1,0.996078014373779" />
	<E K="GradationCurveRed" V="0,0;0.0980390012264252,0.0549019984900951;0.26274499297142,0.160784006118774;0.384314000606537,0.333332985639572;0.49803900718689,0.533333003520966;0.623529016971588,0.701960980892181;0.756862998008728,0.839215993881226;0.890196025371552,0.933332979679108;1,1" />
	<E K="GradationCurveY" V="0,0;0.200000002980232,0.207499995827675;0.400000005960464,0.380250006914139;0.600000023841858,0.564999997615814;0.800000011920929,0.764999985694885;1,1" />
	<E K="Highlight" V="1;1;1;1" />
	<E K="HighlightRecovery" V="25" />
	<E K="Midtone" V="0;0;0;0.010950000025332" />
	<E K="Name" V="Agfa Vista 800 -" />
	<E K="Saturation" V="-10" />
	<E K="ShadowRecovery" V="32" />
	<E K="StyleSource" V="Styles" />
	<E K="TargetHighlight" V="1;1;1;0.950290024280548" />
	<E K="UsmAmount" V="0" />
	<E K="UsmRadius" V="1" />
	<E K="UUID" V="FF13BA83-F7F0-4C6F-AD40-C269A32DEABA" />
</SL>
