styles/Agfa/Agfa Vista 800.costyle
<?xml version="1.0"?>
<SL Engine="900">
	<E K="Clarity" V="-10" />
	<E K="ClarityMethod" V="2" />
	<E K="ClarityStructure" V="-3.33333301544189" />
	<E K="ColorBalanceHighlight" V="1;1;1" />
	<E K="ColorBalanceMidtone" V="1;1;1" />
	<E K="ColorBalanceShadow" V="0.954189002513885;0.971436023712158;1" />
	<E K="ColorCorrections" V="1,1,0,4.5,-12,-1.25,237,45.3288917541504,66.479118347168,-9.59939575195313,9.18455505371094,-80.8738861083984,19.1261138916016,25.9748382568359,0,0,0,0;1,1,0,-1.20000100135803,-2.5,-0.219999998807907,255,130,12,0,4.55426025390625,-95.2941207885742,4.70587921142578,18.2099227905273,0,0,0,0;1,1,0,1.5,-4,0.5,255,225.91796875,36.1078147888184,-5.1807861328125,1.47015380859375,-85.8400726318359,14.1599273681641,20.3872756958008,0,0,0,0;1,1,0,0,-13.2000007629395,0,58.8606338500977,208,10.4000005722046,-33.7201843261719,32.3572998046875,-95,5,23.2739639282227,0,0,0,0;1,1,0,3,-27,0.495000004768372,22.6761436462402,216,177.109222412109,-4.34454345703125,5.92352294921875,-89.5017852783203,10.4982147216797,28.4633140563965,0,0,0,0;1,1,0,-1.5,-14.75,-1.25,61.345775604248,87.8979263305664,165,-14.3739013671875,22.6552124023438,-62.820743560791,37.179256439209,27.3963947296143,0,0,0,0;1,1,0,0,-45,0.629999995231628,104,0,148,-12.1621704101563,2.99188232421875,-100,0,26.3488998413086,0,0,0,0;1,1,0,0,-21,0.46000000834465,235,50.884838104248,191.595169067383,-6.26992797851563,5.4552001953125,-78.3468780517578,21.6531219482422,20.9790744781494,0,0,0,0;1,1,2,2.36563158035278,-15.9744558334351,0,174,139,97,0,25,-42.1264381408691,25.6254768371582,25,0,0,0,0" />
	<E K="Contrast" V="0" />
	<E K="FilmGrainAmount" V="30" />
	<E K="FilmGrainDensity" V="0" />
	<E K="FilmGrainGranularity" V="50" />
	<E K="FilmGrainType" V="2" />
	<E K="GradationCurve" V="0,0.011765000410378;0.0745100006461143,0.0901959985494614;0.26274499297142,0.235293999314308;0.384314000606537,0.372548997402191;0.49803900718689,0.494118005037308;0.623529016971588,0.623529016971588;0.756862998008728,0.745097994804382;0.901961028575897,0.882353007793427;1,0.980391979217529" />
	<E K="GradationCurveBlue" V="0,0.0196080002933741;0.0745100006461143,0.0549019984900951;0.26274499297142,0.215685993432999;0.384314000606537,0.364706009626389;0.49803900718689,0.545098006725311;0.623529016971588,0.721569001674652;0.756862998008728,0.858824014663696;0.901961028575897,0.956862986087799;1,1" />
	<E K="GradationCurveGreen" V="0,0.00784299988299608;0.0745100006461143,0.0392160005867481;0.26274499297142,0.19607800245285;0.384314000606537,0.360783994197845;0.49803900718689,0.541176021099091;0.623529016971588,0.705882012844086;0.756862998008728,0.839215993881226;0.901961028575897,0.941175997257233;1,0.996078014373779" />
	<E K="GradationCurveRed" V="0,0;0.0745100006461143,0.0274509992450476;0.26274499297142,0.168626993894577;0.384314000606537,0.333332985639572;0.49803900718689,0.533333003520966;0.623529016971588,0.701960980892181;0.756862998008728,0.839215993881226;0.901961028575897,0.941175997257233;1,0.996078014373779" />
	<E K="GradationCurveY" V="0,0;0.200000002980232,0.204999998211861;0.400000005960464,0.383500009775162;0.600000023841858,0.572000026702881;0.800000011920929,0.772000014781952;1,1" />
	<E K="Highlight" V="1;1;1;1" />
	<E K="HighlightRecovery" V="20" />
	<E K="Midtone" V="0;0;0;0.00730000017210841" />
	<E K="Name" V="Agfa Vista 800" />
	<E K="Saturation" V="-10" />
	<E K="ShadowRecovery" V="24" />
	<E K="StyleSource" V="Styles" />
	<E K="TargetHighlight" V="1;1;1;0.966859996318817" />
	<E K="UsmAmount" V="0" />
	<E K="UsmRadius" V="1" />
	<E K="UUID" V="8C130F71-E5B1-4628-AF3E-6EAB03AA6E86" />
</SL>
