styles/Agfa/Agfa Vista 800 ++.costyle
<?xml version="1.0"?>
<SL Engine="900">
	<E K="Clarity" V="-10" />
	<E K="ClarityMethod" V="2" />
	<E K="ClarityStructure" V="-3.33333301544189" />
	<E K="ColorBalanceHighlight" V="1;1;1" />
	<E K="ColorBalanceMidtone" V="1;1;1" />
	<E K="ColorBalanceShadow" V="0.954189002513885;0.971436023712158;1" />
	<E K="ColorCorrections" V="1,1,0,4.5,-12,-1.25,237,45.3288917541504,66.479118347168,-9.59939575195313,9.18455505371094,-80.8738861083984,19.1261138916016,25.9748382568359,0,0,0,0;1,1,0,0,-2.5,-0.351999998092651,255,130,12,0,4.55426025390625,-95.2941207885742,4.70587921142578,18.2099227905273,0,0,0,0;1,1,0,1.5,-4,0.5,255,225.91796875,36.1078147888184,-5.1807861328125,1.47015380859375,-85.8400726318359,14.1599273681641,20.3872756958008,0,0,0,0;1,1,0,0,-13.2000007629395,0,58.8606338500977,208,10.4000005722046,-33.7201843261719,32.3572998046875,-95,5,23.2739639282227,0,0,0,0;1,1,0,3,-27,0.495000004768372,22.6761436462402,216,177.109222412109,-4.34454345703125,5.92352294921875,-89.5017852783203,10.4982147216797,28.4633140563965,0,0,0,0;1,1,0,-1.5,-14.75,-1.25,61.345775604248,87.8979263305664,165,-14.3739013671875,22.6552124023438,-62.820743560791,37.179256439209,27.3963947296143,0,0,0,0;1,1,0,0,-45,0.629999995231628,104,0,148,-12.1621704101563,2.99188232421875,-100,0,26.3488998413086,0,0,0,0;1,1,0,0,-21,0.46000000834465,235,50.884838104248,191.595169067383,-6.26992797851563,5.4552001953125,-78.3468780517578,21.6531219482422,20.9790744781494,0,0,0,0;1,1,2,2.36563158035278,-15.9744558334351,0,174,139,97,0,25,-42.1264381408691,25.6254768371582,25,0,0,0,0" />
	<E K="Contrast" V="0" />
	<E K="FilmGrainAmount" V="40" />
	<E K="FilmGrainDensity" V="0" />
	<E K="FilmGrainGranularity" V="50" />
	<E K="FilmGrainType" V="2" />
	<E K="GradationCurve" V="0,0.0509800016880035;0.156863003969193,0.180391997098923;0.380391985177994,0.36862701177597;0.513725996017456,0.494118005037308;0.63137298822403,0.619607985019684;0.756862998008728,0.745097994804382;0.917647004127502,0.890196025371552;1,0.968626976013184" />
	<E K="GradationCurveBlue" V="0,0.0156859997659922;0.156863003969193,0.141176000237465;0.380391985177994,0.356862992048264;0.513725996017456,0.568626999855042;0.63137298822403,0.741176009178162;0.756862998008728,0.870588004589081;0.917647004127502,0.964706003665924;1,1" />
	<E K="GradationCurveGreen" V="0,0.0156859997659922;0.156863003969193,0.141176000237465;0.380391985177994,0.356862992048264;0.513725996017456,0.560783982276917;0.63137298822403,0.701960980892181;0.756862998008728,0.815685987472534;0.917647004127502,0.929412007331848;1,0.980391979217529" />
	<E K="GradationCurveRed" V="0,0;0.156863003969193,0.113724999129772;0.380391985177994,0.333332985639572;0.513725996017456,0.556863009929657;0.63137298822403,0.717647016048431;0.756862998008728,0.839215993881226;0.917647004127502,0.949020028114319;1,0.992156982421875" />
	<E K="GradationCurveY" V="0,0;0.200000002980232,0.200000002980232;0.400000005960464,0.379999995231628;0.600000023841858,0.572000026702881;0.800000011920929,0.772000014781952;1,1" />
	<E K="Highlight" V="1;1;1;1" />
	<E K="HighlightRecovery" V="20" />
	<E K="Midtone" V="0;0;0;0.00730000017210841" />
	<E K="Name" V="Agfa Vista 800 ++" />
	<E K="Saturation" V="-10" />
	<E K="ShadowRecovery" V="24" />
	<E K="StyleSource" V="Styles" />
	<E K="TargetHighlight" V="1;1;1;0.966859996318817" />
	<E K="UsmAmount" V="0" />
	<E K="UsmRadius" V="1" />
	<E K="UUID" V="81C7D322-0351-4C42-B8E3-8F136461C2F5" />
</SL>
