styles/Agfa/Agfa Portrait XPS 160 -.costyle
<?xml version="1.0"?>
<SL Engine="900">
	<E K="Clarity" V="0" />
	<E K="ClarityMethod" V="2" />
	<E K="ClarityStructure" V="0" />
	<E K="ColorBalanceHighlight" V="0.949999988079071;0.949999988079071;0.949999988079071" />
	<E K="ColorBalanceMidtone" V="0.975000023841858;0.975000023841858;0.975000023841858" />
	<E K="ColorBalanceShadow" V="0.975000023841858;0.975000023841858;0.975000023841858" />
	<E K="ColorCorrections" V="1,1,0,1.5,-6,0.150000005960464,237,45.3288917541504,66.479118347168,-9.59939575195313,9.18455505371094,-80.8738861083984,19.1261138916016,25.9748382568359,0,0,0,0;1,1,0,0,1.10000002384186,0,255,130,12,0,4.55426025390625,-95.2941207885742,4.70587921142578,18.2099227905273,0,0,0,0;1,1,0,4.5,-16,0,255,225.91796875,36.1078147888184,-5.1807861328125,1.47015380859375,-85.8400726318359,14.1599273681641,20.3872756958008,0,0,0,0;1,1,0,6,-19.7999992370605,0,58.8606338500977,208,10.4000005722046,-33.7201843261719,32.3572998046875,-95,5,23.2739639282227,0,0,0,0;1,1,0,1.5,-5.40000200271606,-0.28999999165535,22.6761436462402,216,177.109222412109,-4.34454345703125,5.92352294921875,-89.5017852783203,10.4982147216797,28.4633140563965,0,0,0,0;1,1,0,0,-8.84999847412109,-0.5,61.345775604248,87.8979263305664,165,-14.3739013671875,22.6552124023438,-62.820743560791,37.179256439209,27.3963947296143,0,0,0,0;1,1,0,0,-10,0,104,0,148,-12.1621704101563,2.99188232421875,-100,0,26.3488998413086,0,0,0,0;1,1,0,3,0,0,235,50.884838104248,191.595169067383,-6.26992797851563,5.4552001953125,-78.3468780517578,21.6531219482422,20.9790744781494,0,0,0,0;1,1,2,2.36563158035278,-15.9744558334351,0,174,139,97,0,25,-42.1264381408691,25.6254768371582,25,0,0,0,0" />
	<E K="Contrast" V="0" />
	<E K="FilmGrainAmount" V="10" />
	<E K="FilmGrainDensity" V="0" />
	<E K="FilmGrainGranularity" V="50" />
	<E K="FilmGrainType" V="2" />
	<E K="GradationCurve" V="0,0;0.0784310027956963,0.0823530033230782;0.26274499297142,0.266667008399963;0.49803900718689,0.49803900718689;0.741176009178162,0.729412019252777;1,1" />
	<E K="GradationCurveBlue" V="0,0;0.113724999129772,0.0823530033230782;0.23921599984169,0.192157000303268;0.36862701177597,0.360783994197845;0.49803900718689,0.556863009929657;0.63137298822403,0.721569001674652;0.760783970355988,0.847059011459351;0.882353007793427,0.933332979679108;1,1" />
	<E K="GradationCurveGreen" V="0,0;0.113724999129772,0.0784310027956963;0.23921599984169,0.192157000303268;0.36862701177597,0.36862701177597;0.49803900718689,0.560783982276917;0.63137298822403,0.733332991600037;0.760783970355988,0.858824014663696;0.882353007793427,0.945097982883453;1,1" />
	<E K="GradationCurveRed" V="0,0;0.113724999129772,0.0666669979691505;0.23921599984169,0.188234999775887;0.36862701177597,0.36862701177597;0.49803900718689,0.556863009929657;0.63137298822403,0.737254977226257;0.760783970355988,0.854902029037476;0.882353007793427,0.933332979679108;1,1" />
	<E K="GradationCurveY" V="0,0;0.200000002980232,0.217500001192093;0.400000005960464,0.399749994277954;0.600000023841858,0.582499980926514;0.800000011920929,0.782500028610229;1,1" />
	<E K="Highlight" V="1;1;1;1" />
	<E K="HighlightRecovery" V="12.5" />
	<E K="Midtone" V="0;0;0;0.00547500001266599" />
	<E K="Name" V="Agfa Portrait XPS 160 -" />
	<E K="Saturation" V="-5" />
	<E K="ShadowRecovery" V="16" />
	<E K="StyleSource" V="Styles" />
	<E K="TargetHighlight" V="1;1;1;0.975144982337952" />
	<E K="UsmAmount" V="20" />
	<E K="UsmRadius" V="1" />
	<E K="UUID" V="A4D1F007-0EA8-4E60-9F9C-71CEF2130119" />
</SL>
