styles/Agfa/Agfa Optima 100 II ++.costyle
<?xml version="1.0"?>
<SL Engine="900">
	<E K="Clarity" V="0" />
	<E K="ClarityMethod" V="2" />
	<E K="ClarityStructure" V="0" />
	<E K="ColorBalanceHighlight" V="1.02564096450806;1.02564096450806;1.02564096450806" />
	<E K="ColorBalanceMidtone" V="1.02564096450806;1.02564096450806;1.02564096450806" />
	<E K="ColorBalanceShadow" V="0.899999976158142;0.899999976158142;0.899999976158142" />
	<E K="ColorCorrections" V="1,1,0,1.5,-6,-0.5,237,45.3288917541504,66.479118347168,-9.59939575195313,9.18455505371094,-80.8738861083984,19.1261138916016,25.9748382568359,0,0,0,0;1,1,0,0,-2.5,0,255,130,12,0,4.55426025390625,-95.2941207885742,4.70587921142578,18.2099227905273,0,0,0,0;1,1,0,1.5,-8,0.25,255,225.91796875,36.1078147888184,-5.1807861328125,1.47015380859375,-85.8400726318359,14.1599273681641,20.3872756958008,0,0,0,0;1,1,0,1.5,-19.7999992370605,-0.5,58.8606338500977,208,10.4000005722046,-33.7201843261719,32.3572998046875,-95,5,23.2739639282227,0,0,0,0;1,1,0,0,-8.09999847412109,-0.870000004768372,22.6761436462402,216,177.109222412109,-4.34454345703125,5.92352294921875,-89.5017852783203,10.4982147216797,28.4633140563965,0,0,0,0;1,1,0,-4.5,-14.75,-0.75,61.345775604248,87.8979263305664,165,-14.3739013671875,22.6552124023438,-62.820743560791,37.179256439209,27.3963947296143,0,0,0,0;1,1,0,-3,-10,0,104,0,148,-12.1621704101563,2.99188232421875,-100,0,26.3488998413086,0,0,0,0;1,1,0,3,-21,0,235,50.884838104248,191.595169067383,-6.26992797851563,5.4552001953125,-78.3468780517578,21.6531219482422,20.9790744781494,0,0,0,0;1,1,2,2.36563158035278,-15.9744558334351,0,174,139,97,0,25,-42.1264381408691,25.6254768371582,25,0,0,0,0" />
	<E K="Contrast" V="0" />
	<E K="FilmGrainAmount" V="25" />
	<E K="FilmGrainDensity" V="0" />
	<E K="FilmGrainGranularity" V="50" />
	<E K="FilmGrainType" V="1" />
	<E K="GradationCurve" V="0,0.0235290005803108;0.0549019984900951,0.0784310027956963;0.243137001991272,0.243137001991272;0.376471012830734,0.36862701177597;0.50196099281311,0.494118005037308;0.627451002597809,0.623529016971588;0.752941012382507,0.745097994804382;0.878431022167206,0.874509990215302;1,1" />
	<E K="GradationCurveBlue" V="0,0.00784299988299608;0.0549019984900951,0.0470589995384216;0.243137001991272,0.207843005657196;0.376471012830734,0.360783994197845;0.50196099281311,0.513725996017456;0.627451002597809,0.650979995727539;0.752941012382507,0.772548973560333;0.878431022167206,0.890196025371552;1,1" />
	<E K="GradationCurveGreen" V="0,0;0.0549019984900951,0.0352940000593662;0.243137001991272,0.200000002980232;0.376471012830734,0.360783994197845;0.50196099281311,0.513725996017456;0.627451002597809,0.65490198135376;0.752941012382507,0.776471018791199;0.878431022167206,0.894118010997772;1,1" />
	<E K="GradationCurveRed" V="0,0.00392200006172061;0.0549019984900951,0.0431369990110397;0.243137001991272,0.203922003507614;0.376471012830734,0.360783994197845;0.50196099281311,0.521569013595581;0.627451002597809,0.662744998931885;0.752941012382507,0.784313976764679;0.878431022167206,0.898038983345032;1,1" />
	<E K="GradationCurveY" V="0,0;0.200000002980232,0.217500001192093;0.400000005960464,0.399749994277954;0.600000023841858,0.582499980926514;0.800000011920929,0.782500028610229;1,1" />
	<E K="Highlight" V="1;1;1;1" />
	<E K="HighlightRecovery" V="12.5" />
	<E K="Midtone" V="0;0;0;0.00912499986588955" />
	<E K="Name" V="Agfa Optima 100 II ++" />
	<E K="Saturation" V="-10" />
	<E K="ShadowRecovery" V="20" />
	<E K="StyleSource" V="Styles" />
	<E K="TargetHighlight" V="1;1;1;0.958575010299683" />
	<E K="UsmAmount" V="15" />
	<E K="UsmRadius" V="1" />
	<E K="UUID" V="74906178-4440-4164-B7E6-CE7E2C5E73A4" />
</SL>
