styles/Agfa/Agfa Ultra 50 - -.costyle
<?xml version="1.0"?>
<SL Engine="900">
	<E K="Clarity" V="0" />
	<E K="ClarityMethod" V="2" />
	<E K="ClarityStructure" V="0" />
	<E K="ColorBalanceHighlight" V="0.9375;0.9375;0.9375" />
	<E K="ColorBalanceMidtone" V="1.08108103275299;1.08108103275299;1.08108103275299" />
	<E K="ColorBalanceShadow" V="0.887499988079071;0.887499988079071;0.887499988079071" />
	<E K="ColorCorrections" V="1,1,0,1.5,-9,-0.25,237,45.3288917541504,66.479118347168,-9.59939575195313,9.18455505371094,-80.8738861083984,19.1261138916016,25.9748382568359,0,0,0,0;1,1,0,1.5,-5,-0.439999997615814,255,130,12,0,4.55426025390625,-95.2941207885742,4.70587921142578,18.2099227905273,0,0,0,0;1,1,0,4.5,0,0,255,225.91796875,36.1078147888184,-5.1807861328125,1.47015380859375,-85.8400726318359,14.1599273681641,20.3872756958008,0,0,0,0;1,1,0,4.5,-13.2000007629395,0,58.8606338500977,208,10.4000005722046,-33.7201843261719,32.3572998046875,-95,5,23.2739639282227,0,0,0,0;1,1,0,-1.5,-2.70000100135803,-0.579999983310699,22.6761436462402,216,177.109222412109,-4.34454345703125,5.92352294921875,-89.5017852783203,10.4982147216797,28.4633140563965,0,0,0,0;1,1,0,-1.5,-8.84999847412109,-0.5,61.345775604248,87.8979263305664,165,-14.3739013671875,22.6552124023438,-62.820743560791,37.179256439209,27.3963947296143,0,0,0,0;1,1,0,0,-5,-0.349999994039536,104,0,148,-12.1621704101563,2.99188232421875,-100,0,26.3488998413086,0,0,0,0;1,1,0,3,-3.5,-0.400000005960464,235,50.884838104248,191.595169067383,-6.26992797851563,5.4552001953125,-78.3468780517578,21.6531219482422,20.9790744781494,0,0,0,0;1,1,2,2.36563158035278,-15.9744558334351,0,174,139,97,0,25,-42.1264381408691,25.6254768371582,25,0,0,0,0" />
	<E K="Contrast" V="0" />
	<E K="FilmGrainAmount" V="20" />
	<E K="FilmGrainDensity" V="0" />
	<E K="FilmGrainGranularity" V="50" />
	<E K="FilmGrainType" V="1" />
	<E K="GradationCurve" V="0,0;0.0627449974417686,0.0784310027956963;0.223528996109962,0.250979989767075;0.509804010391235,0.513725996017456;0.760783970355988,0.745097994804382;1,1" />
	<E K="GradationCurveBlue" V="0,0;0.0862749963998795,0.0784310027956963;0.211765006184578,0.19607800245285;0.349020004272461,0.345097988843918;0.494118005037308,0.509804010391235;0.63137298822403,0.662744998931885;0.764706015586853,0.800000011920929;0.886274993419647,0.905882000923157;1,1" />
	<E K="GradationCurveGreen" V="0,0;0.0862749963998795,0.0666669979691505;0.211765006184578,0.176470994949341;0.349020004272461,0.321568995714188;0.494118005037308,0.482353001832962;0.63137298822403,0.63137298822403;0.764706015586853,0.768626987934113;0.886274993419647,0.886274993419647;1,1" />
	<E K="GradationCurveRed" V="0,0;0.0862749963998795,0.0666669979691505;0.211765006184578,0.176470994949341;0.349020004272461,0.313726007938385;0.494118005037308,0.474510014057159;0.63137298822403,0.627451002597809;0.764706015586853,0.768626987934113;0.886274993419647,0.890196025371552;1,1" />
	<E K="GradationCurveY" V="0,0;0.200000002980232,0.219999998807907;0.400000005960464,0.396499991416931;0.600000023841858,0.575500011444092;0.800000011920929,0.775499999523163;1,1" />
	<E K="Highlight" V="1;1;1;1" />
	<E K="HighlightRecovery" V="17.5" />
	<E K="Midtone" V="0;0;0;0.0146000003442168" />
	<E K="Name" V="Agfa Ultra 50 - -" />
	<E K="Saturation" V="-5" />
	<E K="ShadowRecovery" V="28" />
	<E K="StyleSource" V="Styles" />
	<E K="TargetHighlight" V="1;1;1;0.933719992637634" />
	<E K="UsmAmount" V="25" />
	<E K="UsmRadius" V="1" />
	<E K="UUID" V="65AF641C-B7C5-438D-954F-4B2C4BFB09B2" />
</SL>
