styles/Agfa/Agfa Vista 100 -.costyle
<?xml version="1.0"?>
<SL Engine="900">
	<E K="Clarity" V="-5" />
	<E K="ClarityMethod" V="2" />
	<E K="ClarityStructure" V="-1.66666698455811" />
	<E K="ColorBalanceHighlight" V="1;1;1" />
	<E K="ColorBalanceMidtone" V="1;1;1" />
	<E K="ColorBalanceShadow" V="1;1;1" />
	<E K="ColorCorrections" V="1,1,0,1.5,-12,0.150000005960464,237,45.3288917541504,66.479118347168,-9.59939575195313,9.18455505371094,-80.8738861083984,19.1261138916016,25.9748382568359,0,0,0,0;1,1,0,1.5,-10,0,255,130,12,0,4.55426025390625,-95.2941207885742,4.70587921142578,18.2099227905273,0,0,0,0;1,1,0,0,-16,0.5,255,225.91796875,36.1078147888184,-5.1807861328125,1.47015380859375,-85.8400726318359,14.1599273681641,20.3872756958008,0,0,0,0;1,1,0,3,-23.1000022888184,0,58.8606338500977,208,10.4000005722046,-33.7201843261719,32.3572998046875,-95,5,23.2739639282227,0,0,0,0;1,1,0,3,-18.9000015258789,0,22.6761436462402,216,177.109222412109,-4.34454345703125,5.92352294921875,-89.5017852783203,10.4982147216797,28.4633140563965,0,0,0,0;1,1,0,0,-17.7000007629395,-1.25,61.345775604248,87.8979263305664,165,-14.3739013671875,22.6552124023438,-62.820743560791,37.179256439209,27.3963947296143,0,0,0,0;1,1,0,6,-45,-1.04999995231628,104,0,148,-12.1621704101563,2.99188232421875,-100,0,26.3488998413086,0,0,0,0;1,1,0,9,-31.5,0,235,50.884838104248,191.595169067383,-6.26992797851563,5.4552001953125,-78.3468780517578,21.6531219482422,20.9790744781494,0,0,0,0;1,1,2,2.36563158035278,-15.9744558334351,0,174,139,97,0,25,-42.1264381408691,25.6254768371582,25,0,0,0,0" />
	<E K="Contrast" V="0" />
	<E K="FilmGrainAmount" V="10" />
	<E K="FilmGrainDensity" V="0" />
	<E K="FilmGrainGranularity" V="50" />
	<E K="FilmGrainType" V="1" />
	<E K="GradationCurve" V="0,0;0.113724999129772,0.113724999129772;0.243137001991272,0.243137001991272;0.372548997402191,0.36862701177597;0.505882024765015,0.49803900718689;0.635294020175934,0.623529016971588;0.764706015586853,0.749019980430603;0.894118010997772,0.874509990215302;1,0.988234996795654" />
	<E K="GradationCurveBlue" V="0,0;0.113724999129772,0.0549019984900951;0.243137001991272,0.133332997560501;0.372548997402191,0.290196001529694;0.505882024765015,0.505882024765015;0.635294020175934,0.705882012844086;0.764706015586853,0.85097998380661;0.894118010997772,0.937255024909973;1,0.996078014373779" />
	<E K="GradationCurveGreen" V="0,0;0.113724999129772,0.0549019984900951;0.243137001991272,0.133332997560501;0.372548997402191,0.290196001529694;0.505882024765015,0.505882024765015;0.635294020175934,0.698038995265961;0.764706015586853,0.839215993881226;0.894118010997772,0.925490021705627;1,0.996078014373779" />
	<E K="GradationCurveRed" V="0,0;0.113724999129772,0.0431369990110397;0.243137001991272,0.129411995410919;0.372548997402191,0.290196001529694;0.505882024765015,0.494118005037308;0.635294020175934,0.694118022918701;0.764706015586853,0.85097998380661;0.894118010997772,0.949020028114319;1,1" />
	<E K="GradationCurveY" V="0,0;0.200000002980232,0.212500005960464;0.400000005960464,0.38374999165535;0.600000023841858,0.564999997615814;0.800000011920929,0.764999985694885;1,1" />
	<E K="Highlight" V="1;1;1;1" />
	<E K="HighlightRecovery" V="25" />
	<E K="Midtone" V="0;0;0;0.010950000025332" />
	<E K="Name" V="Agfa Vista 100 -" />
	<E K="Saturation" V="-5" />
	<E K="ShadowRecovery" V="36" />
	<E K="StyleSource" V="Styles" />
	<E K="TargetHighlight" V="1;1;1;0.950290024280548" />
	<E K="UsmAmount" V="0" />
	<E K="UsmRadius" V="1" />
	<E K="UUID" V="ACB4A5B5-77BB-4599-B1AD-F48DC6D231F7" />
</SL>
