styles/Agfa/Agfa Ultra 100 +.costyle
<?xml version="1.0"?>
<SL Engine="900">
	<E K="Clarity" V="0" />
	<E K="ClarityMethod" V="2" />
	<E K="ClarityStructure" V="0" />
	<E K="ColorBalanceHighlight" V="1;1;1" />
	<E K="ColorBalanceMidtone" V="1.07238602638245;1.07238602638245;1.07238602638245" />
	<E K="ColorBalanceShadow" V="0.925000011920929;0.925000011920929;0.925000011920929" />
	<E K="ColorCorrections" V="1,1,0,1.5,-9,-1,237,45.3288917541504,66.479118347168,-9.59939575195313,9.18455505371094,-80.8738861083984,19.1261138916016,25.9748382568359,0,0,0,0;1,1,0,1.5,-5,-0.879999995231628,255,130,12,0,4.55426025390625,-95.2941207885742,4.70587921142578,18.2099227905273,0,0,0,0;1,1,0,4.5,-4,0,255,225.91796875,36.1078147888184,-5.1807861328125,1.47015380859375,-85.8400726318359,14.1599273681641,20.3872756958008,0,0,0,0;1,1,0,3.59999990463257,-9.89999771118164,-0.75,58.8606338500977,208,10.4000005722046,-33.7201843261719,32.3572998046875,-95,5,23.2739639282227,0,0,0,0;1,1,0,0,-2.70000100135803,-0.579999983310699,22.6761436462402,216,177.109222412109,-4.34454345703125,5.92352294921875,-89.5017852783203,10.4982147216797,28.4633140563965,0,0,0,0;1,1,0,-3,-5.90000200271606,-0.75,61.345775604248,87.8979263305664,165,-14.3739013671875,22.6552124023438,-62.820743560791,37.179256439209,27.3963947296143,0,0,0,0;1,1,0,0,-10,-0.349999994039536,104,0,148,-12.1621704101563,2.99188232421875,-100,0,26.3488998413086,0,0,0,0;1,1,0,3,-21,-0.800000011920929,235,50.884838104248,191.595169067383,-6.26992797851563,5.4552001953125,-78.3468780517578,21.6531219482422,20.9790744781494,0,0,0,0;1,1,2,2.36563158035278,-15.9744558334351,0,174,139,97,0,25,-42.1264381408691,25.6254768371582,25,0,0,0,0" />
	<E K="Contrast" V="0" />
	<E K="FilmGrainAmount" V="30" />
	<E K="FilmGrainDensity" V="0" />
	<E K="FilmGrainGranularity" V="50" />
	<E K="FilmGrainType" V="2" />
	<E K="GradationCurve" V="0,0.011765000410378;0.0823530033230782,0.0941179990768433;0.235293999314308,0.243137001991272;0.36862701177597,0.372548997402191;0.494118005037308,0.494118005037308;0.619607985019684,0.619607985019684;0.745097994804382,0.745097994804382;0.874509990215302,0.874509990215302;1,1" />
	<E K="GradationCurveBlue" V="0,0.00784299988299608;0.0823530033230782,0.0745100006461143;0.235293999314308,0.200000002980232;0.36862701177597,0.341176003217697;0.494118005037308,0.486274987459183;0.619607985019684,0.627451002597809;0.745097994804382,0.756862998008728;0.874509990215302,0.882353007793427;1,1" />
	<E K="GradationCurveGreen" V="0,0.00392200006172061;0.0823530033230782,0.0666669979691505;0.235293999314308,0.188234999775887;0.36862701177597,0.333332985639572;0.494118005037308,0.482353001832962;0.619607985019684,0.623529016971588;0.745097994804382,0.752941012382507;0.874509990215302,0.878431022167206;1,1" />
	<E K="GradationCurveRed" V="0,0;0.0823530033230782,0.058823999017477;0.235293999314308,0.184313997626305;0.36862701177597,0.333332985639572;0.494118005037308,0.486274987459183;0.619607985019684,0.63137298822403;0.745097994804382,0.760783970355988;0.874509990215302,0.882353007793427;1,1" />
	<E K="GradationCurveY" V="0,0;0.200000002980232,0.212500005960464;0.400000005960464,0.398750007152557;0.600000023841858,0.586000025272369;0.800000011920929,0.78600001335144;1,1" />
	<E K="Highlight" V="1;1;1;1" />
	<E K="HighlightRecovery" V="10" />
	<E K="Midtone" V="0;0;0;0.00730000017210841" />
	<E K="Name" V="Agfa Ultra 100 +" />
	<E K="Saturation" V="0" />
	<E K="ShadowRecovery" V="12" />
	<E K="StyleSource" V="Styles" />
	<E K="TargetHighlight" V="1;1;1;0.966859996318817" />
	<E K="UsmAmount" V="25" />
	<E K="UsmRadius" V="1" />
	<E K="UUID" V="0248333E-D19F-4BBD-9BCE-5DBBDBC37111" />
</SL>
