styles/Agfa/Agfa Optima 100 II - -.costyle
<?xml version="1.0"?>
<SL Engine="900">
	<E K="Clarity" V="0" />
	<E K="ClarityMethod" V="2" />
	<E K="ClarityStructure" V="0" />
	<E K="ColorBalanceHighlight" V="1.02564096450806;1.02564096450806;1.02564096450806" />
	<E K="ColorBalanceMidtone" V="1.02564096450806;1.02564096450806;1.02564096450806" />
	<E K="ColorBalanceShadow" V="0.899999976158142;0.899999976158142;0.899999976158142" />
	<E K="ColorCorrections" V="1,1,0,1.5,-9,-0.75,237,45.3288917541504,66.479118347168,-9.59939575195313,9.18455505371094,-80.8738861083984,19.1261138916016,25.9748382568359,0,0,0,0;1,1,0,0,-2.5,0,255,130,12,0,4.55426025390625,-95.2941207885742,4.70587921142578,18.2099227905273,0,0,0,0;1,1,0,0,1.5,0.25,255,225.91796875,36.1078147888184,-5.1807861328125,1.47015380859375,-85.8400726318359,14.1599273681641,20.3872756958008,0,0,0,0;1,1,0,1.5,-19.7999992370605,-0.5,58.8606338500977,208,10.4000005722046,-33.7201843261719,32.3572998046875,-95,5,23.2739639282227,0,0,0,0;1,1,0,-1.5,-8.09999847412109,-0.870000004768372,22.6761436462402,216,177.109222412109,-4.34454345703125,5.92352294921875,-89.5017852783203,10.4982147216797,28.4633140563965,0,0,0,0;1,1,0,-4.5,-11.7999992370605,-1,61.345775604248,87.8979263305664,165,-14.3739013671875,22.6552124023438,-62.820743560791,37.179256439209,27.3963947296143,0,0,0,0;1,1,0,-3,-25,-0.699999988079071,104,0,148,-12.1621704101563,2.99188232421875,-100,0,26.3488998413086,0,0,0,0;1,1,0,3,-21,0,235,50.884838104248,191.595169067383,-6.26992797851563,5.4552001953125,-78.3468780517578,21.6531219482422,20.9790744781494,0,0,0,0;1,1,2,2.36563158035278,-15.9744558334351,0,174,139,97,0,25,-42.1264381408691,25.6254768371582,25,0,0,0,0" />
	<E K="Contrast" V="0" />
	<E K="FilmGrainAmount" V="0" />
	<E K="FilmGrainDensity" V="0" />
	<E K="FilmGrainGranularity" V="50" />
	<E K="FilmGrainType" V="1" />
	<E K="GradationCurve" V="0,0;0.0509800016880035,0.0666669979691505;0.250979989767075,0.258823990821838;0.50196099281311,0.490195989608765;0.768626987934113,0.749019980430603;1,1" />
	<E K="GradationCurveBlue" V="0,0;0.0862749963998795,0.0627449974417686;0.231372997164726,0.19607800245285;0.380391985177994,0.364706009626389;0.509804010391235,0.521569013595581;0.643136978149414,0.666666984558105;0.768626987934113,0.788235008716583;0.886274993419647,0.898038983345032;1,1" />
	<E K="GradationCurveGreen" V="0,0;0.0862749963998795,0.0509800016880035;0.231372997164726,0.188234999775887;0.380391985177994,0.364706009626389;0.509804010391235,0.521569013595581;0.643136978149414,0.67058801651001;0.768626987934113,0.792156994342804;0.886274993419647,0.901961028575897;1,1" />
	<E K="GradationCurveRed" V="0,0;0.0862749963998795,0.058823999017477;0.231372997164726,0.19607800245285;0.380391985177994,0.372548997402191;0.509804010391235,0.541176021099091;0.643136978149414,0.686275005340576;0.768626987934113,0.80392199754715;0.886274993419647,0.905882000923157;1,1" />
	<E K="GradationCurveY" V="0,0;0.200000002980232,0.219999998807907;0.400000005960464,0.40149998664856;0.600000023841858,0.582499980926514;0.800000011920929,0.782500028610229;1,1" />
	<E K="Highlight" V="1;1;1;1" />
	<E K="HighlightRecovery" V="12.5" />
	<E K="Midtone" V="0;0;0;0.00912499986588955" />
	<E K="Name" V="Agfa Optima 100 II - -" />
	<E K="Saturation" V="-5" />
	<E K="ShadowRecovery" V="24" />
	<E K="StyleSource" V="Styles" />
	<E K="TargetHighlight" V="1;1;1;0.958575010299683" />
	<E K="UsmAmount" V="25" />
	<E K="UsmRadius" V="1" />
	<E K="UUID" V="57CDDC05-EE1B-4F63-B0A1-6079062B54FA" />
</SL>
