styles/Agfa/Agfa RSX 50 II ++.costyle
<?xml version="1.0"?>
<SL Engine="900">
	<E K="Clarity" V="0" />
	<E K="ClarityMethod" V="2" />
	<E K="ClarityStructure" V="0" />
	<E K="ColorBalanceHighlight" V="0.962499976158142;0.962499976158142;0.962499976158142" />
	<E K="ColorBalanceMidtone" V="1.07238602638245;1.07238602638245;1.07238602638245" />
	<E K="ColorBalanceShadow" V="0.975000023841858;0.975000023841858;0.975000023841858" />
	<E K="ColorCorrections" V="1,1,0,2.40000009536743,-9,-0.75,237,45.3288917541504,66.479118347168,-9.59939575195313,9.18455505371094,-80.8738861083984,19.1261138916016,25.9748382568359,0,0,0,0;1,1,0,0,-5,-0.439999997615814,255,130,12,0,4.55426025390625,-95.2941207885742,4.70587921142578,18.2099227905273,0,0,0,0;1,1,0,-3,-16,-0.300000011920929,255,225.91796875,36.1078147888184,-5.1807861328125,1.47015380859375,-85.8400726318359,14.1599273681641,20.3872756958008,0,0,0,0;1,1,0,-4.5,-6.6000018119812,-1,58.8606338500977,208,10.4000005722046,-33.7201843261719,32.3572998046875,-95,5,23.2739639282227,0,0,0,0;1,1,0,3,-5.40000200271606,-0.579999983310699,22.6761436462402,216,177.109222412109,-4.34454345703125,5.92352294921875,-89.5017852783203,10.4982147216797,28.4633140563965,0,0,0,0;1,1,0,3,-5.90000200271606,-1,61.345775604248,87.8979263305664,165,-14.3739013671875,22.6552124023438,-62.820743560791,37.179256439209,27.3963947296143,0,0,0,0;1,1,0,6,-20,-0.699999988079071,104,0,148,-12.1621704101563,2.99188232421875,-100,0,26.3488998413086,0,0,0,0;1,1,0,4.5,-21,0,235,50.884838104248,191.595169067383,-6.26992797851563,5.4552001953125,-78.3468780517578,21.6531219482422,20.9790744781494,0,0,0,0;1,1,2,2.36563158035278,-15.9744558334351,0,174,139,97,0,25,-42.1264381408691,25.6254768371582,25,0,0,0,0" />
	<E K="Contrast" V="0" />
	<E K="FilmGrainAmount" V="18" />
	<E K="FilmGrainDensity" V="0" />
	<E K="FilmGrainGranularity" V="50" />
	<E K="FilmGrainType" V="1" />
	<E K="GradationCurve" V="0,0.0196080002933741;0.0745100006461143,0.0901959985494614;0.247059002518654,0.247059002518654;0.388235002756119,0.36862701177597;0.51764702796936,0.49803900718689;0.635294020175934,0.619607985019684;0.756862998008728,0.749019980430603;0.878431022167206,0.874509990215302;1,1" />
	<E K="GradationCurveBlue" V="0,0.00392200006172061;0.0745100006461143,0.058823999017477;0.247059002518654,0.211765006184578;0.388235002756119,0.36862701177597;0.51764702796936,0.529411971569061;0.635294020175934,0.666666984558105;0.756862998008728,0.788235008716583;0.878431022167206,0.898038983345032;1,1" />
	<E K="GradationCurveGreen" V="0,0;0.0745100006461143,0.0549019984900951;0.247059002518654,0.200000002980232;0.388235002756119,0.376471012830734;0.51764702796936,0.549019992351532;0.635294020175934,0.690195977687836;0.756862998008728,0.807843029499054;0.878431022167206,0.905882000923157;1,1" />
	<E K="GradationCurveRed" V="0,0;0.0745100006461143,0.058823999017477;0.247059002518654,0.207843005657196;0.388235002756119,0.36862701177597;0.51764702796936,0.533333003520966;0.635294020175934,0.67451000213623;0.756862998008728,0.796078026294708;0.878431022167206,0.901961028575897;1,1" />
	<E K="GradationCurveY" V="0,0;0.200000002980232,0.204999998211861;0.400000005960464,0.386000007390976;0.600000023841858,0.575500011444092;0.800000011920929,0.775499999523163;1,1" />
	<E K="Highlight" V="1;1;1;1" />
	<E K="HighlightRecovery" V="17.5" />
	<E K="Midtone" V="0;0;0;0.00365000008605421" />
	<E K="Name" V="Agfa RSX 50 II ++" />
	<E K="Saturation" V="0" />
	<E K="ShadowRecovery" V="8" />
	<E K="StyleSource" V="Styles" />
	<E K="TargetHighlight" V="1;1;1;0.983430027961731" />
	<E K="UsmAmount" V="25" />
	<E K="UsmRadius" V="1" />
	<E K="UUID" V="73EE3E40-24BC-4E7D-A443-C51DA6B151C6" />
</SL>
