styles/Agfa/Agfa Vista 100 - -.costyle
<?xml version="1.0"?>
<SL Engine="900">
	<E K="Clarity" V="-5" />
	<E K="ClarityMethod" V="2" />
	<E K="ClarityStructure" V="-1.66666698455811" />
	<E K="ColorBalanceHighlight" V="1;1;1" />
	<E K="ColorBalanceMidtone" V="1;1;1" />
	<E K="ColorBalanceShadow" V="1;1;1" />
	<E K="ColorCorrections" V="1,1,0,1.5,-12,0.150000005960464,237,45.3288917541504,66.479118347168,-9.59939575195313,9.18455505371094,-80.8738861083984,19.1261138916016,25.9748382568359,0,0,0,0;1,1,0,1.5,-10,0,255,130,12,0,4.55426025390625,-95.2941207885742,4.70587921142578,18.2099227905273,0,0,0,0;1,1,0,0,-16,0.5,255,225.91796875,36.1078147888184,-5.1807861328125,1.47015380859375,-85.8400726318359,14.1599273681641,20.3872756958008,0,0,0,0;1,1,0,3,-23.1000022888184,0,58.8606338500977,208,10.4000005722046,-33.7201843261719,32.3572998046875,-95,5,23.2739639282227,0,0,0,0;1,1,0,3,-18.9000015258789,0,22.6761436462402,216,177.109222412109,-4.34454345703125,5.92352294921875,-89.5017852783203,10.4982147216797,28.4633140563965,0,0,0,0;1,1,0,0,-17.7000007629395,-1.25,61.345775604248,87.8979263305664,165,-14.3739013671875,22.6552124023438,-62.820743560791,37.179256439209,27.3963947296143,0,0,0,0;1,1,0,6,-45,-1.04999995231628,104,0,148,-12.1621704101563,2.99188232421875,-100,0,26.3488998413086,0,0,0,0;1,1,0,9,-31.5,0,235,50.884838104248,191.595169067383,-6.26992797851563,5.4552001953125,-78.3468780517578,21.6531219482422,20.9790744781494,0,0,0,0;1,1,2,2.36563158035278,-15.9744558334351,0,174,139,97,0,25,-42.1264381408691,25.6254768371582,25,0,0,0,0" />
	<E K="Contrast" V="0" />
	<E K="FilmGrainAmount" V="0" />
	<E K="FilmGrainDensity" V="0" />
	<E K="FilmGrainGranularity" V="50" />
	<E K="FilmGrainType" V="1" />
	<E K="GradationCurve" V="0,0;0.0784310027956963,0.0823530033230782;0.352941006422043,0.360783994197845;0.760783970355988,0.752941012382507;1,1" />
	<E K="GradationCurveBlue" V="0,0;0.105881996452808,0.0431369990110397;0.231372997164726,0.121569000184536;0.364706009626389,0.282353013753891;0.49803900718689,0.49803900718689;0.63137298822403,0.701960980892181;0.756862998008728,0.84313702583313;0.878431022167206,0.925490021705627;1,1" />
	<E K="GradationCurveGreen" V="0,0;0.105881996452808,0.0431369990110397;0.231372997164726,0.121569000184536;0.364706009626389,0.282353013753891;0.49803900718689,0.49803900718689;0.63137298822403,0.698038995265961;0.756862998008728,0.84313702583313;0.878431022167206,0.933332979679108;1,1" />
	<E K="GradationCurveRed" V="0,0;0.105881996452808,0.0352940000593662;0.231372997164726,0.117646999657154;0.364706009626389,0.282353013753891;0.49803900718689,0.486274987459183;0.63137298822403,0.690195977687836;0.756862998008728,0.84313702583313;0.878431022167206,0.937255024909973;1,1" />
	<E K="GradationCurveY" V="0,0;0.200000002980232,0.215000003576279;0.400000005960464,0.380499988794327;0.600000023841858,0.558000028133392;0.800000011920929,0.758000016212463;1,1" />
	<E K="Highlight" V="1;1;1;1" />
	<E K="HighlightRecovery" V="30" />
	<E K="Midtone" V="0;0;0;0.0127750001847744" />
	<E K="Name" V="Agfa Vista 100 - -" />
	<E K="Saturation" V="-5" />
	<E K="ShadowRecovery" V="44" />
	<E K="StyleSource" V="Styles" />
	<E K="TargetHighlight" V="1;1;1;0.942004978656769" />
	<E K="UsmAmount" V="0" />
	<E K="UsmRadius" V="1" />
	<E K="UUID" V="BBE012ED-973E-4BE3-B9EB-21DEF0DC5A19" />
</SL>
